; GCode generated by CraftWare

G28 X0 Y0
G28 Z0


M104 S215 ;set head temp (no wait)
M190 S60 ;set bed temp (wait)
M109 S215 ;set head temp (wait)

; ------------------------------------
; Raft Layer #0
; ------------------------------------
M106 S0 ;turn off fan
G21 ; mm
G90 ; abs
G92 E0 ;reset extr
G0 F1200 Z0.300
;segType:Raft
G0 F3000 E-1.0000
G0 F1200 Z2.300
G0 X120.373 Y116.971 F5400
G0 F1200 Z0.300
G0 F3000 E0.0000
G1 X118.477 Y114.953 E0.1381 F600
G1 X117.070 Y112.445 E0.2816
G1 X116.153 Y109.448 E0.4379
G1 X115.970 Y107.674 E0.5269
G1 X115.970 Y105.717 E0.6246
G1 X116.092 Y103.882 E0.7163
G1 X116.398 Y102.231 E0.8001
G1 X116.826 Y100.702 E0.8793
G1 X118.233 Y98.194 E1.0228
G1 X120.006 Y96.054 E1.1614
G1 X122.025 Y94.157 E1.2996
G1 X123.186 Y93.363 E1.3698
G1 X125.817 Y92.078 E1.5159
G1 X127.345 Y91.650 E1.5951
G1 X128.997 Y91.344 E1.6789
G1 X132.911 Y91.344 E1.8742
G1 X134.624 Y91.589 E1.9605
G1 X137.499 Y92.629 E2.1130
G1 X138.783 Y93.301 E2.1853
G1 X140.985 Y95.014 E2.3245
G1 X142.881 Y97.032 E2.4626
G1 X143.737 Y98.133 E2.5322
G1 X145.143 Y100.640 E2.6757
G1 X145.939 Y103.760 E2.8363
G1 X146.061 Y105.595 E2.9280
G1 X146.061 Y107.552 E3.0256
G1 X145.939 Y109.387 E3.1174
G1 X145.021 Y112.384 E3.2738
G1 X143.615 Y114.891 E3.4172
G1 X141.718 Y116.910 E3.5554
G1 X139.700 Y118.805 E3.6935
G1 X138.538 Y119.601 E3.7638
G1 X137.254 Y120.273 E3.8361
G1 X135.847 Y120.824 E3.9115
G1 X134.257 Y121.191 E3.9929
G1 X132.544 Y121.436 E4.0792
G1 X130.587 Y121.436 E4.1768
G1 X128.752 Y121.313 E4.2686
G1 X127.040 Y121.069 E4.3549
G1 X124.838 Y120.335 E4.4707
G1 X122.392 Y118.867 E4.6130
G1 X120.373 Y116.971 E4.7512
G0 X122.893 Y118.072 F5400
G1 X122.893 Y94.830 E5.9107 F600
G0 F3000 E4.9107
G0 X126.893 Y92.751 F5400
G0 F3000 E5.9107
G1 X126.893 Y120.029 E7.2716 F600
G0 F3000 E6.2716
G0 X130.893 Y120.640 F5400
G0 F3000 E7.2716
G1 X130.893 Y92.262 E8.6874 F600
G0 F3000 E7.6874
G0 X134.893 Y92.751 F5400
G0 F3000 E8.6874
G1 X134.893 Y120.151 E10.0544 F600
G0 F3000 E9.0544
G0 X138.893 Y118.194 F5400
G0 F3000 E10.0544
G1 X138.893 Y94.586 E11.2322 F600
G0 F3000 E10.2322
G0 X142.893 Y98.745 F5400
G0 F3000 E11.2322
G1 X142.893 Y114.157 E12.0011 F600
G0 F3000 E11.0011
G0 X118.893 Y113.790 F5400
G0 F3000 E12.0011
G1 X118.893 Y99.112 E12.7334 F600



; ------------------------------------
; Raft Layer #1
; ------------------------------------
M106 S0 ;turn off fan
G92 E0 ;reset extr
G0 F1200 Z0.600
;segType:Raft
G0 X117.988 Y98.512 F7200
G1 X143.920 Y98.512 E1.2938 F2400
G0 X144.654 Y99.846 F7200
G1 X117.254 Y99.846 E2.6608 F2400
G0 X116.643 Y101.179 F7200
G1 X145.266 Y101.179 E4.0888 F2400
G0 X145.633 Y102.512 F7200
G1 X116.276 Y102.512 E5.5534 F2400
G0 X116.031 Y103.846 F7200
G1 X145.877 Y103.846 E7.0424 F2400
G0 X146.000 Y105.179 F7200
G1 X115.909 Y105.179 E8.5437 F2400
G1 X115.909 Y106.512 E8.6102
G1 X146.000 Y106.512 E10.1115
G1 X146.000 Y107.845 E10.1780
G1 X115.909 Y107.845 E11.6792
G0 X116.031 Y109.179 F7200
G1 X145.877 Y109.179 E13.1683 F2400
G0 X145.633 Y110.512 F7200
G1 X116.276 Y110.512 E14.6329 F2400
G0 X116.765 Y111.845 F7200
G1 X145.143 Y111.845 E16.0487 F2400
G0 X144.532 Y113.179 F7200
G1 X117.376 Y113.179 E17.4035 F2400
G0 X118.110 Y114.512 F7200
G1 X143.798 Y114.512 E18.6851 F2400
G0 X142.697 Y115.845 F7200
G1 X119.211 Y115.845 E19.8568 F2400
G0 X120.557 Y117.179 F7200
G1 X141.351 Y117.179 E20.8942 F2400
G0 X139.884 Y118.512 F7200
G1 X122.025 Y118.512 E21.7852 F2400
G0 X123.982 Y119.846 F7200
G1 X137.926 Y119.846 E22.4809 F2400
G0 F3000 E21.4809
G0 X134.501 Y121.179 F7200
G0 F3000 E22.4809
G1 X127.407 Y121.179 E22.8349 F2400
G0 F3000 E21.8349
G0 X118.967 Y97.179 F7200
G0 F3000 E22.8349
G1 X142.942 Y97.179 E24.0310 F2400
G0 X141.718 Y95.846 F7200
G1 X120.190 Y95.846 E25.1050 F2400
G0 X121.658 Y94.512 F7200
G1 X140.251 Y94.512 E26.0326 F2400
G0 X138.416 Y93.179 F7200
G1 X123.493 Y93.179 E26.7772 F2400
G0 F3000 E25.7772
G0 X126.306 Y91.846 F7200
G0 F3000 E26.7772
G1 X135.602 Y91.846 E27.2410 F2400



; ------------------------------------
; Raft Layer #2
; ------------------------------------
M106 S0 ;turn off fan
G92 E0 ;reset extr
G0 F1200 Z0.900
;segType:Raft
G0 F3000 E-1.0000
G0 F1200 Z2.900
G0 X145.693 Y102.292 F7200
G0 F1200 Z0.900
G0 F3000 E0.0000
G1 X145.693 Y110.610 E0.4150 F2400
G0 X145.293 Y111.833 F7200
G1 X145.293 Y101.069 E0.9520 F2400
G1 X144.893 Y100.213 E0.9992
G1 X144.893 Y112.689 E1.6216
G1 X144.493 Y113.423 E1.6633
G1 X144.493 Y99.479 E2.3590
G1 X144.093 Y98.622 E2.4062
G1 X144.093 Y114.280 E3.1873
G1 X143.693 Y114.769 E3.2189
G1 X143.693 Y98.133 E4.0488
G1 X143.293 Y97.644 E4.0803
G1 X143.293 Y115.258 E4.9591
G1 X142.893 Y115.747 E4.9906
G1 X142.893 Y97.155 E5.9183
G1 X142.493 Y96.543 E5.9547
G1 X142.493 Y116.237 E6.9372
G1 X142.093 Y116.604 E6.9643
G1 X142.093 Y96.176 E7.9835
G1 X141.693 Y95.809 E8.0105
G1 X141.693 Y116.971 E9.0663
G1 X141.293 Y117.338 E9.0934
G1 X141.293 Y95.442 E10.1858
G1 X140.893 Y94.953 E10.2173
G1 X140.893 Y117.827 E11.3585
G1 X140.493 Y118.194 E11.3856
G1 X140.493 Y94.708 E12.5573
G1 X140.093 Y94.341 E12.5843
G1 X140.093 Y118.561 E13.7927
G1 X139.693 Y118.928 E13.8198
G1 X139.693 Y93.974 E15.0647
G1 X139.293 Y93.730 E15.0881
G1 X139.293 Y119.172 E16.3574
G1 X138.893 Y119.417 E16.3808
G1 X138.893 Y93.485 E17.6746
G1 X138.493 Y93.240 E17.6980
G1 X138.493 Y119.662 E19.0161
G1 X138.093 Y119.906 E19.0395
G1 X138.093 Y92.996 E20.3821
G1 X137.693 Y92.751 E20.4055
G1 X137.693 Y120.151 E21.7725
G1 X137.293 Y120.273 E21.7934
G1 X137.293 Y92.629 E23.1726
G1 X136.893 Y92.384 E23.1960
G1 X136.893 Y120.518 E24.5996
G1 X136.493 Y120.640 E24.6204
G1 X136.493 Y92.262 E26.0362
G1 X136.093 Y92.139 E26.0571
G1 X136.093 Y120.763 E27.4851
G1 X135.693 Y120.885 E27.5060
G1 X135.693 Y92.017 E28.9462
G1 X135.293 Y91.895 E28.9671
G1 X135.293 Y121.007 E30.4195
G1 X134.893 Y121.130 E30.4404
G1 X134.893 Y91.772 E31.9050
G1 X134.493 Y91.650 E31.9259
G1 X134.493 Y121.252 E33.4027
G1 X134.093 Y121.252 E33.4227
G1 X134.093 Y91.650 E34.8995
G1 X133.693 Y91.528 E34.9204
G1 X133.693 Y121.374 E36.4094
G1 X133.293 Y121.374 E36.4294
G1 X133.293 Y91.528 E37.9184
G1 X132.893 Y91.405 E37.9393
G1 X132.893 Y121.374 E39.4344
G1 X132.493 Y121.497 E39.4553
G1 X132.493 Y91.405 E40.9566
G1 X132.093 Y91.405 E40.9765
G1 X132.093 Y121.497 E42.4778
G1 X131.693 Y121.497 E42.4977
G1 X131.693 Y91.405 E43.9990
G1 X131.293 Y91.405 E44.0189
G1 X131.293 Y121.497 E45.5202
G1 X130.893 Y121.497 E45.5401
G1 X130.893 Y91.405 E47.0414
G1 X130.493 Y91.405 E47.0613
G1 X130.493 Y121.497 E48.5626
G1 X130.093 Y121.497 E48.5826
G1 X130.093 Y91.405 E50.0838
G1 X129.693 Y91.405 E50.1038
G1 X129.693 Y121.497 E51.6050
G1 X129.293 Y121.497 E51.6250
G1 X129.293 Y91.405 E53.1262
G1 X128.893 Y91.405 E53.1462
G1 X128.893 Y121.374 E54.6413
G1 X128.493 Y121.374 E54.6613
G1 X128.493 Y91.528 E56.1503
G1 X128.093 Y91.528 E56.1703
G1 X128.093 Y121.374 E57.6593
G1 X127.693 Y121.252 E57.6802
G1 X127.693 Y91.650 E59.1570
G1 X127.293 Y91.772 E59.1779
G1 X127.293 Y121.130 E60.6425
G1 X126.893 Y121.130 E60.6625
G1 X126.893 Y91.772 E62.1271
G1 X126.493 Y91.895 E62.1480
G1 X126.493 Y121.007 E63.6004
G1 X126.093 Y120.763 E63.6238
G1 X126.093 Y92.017 E65.0579
G1 X125.693 Y92.139 E65.0788
G1 X125.693 Y120.640 E66.5007
G1 X125.293 Y120.518 E66.5216
G1 X125.293 Y92.262 E67.9313
G1 X124.893 Y92.506 E67.9547
G1 X124.893 Y120.396 E69.3461
G1 X124.493 Y120.151 E69.3695
G1 X124.493 Y92.751 E70.7365
G1 X124.093 Y92.873 E70.7573
G1 X124.093 Y120.029 E72.1121
G1 X123.693 Y119.784 E72.1355
G1 X123.693 Y93.118 E73.4659
G1 X123.293 Y93.363 E73.4893
G1 X123.293 Y119.539 E74.7952
G1 X122.893 Y119.295 E74.8186
G1 X122.893 Y93.607 E76.1002
G1 X122.493 Y93.852 E76.1236
G1 X122.493 Y119.050 E77.3807
G1 X122.093 Y118.683 E77.4078
G1 X122.093 Y94.219 E78.6283
G1 X121.693 Y94.586 E78.6554
G1 X121.693 Y118.316 E79.8393
G1 X121.293 Y117.949 E79.8664
G1 X121.293 Y94.830 E81.0198
G1 X120.893 Y95.197 E81.0469
G1 X120.893 Y117.582 E82.1637
G1 X120.493 Y117.093 E82.1952
G1 X120.493 Y95.687 E83.2632
G1 X120.093 Y96.054 E83.2903
G1 X120.093 Y116.726 E84.3216
G1 X119.693 Y116.359 E84.3487
G1 X119.693 Y96.421 E85.3434
G1 X119.293 Y96.910 E85.3749
G1 X119.293 Y115.992 E86.3270
G1 X118.893 Y115.380 E86.3634
G1 X118.893 Y97.399 E87.2605
G1 X118.493 Y97.889 E87.2920
G1 X118.493 Y115.014 E88.1464
G1 X118.093 Y114.402 E88.1829
G1 X118.093 Y98.378 E88.9823
G1 X117.693 Y98.989 E89.0188
G1 X117.693 Y113.790 E89.7572
G1 X117.293 Y112.934 E89.8043
G1 X117.293 Y99.968 E90.4512
G1 X116.893 Y100.702 E90.4929
G1 X116.893 Y112.078 E91.0605
G0 X116.493 Y110.977 F7200
G1 X116.493 Y101.803 E91.5182 F2400
G0 X116.093 Y103.393 F7200
G1 X116.093 Y109.509 E91.8233 F2400



; ------------------------------------
; Raft Layer #3
; ------------------------------------
M106 S255 ;set fan speed
G92 E0 ;reset extr
G0 F1200 Z1.200
;segType:Raft
G0 F3000 E-1.0000
G0 F1200 Z3.200
G0 X125.327 Y120.512 F7200
G0 F1200 Z1.200
G0 F3000 E0.0000
G1 X136.581 Y120.512 E0.5614 F2400
G1 X137.437 Y120.112 E0.6086
G1 X124.471 Y120.112 E1.2555
G1 X123.615 Y119.712 E1.3026
G1 X138.293 Y119.712 E2.0349
G1 X138.905 Y119.312 E2.0714
G1 X123.003 Y119.312 E2.8647
G1 X122.392 Y118.912 E2.9012
G1 X139.517 Y118.912 E3.7556
G1 X139.884 Y118.512 E3.7827
G1 X122.025 Y118.512 E4.6736
G1 X121.413 Y118.112 E4.7101
G1 X140.495 Y118.112 E5.6621
G1 X140.862 Y117.712 E5.6892
G1 X121.046 Y117.712 E6.6778
G1 X120.679 Y117.312 E6.7049
G1 X141.229 Y117.312 E7.7301
G1 X141.596 Y116.912 E7.7572
G1 X120.312 Y116.912 E8.8191
G1 X119.823 Y116.512 E8.8506
G1 X142.085 Y116.512 E9.9613
G1 X142.452 Y116.112 E9.9884
G1 X119.456 Y116.112 E11.1357
G1 X119.089 Y115.712 E11.1628
G1 X142.819 Y115.712 E12.3467
G1 X143.186 Y115.312 E12.3737
G1 X118.722 Y115.312 E13.5943
G1 X118.355 Y114.912 E13.6214
G1 X143.553 Y114.912 E14.8785
G1 X143.798 Y114.512 E14.9019
G1 X118.110 Y114.512 E16.1835
G1 X117.866 Y114.112 E16.2068
G1 X144.043 Y114.112 E17.5128
G1 X144.287 Y113.712 E17.5362
G1 X117.621 Y113.712 E18.8666
G1 X117.376 Y113.312 E18.8900
G1 X144.532 Y113.312 E20.2448
G1 X144.654 Y112.912 E20.2656
G1 X117.254 Y112.912 E21.6326
G1 X117.009 Y112.512 E21.6560
G1 X144.899 Y112.512 E23.0474
G1 X145.021 Y112.112 E23.0683
G1 X116.887 Y112.112 E24.4719
G1 X116.643 Y111.712 E24.4953
G1 X145.266 Y111.712 E25.9233
G1 X145.388 Y111.312 E25.9442
G1 X116.520 Y111.312 E27.3844
G1 X116.398 Y110.912 E27.4053
G1 X145.510 Y110.912 E28.8577
G1 X145.633 Y110.512 E28.8786
G1 X116.276 Y110.512 E30.3432
G1 X116.276 Y110.112 E30.3631
G1 X145.633 Y110.112 E31.8278
G1 X145.755 Y109.712 E31.8486
G1 X116.153 Y109.712 E33.3255
G1 X116.031 Y109.312 E33.3464
G1 X145.877 Y109.312 E34.8354
G1 X145.877 Y108.912 E34.8554
G1 X116.031 Y108.912 E36.3444
G1 X116.031 Y108.512 E36.3644
G1 X145.877 Y108.512 E37.8534
G1 X146.000 Y108.112 E37.8743
G1 X115.909 Y108.112 E39.3755
G1 X115.909 Y107.712 E39.3955
G1 X146.000 Y107.712 E40.8967
G1 X146.000 Y107.312 E40.9167
G1 X115.909 Y107.312 E42.4179
G1 X115.909 Y106.912 E42.4379
G1 X146.000 Y106.912 E43.9391
G1 X146.000 Y106.512 E43.9591
G1 X115.909 Y106.512 E45.4603
G1 X115.909 Y106.112 E45.4803
G1 X146.000 Y106.112 E46.9815
G1 X146.000 Y105.712 E47.0015
G1 X115.909 Y105.712 E48.5027
G1 X115.909 Y105.312 E48.5227
G1 X146.000 Y105.312 E50.0239
G1 X146.000 Y104.912 E50.0439
G1 X115.909 Y104.912 E51.5451
G1 X115.909 Y104.512 E51.5651
G1 X146.000 Y104.512 E53.0663
G1 X145.877 Y104.112 E53.0872
G1 X116.031 Y104.112 E54.5763
G1 X116.031 Y103.712 E54.5962
G1 X145.877 Y103.712 E56.0853
G1 X145.755 Y103.312 E56.1061
G1 X116.153 Y103.312 E57.5830
G1 X116.153 Y102.912 E57.6029
G1 X145.755 Y102.912 E59.0798
G1 X145.633 Y102.512 E59.1006
G1 X116.276 Y102.512 E60.5653
G1 X116.398 Y102.112 E60.5861
G1 X145.510 Y102.112 E62.0386
G1 X145.388 Y101.712 E62.0594
G1 X116.520 Y101.712 E63.4997
G1 X116.643 Y101.312 E63.5205
G1 X145.266 Y101.312 E64.9485
G1 X145.143 Y100.912 E64.9694
G1 X116.765 Y100.912 E66.3852
G1 X116.887 Y100.512 E66.4061
G1 X145.021 Y100.512 E67.8097
G1 X144.776 Y100.112 E67.8331
G1 X117.132 Y100.112 E69.2123
G1 X117.254 Y99.712 E69.2331
G1 X144.654 Y99.712 E70.6001
G1 X144.410 Y99.312 E70.6235
G1 X117.499 Y99.312 E71.9661
G1 X117.743 Y98.912 E71.9895
G1 X144.165 Y98.912 E73.3077
G1 X143.920 Y98.512 E73.3311
G1 X117.988 Y98.512 E74.6248
G1 X118.233 Y98.112 E74.6482
G1 X143.676 Y98.112 E75.9176
G1 X143.431 Y97.712 E75.9410
G1 X118.477 Y97.712 E77.1859
G1 X118.844 Y97.312 E77.2130
G1 X143.064 Y97.312 E78.4213
G1 X142.697 Y96.912 E78.4484
G1 X119.211 Y96.912 E79.6201
G1 X119.456 Y96.512 E79.6435
G1 X142.452 Y96.512 E80.7908
G1 X141.963 Y96.112 E80.8223
G1 X119.945 Y96.112 E81.9208
G1 X120.312 Y95.712 E81.9479
G1 X141.596 Y95.712 E83.0097
G1 X141.229 Y95.312 E83.0368
G1 X120.679 Y95.312 E84.0621
G1 X121.046 Y94.912 E84.0891
G1 X140.862 Y94.912 E85.0778
G1 X140.251 Y94.512 E85.1142
G1 X121.658 Y94.512 E86.0418
G1 X122.147 Y94.112 E86.0734
G1 X139.761 Y94.112 E86.9521
G1 X139.394 Y93.712 E86.9792
G1 X122.514 Y93.712 E87.8214
G1 X123.126 Y93.312 E87.8579
G1 X138.783 Y93.312 E88.6390
G1 X137.926 Y92.912 E88.6861
G1 X123.982 Y92.912 E89.3818
G1 X124.716 Y92.512 E89.4235
G1 X137.193 Y92.512 E90.0460
G1 X136.336 Y92.112 E90.0932
G1 X125.572 Y92.112 E90.6302
G0 X126.795 Y91.712 F7200
G1 X135.113 Y91.712 E91.0452 F2400
G0 F3000 E90.0452
G0 X135.480 Y120.912 F7200
G0 F3000 E91.0452
G1 X126.428 Y120.912 E91.4968 F2400
G0 X128.018 Y121.312 F7200
G1 X133.890 Y121.312 E91.7897 F2400



; ------------------------------------
; Raft Layer #4
; ------------------------------------
G92 E0 ;reset extr
G0 F1200 Z1.400
;segType:Raft
G0 F3000 E-1.0000
G0 F1200 Z3.400
G0 X145.293 Y111.833 F7200
G0 F1200 Z1.400
G0 F3000 E0.0000
G1 X145.293 Y101.069 E0.3580 F2400
G1 X144.893 Y100.213 E0.3895
G1 X144.893 Y112.689 E0.8044
G1 X144.493 Y113.423 E0.8322
G1 X144.493 Y99.479 E1.2960
G1 X144.093 Y98.622 E1.3275
G1 X144.093 Y114.280 E1.8482
G1 X143.693 Y114.769 E1.8692
G1 X143.693 Y98.133 E2.4226
G1 X143.293 Y97.644 E2.4436
G1 X143.293 Y115.258 E3.0294
G1 X142.893 Y115.747 E3.0504
G1 X142.893 Y97.155 E3.6688
G1 X142.493 Y96.543 E3.6932
G1 X142.493 Y116.237 E4.3482
G1 X142.093 Y116.604 E4.3662
G1 X142.093 Y96.176 E5.0457
G1 X141.693 Y95.809 E5.0637
G1 X141.693 Y116.971 E5.7675
G1 X141.293 Y117.338 E5.7856
G1 X141.293 Y95.442 E6.5138
G1 X140.893 Y94.953 E6.5349
G1 X140.893 Y117.827 E7.2957
G1 X140.493 Y118.194 E7.3137
G1 X140.493 Y94.708 E8.0949
G1 X140.093 Y94.341 E8.1129
G1 X140.093 Y118.561 E8.9185
G1 X139.693 Y118.928 E8.9365
G1 X139.693 Y93.974 E9.7665
G1 X139.293 Y93.730 E9.7821
G1 X139.293 Y119.172 E10.6283
G1 X138.893 Y119.417 E10.6439
G1 X138.893 Y93.485 E11.5064
G1 X138.493 Y93.240 E11.5220
G1 X138.493 Y119.662 E12.4008
G1 X138.093 Y119.906 E12.4164
G1 X138.093 Y92.996 E13.3114
G1 X137.693 Y92.751 E13.3270
G1 X137.693 Y120.151 E14.2384
G1 X137.293 Y120.273 E14.2523
G1 X137.293 Y92.629 E15.1717
G1 X136.893 Y92.384 E15.1873
G1 X136.893 Y120.518 E16.1231
G1 X136.493 Y120.640 E16.1370
G1 X136.493 Y92.262 E17.0808
G1 X136.093 Y92.139 E17.0948
G1 X136.093 Y120.763 E18.0468
G1 X135.693 Y120.885 E18.0607
G1 X135.693 Y92.017 E19.0208
G1 X135.293 Y91.895 E19.0347
G1 X135.293 Y121.007 E20.0030
G1 X134.893 Y121.130 E20.0169
G1 X134.893 Y91.772 E20.9934
G1 X134.493 Y91.650 E21.0073
G1 X134.493 Y121.252 E21.9918
G1 X134.093 Y121.252 E22.0051
G1 X134.093 Y91.650 E22.9897
G1 X133.693 Y91.528 E23.0036
G1 X133.693 Y121.374 E23.9963
G1 X133.293 Y121.374 E24.0096
G1 X133.293 Y91.528 E25.0023
G1 X132.893 Y91.405 E25.0162
G1 X132.893 Y121.374 E26.0130
G1 X132.493 Y121.497 E26.0269
G1 X132.493 Y91.405 E27.0277
G1 X132.093 Y91.405 E27.0410
G1 X132.093 Y121.497 E28.0419
G1 X131.693 Y121.497 E28.0552
G1 X131.693 Y91.405 E29.0560
G1 X131.293 Y91.405 E29.0693
G1 X131.293 Y121.497 E30.0701
G1 X130.893 Y121.497 E30.0835
G1 X130.893 Y91.405 E31.0843
G1 X130.493 Y91.405 E31.0976
G1 X130.493 Y121.497 E32.0984
G1 X130.093 Y121.497 E32.1117
G1 X130.093 Y91.405 E33.1126
G1 X129.693 Y91.405 E33.1259
G1 X129.693 Y121.497 E34.1267
G1 X129.293 Y121.497 E34.1400
G1 X129.293 Y91.405 E35.1408
G1 X128.893 Y91.405 E35.1541
G1 X128.893 Y121.374 E36.1509
G1 X128.493 Y121.374 E36.1642
G1 X128.493 Y91.528 E37.1569
G1 X128.093 Y91.528 E37.1702
G1 X128.093 Y121.374 E38.1629
G1 X127.693 Y121.252 E38.1768
G1 X127.693 Y91.650 E39.1614
G1 X127.293 Y91.772 E39.1753
G1 X127.293 Y121.130 E40.1517
G1 X126.893 Y121.130 E40.1650
G1 X126.893 Y91.772 E41.1414
G1 X126.493 Y91.895 E41.1553
G1 X126.493 Y121.007 E42.1236
G1 X126.093 Y120.763 E42.1392
G1 X126.093 Y92.017 E43.0953
G1 X125.693 Y92.139 E43.1092
G1 X125.693 Y120.640 E44.0572
G1 X125.293 Y120.518 E44.0711
G1 X125.293 Y92.262 E45.0109
G1 X124.893 Y92.506 E45.0265
G1 X124.893 Y120.396 E45.9541
G1 X124.493 Y120.151 E45.9697
G1 X124.493 Y92.751 E46.8810
G1 X124.093 Y92.873 E46.8949
G1 X124.093 Y120.029 E47.7981
G1 X123.693 Y119.784 E47.8137
G1 X123.693 Y93.118 E48.7006
G1 X123.293 Y93.363 E48.7162
G1 X123.293 Y119.539 E49.5869
G1 X122.893 Y119.295 E49.6024
G1 X122.893 Y93.607 E50.4568
G1 X122.493 Y93.852 E50.4724
G1 X122.493 Y119.050 E51.3105
G1 X122.093 Y118.683 E51.3286
G1 X122.093 Y94.219 E52.1423
G1 X121.693 Y94.586 E52.1603
G1 X121.693 Y118.316 E52.9496
G1 X121.293 Y117.949 E52.9676
G1 X121.293 Y94.830 E53.7366
G1 X120.893 Y95.197 E53.7546
G1 X120.893 Y117.582 E54.4991
G1 X120.493 Y117.093 E54.5202
G1 X120.493 Y95.687 E55.2321
G1 X120.093 Y96.054 E55.2502
G1 X120.093 Y116.726 E55.9378
G1 X119.693 Y116.359 E55.9558
G1 X119.693 Y96.421 E56.6190
G1 X119.293 Y96.910 E56.6400
G1 X119.293 Y115.992 E57.2747
G1 X118.893 Y115.380 E57.2990
G1 X118.893 Y97.399 E57.8970
G1 X118.493 Y97.889 E57.9181
G1 X118.493 Y115.014 E58.4876
G1 X118.093 Y114.402 E58.5119
G1 X118.093 Y98.378 E59.0449
G1 X117.693 Y98.989 E59.0692
G1 X117.693 Y113.790 E59.5615
G1 X117.293 Y112.934 E59.5929
G1 X117.293 Y99.968 E60.0242
G1 X116.893 Y100.702 E60.0520
G1 X116.893 Y112.078 E60.4303
G0 X116.493 Y110.977 F7200
G1 X116.493 Y101.803 E60.7355 F2400
G0 X116.093 Y103.393 F7200
G1 X116.093 Y109.509 E60.9389 F2400
G0 F3000 E59.9389
G0 X145.693 Y110.610 F7200
G0 F3000 E60.9389
G1 X145.693 Y102.292 E61.2155 F2400


; ------------------------------------
; Layer #0
; ------------------------------------
G21 ; mm
G90 ; abs
G92 E0 ;reset extr
G0 F1200 Z1.850
;segType:HShell
G0 F3000 E-1.0000
G0 X122.939 Y97.872 F5400
G0 F3000 E0.0000
G1 X139.533 Y114.466 E0.7805 F2400
;segType:Perimeter
G0 X139.841 Y114.947 F5400
G1 X139.425 Y115.630 E0.8071 F1440
G1 X139.005 Y115.991 E0.8255
G1 X138.522 Y116.369 E0.8459
G1 X138.021 Y116.721 E0.8663
G1 X137.503 Y117.050 E0.8867
G1 X136.968 Y117.353 E0.9072
G1 X136.420 Y117.628 E0.9276
G1 X135.859 Y117.877 E0.9480
G1 X135.288 Y118.097 E0.9683
G1 X134.705 Y118.290 E0.9888
G1 X134.113 Y118.454 E1.0092
G1 X133.514 Y118.588 E1.0296
G1 X132.910 Y118.693 E1.0500
G1 X132.302 Y118.768 E1.0704
G1 X131.689 Y118.813 E1.0908
G1 X131.076 Y118.828 E1.1112
G1 X130.462 Y118.813 E1.1316
G1 X129.851 Y118.768 E1.1520
G1 X129.242 Y118.693 E1.1724
G1 X128.638 Y118.588 E1.1928
G1 X128.038 Y118.453 E1.2132
G1 X127.447 Y118.290 E1.2336
G1 X126.865 Y118.097 E1.2540
G1 X126.293 Y117.877 E1.2744
G1 X125.733 Y117.628 E1.2948
G1 X125.184 Y117.352 E1.3152
G1 X124.650 Y117.050 E1.3357
G1 X124.132 Y116.721 E1.3561
G1 X123.630 Y116.368 E1.3765
G1 X123.147 Y115.991 E1.3969
G1 X122.683 Y115.591 E1.4172
G1 X122.237 Y115.167 E1.4377
G1 X121.815 Y114.722 E1.4581
G1 X121.414 Y114.258 E1.4785
G1 X121.037 Y113.775 E1.4989
G1 X120.683 Y113.272 E1.5193
G1 X120.355 Y112.755 E1.5397
G1 X120.052 Y112.221 E1.5601
G1 X119.777 Y111.673 E1.5805
G1 X119.528 Y111.112 E1.6009
G1 X119.307 Y110.539 E1.6213
G1 X119.115 Y109.956 E1.6417
G1 X118.952 Y109.366 E1.6621
G1 X118.817 Y108.768 E1.6825
G1 X118.712 Y108.163 E1.7029
G1 X118.637 Y107.554 E1.7233
G1 X118.592 Y106.943 E1.7437
G1 X118.577 Y106.328 E1.7642
G1 X118.592 Y105.714 E1.7846
G1 X118.637 Y105.104 E1.8049
G1 X118.712 Y104.493 E1.8254
G1 X118.817 Y103.890 E1.8458
G1 X118.951 Y103.293 E1.8661
G1 X119.115 Y102.700 E1.8866
G1 X119.308 Y102.117 E1.9070
G1 X119.529 Y101.544 E1.9274
G1 X119.777 Y100.985 E1.9478
G1 X120.054 Y100.435 E1.9683
G1 X120.355 Y99.903 E1.9886
G1 X120.684 Y99.384 E2.0090
G1 X121.037 Y98.882 E2.0294
G1 X121.413 Y98.400 E2.0498
G1 X121.814 Y97.935 E2.0702
G1 X122.238 Y97.490 E2.0907
G1 X122.681 Y97.068 E2.1110
G1 X123.148 Y96.666 E2.1315
G1 X123.630 Y96.289 E2.1518
G1 X124.133 Y95.935 E2.1723
G1 X124.651 Y95.607 E2.1927
G1 X125.186 Y95.304 E2.2131
G1 X125.733 Y95.029 E2.2335
G1 X126.291 Y94.781 E2.2538
G1 X126.865 Y94.560 E2.2743
G1 X127.450 Y94.367 E2.2948
G1 X128.039 Y94.204 E2.3151
G1 X128.639 Y94.069 E2.3356
G1 X129.244 Y93.964 E2.3560
G1 X129.852 Y93.889 E2.3763
G1 X130.461 Y93.844 E2.3967
G1 X131.078 Y93.829 E2.4172
G1 X131.692 Y93.844 E2.4376
G1 X132.301 Y93.889 E2.4579
G1 X132.912 Y93.965 E2.4784
G1 X133.514 Y94.069 E2.4987
G1 X134.114 Y94.204 E2.5192
G1 X134.703 Y94.367 E2.5395
G1 X135.288 Y94.560 E2.5600
G1 X135.861 Y94.781 E2.5804
G1 X136.421 Y95.030 E2.6008
G1 X136.968 Y95.304 E2.6211
G1 X137.504 Y95.608 E2.6416
G1 X138.021 Y95.936 E2.6620
G1 X138.523 Y96.289 E2.6824
G1 X139.005 Y96.666 E2.7028
G1 X139.472 Y97.068 E2.7233
G1 X139.916 Y97.491 E2.7436
G1 X140.339 Y97.935 E2.7641
G1 X140.740 Y98.400 E2.7845
G1 X141.116 Y98.882 E2.8048
G1 X141.469 Y99.384 E2.8252
G1 X141.798 Y99.903 E2.8456
G1 X142.099 Y100.435 E2.8660
G1 X142.376 Y100.985 E2.8865
G1 X142.624 Y101.544 E2.9068
G1 X142.846 Y102.119 E2.9273
G1 X143.038 Y102.700 E2.9477
G1 X143.202 Y103.293 E2.9681
G1 X143.336 Y103.890 E2.9885
G1 X143.441 Y104.495 E3.0089
G1 X143.516 Y105.104 E3.0293
G1 X143.561 Y105.714 E3.0497
G1 X143.576 Y106.330 E3.0701
G1 X143.561 Y106.943 E3.0905
G1 X143.516 Y107.555 E3.1110
G1 X143.441 Y108.163 E3.1313
G1 X143.336 Y108.768 E3.1517
G1 X143.201 Y109.366 E3.1721
G1 X143.038 Y109.957 E3.1925
G1 X142.846 Y110.539 E3.2129
G1 X142.624 Y111.113 E3.2334
G1 X142.376 Y111.673 E3.2537
G1 X142.100 Y112.221 E3.2741
G1 X141.798 Y112.755 E3.2946
G1 X141.470 Y113.272 E3.3149
G1 X141.116 Y113.775 E3.3354
G1 X140.739 Y114.258 E3.3558
G1 X140.338 Y114.723 E3.3762
G1 X139.915 Y115.167 E3.3966
G1 X139.513 Y115.550 E3.4150
G0 X138.793 Y115.897 F5400
;segType:Loop
G0 X138.376 Y115.976
G1 X138.284 Y116.047 E3.4189 F2400
G1 X137.799 Y116.389 E3.4386
G1 X137.298 Y116.706 E3.4584
G1 X136.779 Y117.000 E3.4782
G1 X136.249 Y117.267 E3.4979
G1 X135.706 Y117.507 E3.5177
G1 X135.153 Y117.721 E3.5374
G1 X134.589 Y117.907 E3.5572
G1 X134.015 Y118.066 E3.5769
G1 X133.436 Y118.196 E3.5967
G1 X132.851 Y118.297 E3.6164
G1 X132.263 Y118.370 E3.6361
G1 X131.670 Y118.413 E3.6559
G1 X131.076 Y118.428 E3.6757
G1 X130.482 Y118.413 E3.6955
G1 X129.890 Y118.370 E3.7152
G1 X129.301 Y118.297 E3.7349
G1 X128.716 Y118.196 E3.7547
G1 X128.136 Y118.065 E3.7745
G1 X127.563 Y117.907 E3.7942
G1 X127.000 Y117.721 E3.8140
G1 X126.446 Y117.507 E3.8337
G1 X125.904 Y117.267 E3.8534
G1 X125.373 Y116.999 E3.8732
G1 X124.855 Y116.706 E3.8930
G1 X124.354 Y116.389 E3.9127
G1 X123.868 Y116.047 E3.9325
G1 X123.400 Y115.681 E3.9522
G1 X122.952 Y115.295 E3.9719
G1 X122.520 Y114.884 E3.9917
G1 X122.111 Y114.454 E4.0115
G1 X121.723 Y114.004 E4.0312
G1 X121.358 Y113.536 E4.0510
G1 X121.016 Y113.050 E4.0707
G1 X120.699 Y112.549 E4.0905
G1 X120.405 Y112.032 E4.1102
G1 X120.139 Y111.502 E4.1300
G1 X119.898 Y110.959 E4.1497
G1 X119.684 Y110.404 E4.1695
G1 X119.498 Y109.840 E4.1893
G1 X119.340 Y109.269 E4.2090
G1 X119.209 Y108.689 E4.2287
G1 X119.108 Y108.104 E4.2485
G1 X119.035 Y107.515 E4.2682
G1 X118.992 Y106.923 E4.2880
G1 X118.977 Y106.328 E4.3078
G1 X118.992 Y105.734 E4.3275
G1 X119.035 Y105.143 E4.3472
G1 X119.108 Y104.552 E4.3670
G1 X119.210 Y103.968 E4.3867
G1 X119.339 Y103.390 E4.4065
G1 X119.498 Y102.816 E4.4263
G1 X119.685 Y102.252 E4.4460
G1 X119.898 Y101.697 E4.4658
G1 X120.138 Y101.156 E4.4855
G1 X120.406 Y100.624 E4.5053
G1 X120.699 Y100.108 E4.5250
G1 X121.016 Y99.606 E4.5448
G1 X121.358 Y99.121 E4.5645
G1 X121.723 Y98.654 E4.5842
G1 X122.111 Y98.204 E4.6040
G1 X122.521 Y97.773 E4.6238
G1 X122.950 Y97.365 E4.6435
G1 X123.402 Y96.975 E4.6633
G1 X123.868 Y96.611 E4.6830
G1 X124.355 Y96.268 E4.7028
G1 X124.857 Y95.950 E4.7226
G1 X125.374 Y95.657 E4.7423
G1 X125.904 Y95.391 E4.7621
G1 X126.444 Y95.151 E4.7817
G1 X127.000 Y94.937 E4.8015
G1 X127.566 Y94.750 E4.8214
G1 X128.136 Y94.592 E4.8410
G1 X128.717 Y94.461 E4.8608
G1 X129.303 Y94.360 E4.8806
G1 X129.891 Y94.287 E4.9003
G1 X130.481 Y94.244 E4.9200
G1 X131.078 Y94.229 E4.9399
G1 X131.672 Y94.244 E4.9596
G1 X132.262 Y94.287 E4.9793
G1 X132.853 Y94.360 E4.9991
G1 X133.436 Y94.462 E5.0188
G1 X134.017 Y94.592 E5.0386
G1 X134.587 Y94.750 E5.0583
G1 X135.153 Y94.937 E5.0781
G1 X135.708 Y95.151 E5.0979
G1 X136.250 Y95.391 E5.1176
G1 X136.779 Y95.657 E5.1373
G1 X137.298 Y95.951 E5.1571
G1 X137.799 Y96.269 E5.1769
G1 X138.285 Y96.611 E5.1966
G1 X138.751 Y96.975 E5.2163
G1 X139.203 Y97.365 E5.2361
G1 X139.633 Y97.774 E5.2559
G1 X140.042 Y98.204 E5.2756
G1 X140.430 Y98.654 E5.2954
G1 X140.795 Y99.121 E5.3151
G1 X141.137 Y99.606 E5.3348
G1 X141.455 Y100.108 E5.3546
G1 X141.746 Y100.623 E5.3743
G1 X142.015 Y101.156 E5.3941
G1 X142.254 Y101.697 E5.4138
G1 X142.469 Y102.254 E5.4337
G1 X142.655 Y102.816 E5.4534
G1 X142.814 Y103.390 E5.4732
G1 X142.943 Y103.968 E5.4929
G1 X143.045 Y104.554 E5.5126
G1 X143.118 Y105.143 E5.5324
G1 X143.161 Y105.734 E5.5521
G1 X143.176 Y106.330 E5.5719
G1 X143.161 Y106.923 E5.5917
G1 X143.118 Y107.516 E5.6114
G1 X143.045 Y108.104 E5.6311
G1 X142.943 Y108.690 E5.6509
G1 X142.813 Y109.269 E5.6707
G1 X142.655 Y109.841 E5.6904
G1 X142.469 Y110.404 E5.7101
G1 X142.254 Y110.960 E5.7299
G1 X142.014 Y111.502 E5.7496
G1 X141.748 Y112.032 E5.7694
G1 X141.454 Y112.549 E5.7892
G1 X141.137 Y113.050 E5.8089
G1 X140.794 Y113.537 E5.8287
G1 X140.430 Y114.004 E5.8484
G1 X140.041 Y114.454 E5.8682
G1 X139.632 Y114.884 E5.8879
G1 X139.201 Y115.294 E5.9077
G1 X138.752 Y115.682 E5.9275
G1 X138.533 Y115.852 E5.9367
;segType:HShell
G0 X139.807 Y114.175 F5400
G1 X123.230 Y97.598 E6.7164 F2400
G0 X123.534 Y97.336 F5400
G1 X140.069 Y113.871 E7.4941 F2400
G0 X140.321 Y113.558 F5400
G1 X123.847 Y97.084 E8.2690 F2400
G0 X124.169 Y96.840 F5400
G1 X140.566 Y113.236 E9.0402 F2400
G0 X140.799 Y112.905 F5400
G1 X124.501 Y96.606 E9.8069 F2400
G0 X124.845 Y96.384 F5400
G1 X141.021 Y112.561 E10.5678 F2400
G0 X141.234 Y112.208 F5400
G1 X125.197 Y96.171 E11.3221 F2400
G0 X125.559 Y95.967 F5400
G1 X141.438 Y111.846 E12.0690 F2400
G0 X141.627 Y111.470 F5400
G1 X125.935 Y95.778 E12.8071 F2400
G0 X126.322 Y95.599 F5400
G1 X141.806 Y111.083 E13.5354 F2400
G0 X141.974 Y110.685 F5400
G1 X126.720 Y95.431 E14.2529 F2400
G0 X127.128 Y95.274 F5400
G1 X142.132 Y110.277 E14.9586 F2400
G0 X142.272 Y109.852 F5400
G1 X127.553 Y95.133 E15.6510 F2400
G0 X127.992 Y95.006 F5400
G1 X142.400 Y109.414 E16.3287 F2400
G0 X142.513 Y108.962 F5400
G1 X128.444 Y94.892 E16.9905 F2400
G0 X128.911 Y94.793 F5400
G1 X142.612 Y108.494 E17.6349 F2400
G0 X142.694 Y108.011 F5400
G1 X129.395 Y94.712 E18.2604 F2400
G0 X129.898 Y94.649 F5400
G1 X142.756 Y107.507 E18.8652 F2400
G0 X142.796 Y106.981 F5400
G1 X130.424 Y94.609 E19.4472 F2400
G0 X130.972 Y94.592 F5400
G1 X142.813 Y106.433 E20.0041 F2400
G0 X142.804 Y105.858 F5400
G1 X131.547 Y94.601 E20.5337 F2400
G0 X132.152 Y94.640 F5400
G1 X142.765 Y105.253 E21.0329 F2400
G0 X142.689 Y104.612 F5400
G1 X132.793 Y94.716 E21.4983 F2400
G0 X133.484 Y94.841 F5400
G1 X142.564 Y103.921 E21.9254 F2400
G0 X142.379 Y103.171 F5400
G1 X134.234 Y95.026 E22.3085 F2400
G0 X135.062 Y95.287 F5400
G1 X142.117 Y102.343 E22.6404 F2400
G0 X141.720 Y101.380 F5400
G1 X136.025 Y95.685 E22.9083 F2400
G0 X137.258 Y96.352 F5400
G1 X141.053 Y100.148 E23.0868 F2400
G0 X122.655 Y98.154 F5400
G1 X139.251 Y114.750 E23.8674 F2400
G0 X138.961 Y115.026 F5400
G1 X122.379 Y98.444 E24.6474 F2400
G0 X122.117 Y98.748 F5400
G1 X138.657 Y115.288 E25.4254 F2400
G0 X138.346 Y115.542 F5400
G1 X121.863 Y99.059 E26.2007 F2400
G0 X121.617 Y99.379 F5400
G1 X138.026 Y115.788 E26.9725 F2400
G0 X137.694 Y116.022 F5400
G1 X121.383 Y99.711 E27.7397 F2400
G0 X121.160 Y100.053 F5400
G1 X137.352 Y116.245 E28.5014 F2400
G0 X137.001 Y116.460 F5400
G1 X120.945 Y100.404 E29.2566 F2400
G0 X120.740 Y100.765 F5400
G1 X136.640 Y116.665 E30.0045 F2400
G0 X136.265 Y116.855 F5400
G1 X120.550 Y101.140 E30.7437 F2400
G0 X120.369 Y101.525 F5400
G1 X135.880 Y117.036 E31.4733 F2400
G0 X135.485 Y117.207 F5400
G1 X120.198 Y101.920 E32.1923 F2400
G0 X120.041 Y102.328 F5400
G1 X135.077 Y117.364 E32.8996 F2400
G0 X134.653 Y117.507 F5400
G1 X119.899 Y102.752 E33.5936 F2400
G0 X119.769 Y103.188 F5400
G1 X134.217 Y117.636 E34.2732 F2400
G0 X133.768 Y117.752 F5400
G1 X119.653 Y103.637 E34.9371 F2400
G0 X119.552 Y104.102 F5400
G1 X133.303 Y117.853 E35.5839 F2400
G0 X132.821 Y117.937 F5400
G1 X119.468 Y104.584 E36.2120 F2400
G0 X119.405 Y105.087 F5400
G1 X132.318 Y118.000 E36.8194 F2400
G0 X131.796 Y118.043 F5400
G1 X119.362 Y105.609 E37.4042 F2400
G0 X119.342 Y106.155 F5400
G1 X131.250 Y118.064 E37.9644 F2400
G0 X130.679 Y118.058 F5400
G1 X119.347 Y106.726 E38.4974 F2400
G0 X119.383 Y107.327 F5400
G1 X130.078 Y118.023 E39.0005 F2400
G0 X129.442 Y117.952 F5400
G1 X119.454 Y107.964 E39.4703 F2400
G0 X119.568 Y108.644 F5400
G1 X128.761 Y117.837 E39.9027 F2400
G0 X128.017 Y117.659 F5400
G1 X119.746 Y109.388 E40.2918 F2400
G0 X119.997 Y110.205 F5400
G1 X127.201 Y117.408 E40.6306 F2400
G0 X126.256 Y117.029 F5400
G1 X120.376 Y111.149 E40.9071 F2400
G0 X120.984 Y112.322 F5400
G1 X125.083 Y116.421 E41.0999 F2400
; ------------------------------------
; Layer #1
; ------------------------------------
G92 E0 ;reset extr
;segType:HShell
G0 F3000 E-1.0000
G0 F1200 Z1.800
G0 X141.478 Y111.766 F7200
G0 F3000 E0.0000
G1 X136.515 Y116.730 E0.2335 F3600
G0 X138.011 Y115.799 F7200
G1 X140.546 Y113.264 E0.3527 F3600
;segType:Perimeter
G0 X139.840 Y114.949 F7200
G1 X139.423 Y115.631 E0.3793 F2160
G1 X139.006 Y115.991 E0.3976
G1 X138.521 Y116.370 E0.4181
G1 X138.020 Y116.722 E0.4385
G1 X137.502 Y117.050 E0.4589
G1 X136.971 Y117.351 E0.4791
G1 X136.421 Y117.628 E0.4996
G1 X135.858 Y117.877 E0.5201
G1 X135.286 Y118.098 E0.5405
G1 X134.704 Y118.290 E0.5609
G1 X134.117 Y118.453 E0.5812
G1 X133.512 Y118.589 E0.6018
G1 X132.909 Y118.693 E0.6221
G1 X132.300 Y118.768 E0.6425
G1 X131.692 Y118.813 E0.6628
G1 X131.073 Y118.828 E0.6834
G1 X130.461 Y118.813 E0.7038
G1 X129.853 Y118.768 E0.7241
G1 X129.241 Y118.693 E0.7445
G1 X128.640 Y118.589 E0.7648
G1 X128.036 Y118.453 E0.7854
G1 X127.446 Y118.289 E0.8058
G1 X126.867 Y118.098 E0.8261
G1 X126.292 Y117.876 E0.8466
G1 X125.732 Y117.628 E0.8670
G1 X125.182 Y117.351 E0.8874
G1 X124.651 Y117.050 E0.9077
G1 X124.133 Y116.722 E0.9281
G1 X123.632 Y116.370 E0.9485
G1 X123.146 Y115.991 E0.9690
G1 X122.680 Y115.588 E0.9895
G1 X122.236 Y115.166 E1.0098
G1 X121.814 Y114.721 E1.0302
G1 X121.415 Y114.260 E1.0505
G1 X121.038 Y113.777 E1.0709
G1 X120.684 Y113.273 E1.0914
G1 X120.356 Y112.755 E1.1118
G1 X120.053 Y112.222 E1.1322
G1 X119.778 Y111.675 E1.1525
G1 X119.528 Y111.112 E1.1730
G1 X119.307 Y110.537 E1.1935
G1 X119.115 Y109.955 E1.2139
G1 X118.952 Y109.367 E1.2342
G1 X118.816 Y108.763 E1.2548
G1 X118.712 Y108.163 E1.2750
G1 X118.637 Y107.553 E1.2955
G1 X118.592 Y106.941 E1.3159
G1 X118.577 Y106.327 E1.3363
G1 X118.592 Y105.713 E1.3568
G1 X118.637 Y105.100 E1.3772
G1 X118.713 Y104.490 E1.3976
G1 X118.817 Y103.890 E1.4179
G1 X118.952 Y103.291 E1.4383
G1 X119.114 Y102.704 E1.4586
G1 X119.309 Y102.115 E1.4792
G1 X119.530 Y101.542 E1.4996
G1 X119.776 Y100.986 E1.5198
G1 X120.052 Y100.437 E1.5403
G1 X120.355 Y99.903 E1.5607
G1 X120.684 Y99.384 E1.5812
G1 X121.038 Y98.881 E1.6016
G1 X121.416 Y98.397 E1.6220
G1 X121.813 Y97.937 E1.6422
G1 X122.239 Y97.489 E1.6628
G1 X122.684 Y97.065 E1.6832
G1 X123.150 Y96.664 E1.7037
G1 X123.635 Y96.286 E1.7241
G1 X124.130 Y95.937 E1.7443
G1 X124.653 Y95.606 E1.7649
G1 X125.188 Y95.303 E1.7853
G1 X125.730 Y95.030 E1.8055
G1 X126.296 Y94.779 E1.8261
G1 X126.870 Y94.558 E1.8465
G1 X127.449 Y94.367 E1.8668
G1 X128.042 Y94.203 E1.8873
G1 X128.642 Y94.069 E1.9077
G1 X129.248 Y93.964 E1.9282
G1 X129.853 Y93.889 E1.9485
G1 X130.466 Y93.844 E1.9689
G1 X131.081 Y93.829 E1.9894
G1 X131.696 Y93.845 E2.0098
G1 X132.304 Y93.890 E2.0301
G1 X132.914 Y93.965 E2.0506
G1 X133.520 Y94.070 E2.0710
G1 X134.111 Y94.203 E2.0912
G1 X134.704 Y94.367 E2.1116
G1 X135.288 Y94.560 E2.1321
G1 X135.857 Y94.779 E2.1524
G1 X136.423 Y95.030 E2.1730
G1 X136.972 Y95.307 E2.1934
G1 X137.506 Y95.610 E2.2138
G1 X138.022 Y95.937 E2.2342
G1 X138.525 Y96.291 E2.2546
G1 X139.003 Y96.664 E2.2748
G1 X139.474 Y97.070 E2.2955
G1 X139.916 Y97.492 E2.3158
G1 X140.340 Y97.937 E2.3362
G1 X140.741 Y98.402 E2.3567
G1 X141.115 Y98.881 E2.3769
G1 X141.472 Y99.389 E2.3975
G1 X141.798 Y99.903 E2.4178
G1 X142.100 Y100.437 E2.4382
G1 X142.377 Y100.986 E2.4586
G1 X142.625 Y101.548 E2.4791
G1 X142.844 Y102.115 E2.4993
G1 X143.039 Y102.704 E2.5199
G1 X143.201 Y103.291 E2.5402
G1 X143.336 Y103.890 E2.5606
G1 X143.440 Y104.490 E2.5808
G1 X143.516 Y105.105 E2.6014
G1 X143.561 Y105.718 E2.6219
G1 X143.576 Y106.331 E2.6423
G1 X143.561 Y106.945 E2.6627
G1 X143.515 Y107.558 E2.6831
G1 X143.441 Y108.163 E2.7034
G1 X143.337 Y108.763 E2.7237
G1 X143.201 Y109.367 E2.7443
G1 X143.038 Y109.955 E2.7646
G1 X142.845 Y110.540 E2.7850
G1 X142.624 Y111.114 E2.8055
G1 X142.375 Y111.675 E2.8259
G1 X142.099 Y112.222 E2.8463
G1 X141.797 Y112.755 E2.8667
G1 X141.469 Y113.273 E2.8871
G1 X141.115 Y113.777 E2.9076
G1 X140.738 Y114.260 E2.9279
G1 X140.337 Y114.724 E2.9483
G1 X139.914 Y115.168 E2.9687
G1 X139.512 Y115.551 E2.9872
G0 X138.791 Y115.899 F7200
;segType:Loop
G0 X138.374 Y115.977
G1 X138.283 Y116.048 E2.9911 F3600
G1 X137.798 Y116.390 E3.0108
G1 X137.296 Y116.707 E3.0305
G1 X136.783 Y116.998 E3.0502
G1 X136.250 Y117.266 E3.0700
G1 X135.705 Y117.508 E3.0898
G1 X135.151 Y117.721 E3.1096
G1 X134.588 Y117.907 E3.1293
G1 X134.019 Y118.065 E3.1489
G1 X133.434 Y118.196 E3.1689
G1 X132.850 Y118.297 E3.1886
G1 X132.261 Y118.370 E3.2083
G1 X131.673 Y118.413 E3.2279
G1 X131.073 Y118.428 E3.2479
G1 X130.480 Y118.413 E3.2676
G1 X129.892 Y118.370 E3.2872
G1 X129.300 Y118.297 E3.3071
G1 X128.719 Y118.196 E3.3267
G1 X128.134 Y118.065 E3.3466
G1 X127.562 Y117.906 E3.3664
G1 X127.002 Y117.721 E3.3860
G1 X126.445 Y117.507 E3.4058
G1 X125.903 Y117.266 E3.4256
G1 X125.370 Y116.998 E3.4454
G1 X124.857 Y116.707 E3.4650
G1 X124.355 Y116.390 E3.4848
G1 X123.870 Y116.048 E3.5045
G1 X123.400 Y115.681 E3.5243
G1 X122.949 Y115.292 E3.5442
G1 X122.519 Y114.883 E3.5639
G1 X122.110 Y114.453 E3.5836
G1 X121.725 Y114.006 E3.6033
G1 X121.360 Y113.538 E3.6230
G1 X121.016 Y113.051 E3.6428
G1 X120.699 Y112.549 E3.6626
G1 X120.406 Y112.034 E3.6823
G1 X120.140 Y111.504 E3.7020
G1 X119.898 Y110.959 E3.7218
G1 X119.683 Y110.402 E3.7417
G1 X119.497 Y109.839 E3.7614
G1 X119.340 Y109.270 E3.7810
G1 X119.209 Y108.685 E3.8010
G1 X119.108 Y108.104 E3.8206
G1 X119.035 Y107.514 E3.8404
G1 X118.992 Y106.921 E3.8601
G1 X118.977 Y106.327 E3.8799
G1 X118.992 Y105.732 E3.8997
G1 X119.036 Y105.139 E3.9195
G1 X119.109 Y104.549 E3.9392
G1 X119.210 Y103.968 E3.9589
G1 X119.340 Y103.388 E3.9786
G1 X119.497 Y102.820 E3.9982
G1 X119.685 Y102.250 E4.0182
G1 X119.899 Y101.695 E4.0380
G1 X120.138 Y101.157 E4.0576
G1 X120.405 Y100.626 E4.0773
G1 X120.698 Y100.109 E4.0971
G1 X121.016 Y99.606 E4.1169
G1 X121.359 Y99.120 E4.1367
G1 X121.725 Y98.651 E4.1565
G1 X122.109 Y98.206 E4.1760
G1 X122.522 Y97.772 E4.1959
G1 X122.953 Y97.362 E4.2157
G1 X123.403 Y96.973 E4.2355
G1 X123.873 Y96.607 E4.2553
G1 X124.353 Y96.270 E4.2748
G1 X124.859 Y95.949 E4.2948
G1 X125.377 Y95.656 E4.3146
G1 X125.901 Y95.392 E4.3341
G1 X126.449 Y95.149 E4.3540
G1 X127.004 Y94.935 E4.3738
G1 X127.565 Y94.750 E4.3934
G1 X128.139 Y94.591 E4.4132
G1 X128.720 Y94.461 E4.4330
G1 X129.306 Y94.360 E4.4528
G1 X129.892 Y94.287 E4.4725
G1 X130.486 Y94.244 E4.4923
G1 X131.081 Y94.229 E4.5121
G1 X131.676 Y94.244 E4.5319
G1 X132.265 Y94.288 E4.5515
G1 X132.856 Y94.361 E4.5713
G1 X133.442 Y94.463 E4.5911
G1 X134.014 Y94.591 E4.6106
G1 X134.588 Y94.750 E4.6304
G1 X135.153 Y94.937 E4.6502
G1 X135.704 Y95.149 E4.6698
G1 X136.252 Y95.392 E4.6898
G1 X136.783 Y95.660 E4.7095
G1 X137.301 Y95.953 E4.7293
G1 X137.800 Y96.269 E4.7490
G1 X138.286 Y96.612 E4.7688
G1 X138.749 Y96.973 E4.7883
G1 X139.205 Y97.367 E4.8083
G1 X139.634 Y97.775 E4.8280
G1 X140.044 Y98.205 E4.8478
G1 X140.432 Y98.656 E4.8676
G1 X140.794 Y99.120 E4.8872
G1 X141.140 Y99.611 E4.9071
G1 X141.455 Y100.109 E4.9267
G1 X141.747 Y100.626 E4.9465
G1 X142.015 Y101.157 E4.9663
G1 X142.256 Y101.701 E4.9861
G1 X142.468 Y102.250 E5.0056
G1 X142.656 Y102.820 E5.0256
G1 X142.813 Y103.388 E5.0452
G1 X142.943 Y103.968 E5.0650
G1 X143.044 Y104.549 E5.0846
G1 X143.118 Y105.144 E5.1045
G1 X143.161 Y105.737 E5.1243
G1 X143.176 Y106.331 E5.1441
G1 X143.161 Y106.926 E5.1638
G1 X143.117 Y107.519 E5.1836
G1 X143.045 Y108.104 E5.2033
G1 X142.944 Y108.685 E5.2229
G1 X142.813 Y109.270 E5.2428
G1 X142.656 Y109.839 E5.2624
G1 X142.469 Y110.405 E5.2823
G1 X142.254 Y110.961 E5.3021
G1 X142.013 Y111.504 E5.3218
G1 X141.747 Y112.033 E5.3416
G1 X141.454 Y112.549 E5.3613
G1 X141.137 Y113.051 E5.3810
G1 X140.793 Y113.538 E5.4008
G1 X140.428 Y114.006 E5.4206
G1 X140.041 Y114.455 E5.4403
G1 X139.632 Y114.885 E5.4600
G1 X139.200 Y115.296 E5.4799
G1 X138.753 Y115.682 E5.4995
G1 X138.532 Y115.854 E5.5088
;segType:HShell
G0 X141.963 Y110.716 F7200
G1 X135.464 Y117.215 E5.8145 F3600
G0 X134.583 Y117.530 F7200
G1 X142.277 Y109.836 E6.1764 F3600
G0 X142.492 Y109.055 F7200
G1 X133.803 Y117.744 E6.5851 F3600
G0 X133.092 Y117.890 F7200
G1 X142.638 Y108.344 E7.0341 F3600
G0 X142.734 Y107.682 F7200
G1 X132.430 Y117.986 E7.5188 F3600
G0 X131.808 Y118.042 F7200
G1 X142.790 Y107.060 E8.0354 F3600
G0 X142.812 Y106.472 F7200
G1 X131.220 Y118.064 E8.5806 F3600
G0 X130.661 Y118.058 F7200
G1 X142.806 Y105.913 E9.1519 F3600
G0 X142.774 Y105.379 F7200
G1 X130.127 Y118.026 E9.7468 F3600
G0 X129.615 Y117.973 F7200
G1 X142.721 Y104.867 E10.3632 F3600
G0 X142.648 Y104.374 F7200
G1 X129.121 Y117.900 E10.9995 F3600
G0 X128.645 Y117.811 F7200
G1 X142.558 Y103.898 E11.6539 F3600
G0 X142.453 Y103.437 F7200
G1 X128.185 Y117.705 E12.3250 F3600
G0 X127.742 Y117.583 F7200
G1 X142.331 Y102.994 E13.0112 F3600
G0 X142.193 Y102.566 F7200
G1 X127.314 Y117.445 E13.7111 F3600
G0 X126.898 Y117.295 F7200
G1 X142.043 Y102.150 E14.4235 F3600
G0 X141.882 Y101.746 F7200
G1 X126.494 Y117.134 E15.1473 F3600
G0 X126.102 Y116.960 F7200
G1 X141.708 Y101.354 E15.8814 F3600
G0 X141.521 Y100.976 F7200
G1 X125.724 Y116.773 E16.6244 F3600
G0 X125.355 Y116.575 F7200
G1 X141.323 Y100.607 E17.3755 F3600
G0 X141.117 Y100.248 F7200
G1 X124.996 Y116.369 E18.1338 F3600
G0 X124.650 Y116.150 F7200
G1 X140.897 Y99.902 E18.8980 F3600
G0 X140.668 Y99.566 F7200
G1 X124.314 Y115.920 E19.6673 F3600
G0 X123.986 Y115.682 F7200
G1 X140.430 Y99.238 E20.4407 F3600
G0 X140.182 Y98.921 F7200
G1 X123.668 Y115.434 E21.2174 F3600
G0 X123.363 Y115.174 F7200
G1 X139.921 Y98.615 E21.9963 F3600
G0 X139.653 Y98.318 F7200
G1 X123.065 Y114.905 E22.7765 F3600
G0 X122.776 Y114.629 F7200
G1 X139.377 Y98.028 E23.5574 F3600
G0 X139.088 Y97.752 F7200
G1 X122.500 Y114.340 E24.3377 F3600
G0 X122.232 Y114.042 F7200
G1 X138.790 Y97.484 E25.1165 F3600
G0 X138.485 Y97.224 F7200
G1 X121.971 Y113.737 E25.8933 F3600
G0 X121.723 Y113.419 F7200
G1 X138.167 Y96.976 E26.6667 F3600
G0 X137.839 Y96.738 F7200
G1 X121.485 Y113.091 E27.4359 F3600
G0 X121.255 Y112.756 F7200
G1 X137.503 Y96.508 E28.2002 F3600
G0 X137.157 Y96.288 F7200
G1 X121.036 Y112.409 E28.9585 F3600
G0 X120.830 Y112.050 F7200
G1 X136.798 Y96.082 E29.7096 F3600
G0 X136.429 Y95.885 F7200
G1 X120.632 Y111.682 E30.4526 F3600
G0 X120.445 Y111.304 F7200
G1 X136.051 Y95.697 E31.1867 F3600
G0 X135.659 Y95.523 F7200
G1 X120.271 Y110.912 E31.9105 F3600
G0 X120.110 Y110.507 F7200
G1 X135.255 Y95.362 E32.6229 F3600
G0 X134.839 Y95.212 F7200
G1 X119.960 Y110.091 E33.3228 F3600
G0 X119.822 Y109.663 F7200
G1 X134.411 Y95.075 E34.0090 F3600
G0 X133.968 Y94.952 F7200
G1 X119.700 Y109.220 E34.6801 F3600
G0 X119.595 Y108.760 F7200
G1 X133.508 Y94.847 E35.3345 F3600
G0 X133.031 Y94.757 F7200
G1 X119.505 Y108.284 E35.9708 F3600
G0 X119.432 Y107.791 F7200
G1 X132.538 Y94.684 E36.5872 F3600
G0 X132.026 Y94.631 F7200
G1 X119.379 Y107.278 E37.1821 F3600
G0 X119.348 Y106.744 F7200
G1 X131.492 Y94.600 E37.7533 F3600
G0 X130.933 Y94.593 F7200
G1 X119.341 Y106.185 E38.2986 F3600
G0 X119.363 Y105.597 F7200
G1 X130.345 Y94.615 E38.8151 F3600
G0 X129.723 Y94.671 F7200
G1 X119.419 Y104.976 E39.2998 F3600
G0 X119.515 Y104.314 F7200
G1 X129.061 Y94.767 E39.7489 F3600
G0 X128.350 Y94.913 F7200
G1 X119.661 Y103.602 E40.1576 F3600
G0 X119.876 Y102.822 F7200
G1 X127.570 Y95.128 E40.5195 F3600
G0 X126.689 Y95.442 F7200
G1 X120.191 Y101.941 E40.8252 F3600
G0 X120.675 Y100.891 F7200
G1 X125.639 Y95.927 E41.0586 F3600
G0 X124.142 Y96.858 F7200
G1 X121.607 Y99.394 E41.1779 F3600
; ------------------------------------
; Layer #2
; ------------------------------------
G92 E0 ;reset extr
;segType:HShell
G0 X122.939 Y97.872 F7200
G0 F1200 Z2.000
G1 X139.533 Y114.466 E0.7805 F3600
;segType:Perimeter
G0 X139.838 Y114.950 F7200
G1 X139.421 Y115.633 E0.8071 F2160
G1 X139.007 Y115.990 E0.8253
G1 X138.520 Y116.370 E0.8459
G1 X138.023 Y116.720 E0.8661
G1 X137.502 Y117.050 E0.8866
G1 X136.964 Y117.355 E0.9072
G1 X136.422 Y117.628 E0.9274
G1 X135.857 Y117.878 E0.9479
G1 X135.290 Y118.097 E0.9681
G1 X134.704 Y118.290 E0.9886
G1 X134.109 Y118.455 E1.0092
G1 X133.516 Y118.588 E1.0294
G1 X132.912 Y118.693 E1.0498
G1 X132.300 Y118.768 E1.0703
G1 X131.689 Y118.813 E1.0907
G1 X131.071 Y118.828 E1.1112
G1 X130.459 Y118.813 E1.1316
G1 X129.848 Y118.768 E1.1520
G1 X129.240 Y118.693 E1.1723
G1 X128.637 Y118.588 E1.1927
G1 X128.034 Y118.452 E1.2132
G1 X127.449 Y118.290 E1.2334
G1 X126.863 Y118.097 E1.2540
G1 X126.296 Y117.878 E1.2742
G1 X125.731 Y117.628 E1.2947
G1 X125.180 Y117.350 E1.3153
G1 X124.651 Y117.051 E1.3355
G1 X124.130 Y116.720 E1.3560
G1 X123.633 Y116.370 E1.3762
G1 X123.146 Y115.991 E1.3967
G1 X122.679 Y115.587 E1.4173
G1 X122.235 Y115.164 E1.4377
G1 X121.813 Y114.721 E1.4580
G1 X121.413 Y114.257 E1.4784
G1 X121.036 Y113.774 E1.4988
G1 X120.681 Y113.269 E1.5193
G1 X120.356 Y112.756 E1.5395
G1 X120.054 Y112.223 E1.5599
G1 X119.776 Y111.671 E1.5804
G1 X119.528 Y111.111 E1.6008
G1 X119.306 Y110.535 E1.6213
G1 X119.114 Y109.954 E1.6417
G1 X118.952 Y109.368 E1.6619
G1 X118.817 Y108.768 E1.6824
G1 X118.712 Y108.163 E1.7028
G1 X118.637 Y107.553 E1.7232
G1 X118.592 Y106.940 E1.7437
G1 X118.577 Y106.325 E1.7641
G1 X118.592 Y105.711 E1.7846
G1 X118.637 Y105.106 E1.8047
G1 X118.712 Y104.496 E1.8252
G1 X118.817 Y103.890 E1.8456
G1 X118.952 Y103.290 E1.8661
G1 X119.116 Y102.698 E1.8865
G1 X119.309 Y102.114 E1.9070
G1 X119.530 Y101.540 E1.9274
G1 X119.780 Y100.978 E1.9479
G1 X120.052 Y100.438 E1.9680
G1 X120.355 Y99.903 E1.9885
G1 X120.684 Y99.383 E2.0089
G1 X121.039 Y98.880 E2.0294
G1 X121.417 Y98.395 E2.0498
G1 X121.820 Y97.930 E2.0703
G1 X122.240 Y97.488 E2.0906
G1 X122.686 Y97.064 E2.1110
G1 X123.152 Y96.662 E2.1315
G1 X123.627 Y96.292 E2.1516
G1 X124.135 Y95.934 E2.1722
G1 X124.655 Y95.605 E2.1927
G1 X125.191 Y95.301 E2.2132
G1 X125.735 Y95.028 E2.2334
G1 X126.298 Y94.779 E2.2539
G1 X126.872 Y94.557 E2.2744
G1 X127.457 Y94.365 E2.2949
G1 X128.036 Y94.205 E2.3148
G1 X128.644 Y94.068 E2.3356
G1 X129.251 Y93.963 E2.3561
G1 X129.854 Y93.889 E2.3763
G1 X130.469 Y93.844 E2.3968
G1 X131.084 Y93.829 E2.4172
G1 X131.684 Y93.844 E2.4372
G1 X132.298 Y93.889 E2.4577
G1 X132.917 Y93.966 E2.4784
G1 X133.524 Y94.071 E2.4989
G1 X134.117 Y94.205 E2.5191
G1 X134.710 Y94.369 E2.5396
G1 X135.294 Y94.562 E2.5601
G1 X135.855 Y94.779 E2.5801
G1 X136.424 Y95.031 E2.6008
G1 X136.974 Y95.308 E2.6212
G1 X137.509 Y95.612 E2.6417
G1 X138.024 Y95.938 E2.6620
G1 X138.526 Y96.292 E2.6824
G1 X139.011 Y96.671 E2.7029
G1 X139.477 Y97.073 E2.7233
G1 X139.918 Y97.493 E2.7436
G1 X140.338 Y97.934 E2.7638
G1 X140.743 Y98.404 E2.7845
G1 X141.114 Y98.880 E2.8046
G1 X141.475 Y99.392 E2.8254
G1 X141.798 Y99.903 E2.8455
G1 X142.101 Y100.438 E2.8660
G1 X142.377 Y100.987 E2.8864
G1 X142.626 Y101.549 E2.9069
G1 X142.844 Y102.114 E2.9270
G1 X143.040 Y102.707 E2.9477
G1 X143.201 Y103.290 E2.9679
G1 X143.336 Y103.890 E2.9883
G1 X143.441 Y104.496 E3.0088
G1 X143.516 Y105.106 E3.0292
G1 X143.561 Y105.719 E3.0497
G1 X143.576 Y106.333 E3.0701
G1 X143.561 Y106.948 E3.0906
G1 X143.516 Y107.553 E3.1107
G1 X143.441 Y108.163 E3.1312
G1 X143.336 Y108.768 E3.1516
G1 X143.201 Y109.368 E3.1721
G1 X143.037 Y109.958 E3.1924
G1 X142.843 Y110.545 E3.2130
G1 X142.625 Y111.111 E3.2332
G1 X142.377 Y111.671 E3.2535
G1 X142.099 Y112.223 E3.2741
G1 X141.797 Y112.756 E3.2944
G1 X141.466 Y113.277 E3.3150
G1 X141.117 Y113.774 E3.3352
G1 X140.737 Y114.261 E3.3557
G1 X140.340 Y114.721 E3.3759
G1 X139.914 Y115.168 E3.3965
G1 X139.510 Y115.552 E3.4150
G0 X138.790 Y115.900 F7200
;segType:Loop
G0 X138.372 Y115.978
G1 X138.282 Y116.049 E3.4188 F3600
G1 X137.801 Y116.387 E3.4384
G1 X137.296 Y116.707 E3.4583
G1 X136.776 Y117.002 E3.4782
G1 X136.250 Y117.266 E3.4977
G1 X135.704 Y117.508 E3.5176
G1 X135.155 Y117.720 E3.5372
G1 X134.588 Y117.907 E3.5570
G1 X134.011 Y118.067 E3.5769
G1 X133.438 Y118.195 E3.5965
G1 X132.854 Y118.297 E3.6162
G1 X132.261 Y118.370 E3.6361
G1 X131.669 Y118.413 E3.6558
G1 X131.072 Y118.428 E3.6757
G1 X130.479 Y118.413 E3.6954
G1 X129.888 Y118.370 E3.7151
G1 X129.299 Y118.297 E3.7348
G1 X128.715 Y118.195 E3.7546
G1 X128.132 Y118.064 E3.7745
G1 X127.565 Y117.908 E3.7940
G1 X126.998 Y117.720 E3.8139
G1 X126.449 Y117.508 E3.8334
G1 X125.902 Y117.266 E3.8533
G1 X125.369 Y116.997 E3.8732
G1 X124.857 Y116.707 E3.8928
G1 X124.352 Y116.387 E3.9126
G1 X123.871 Y116.049 E3.9322
G1 X123.400 Y115.681 E3.9521
G1 X122.948 Y115.290 E3.9720
G1 X122.518 Y114.882 E3.9917
G1 X122.109 Y114.452 E4.0114
G1 X121.722 Y114.003 E4.0311
G1 X121.358 Y113.536 E4.0508
G1 X121.013 Y113.047 E4.0707
G1 X120.699 Y112.550 E4.0903
G1 X120.407 Y112.034 E4.1100
G1 X120.138 Y111.500 E4.1299
G1 X119.898 Y110.958 E4.1496
G1 X119.683 Y110.400 E4.1695
G1 X119.497 Y109.837 E4.1892
G1 X119.340 Y109.271 E4.2088
G1 X119.210 Y108.690 E4.2285
G1 X119.108 Y108.104 E4.2483
G1 X119.035 Y107.514 E4.2681
G1 X118.991 Y106.921 E4.2879
G1 X118.977 Y106.326 E4.3077
G1 X118.992 Y105.731 E4.3275
G1 X119.035 Y105.145 E4.3470
G1 X119.108 Y104.555 E4.3668
G1 X119.209 Y103.968 E4.3866
G1 X119.340 Y103.388 E4.4064
G1 X119.499 Y102.814 E4.4262
G1 X119.686 Y102.249 E4.4460
G1 X119.900 Y101.694 E4.4658
G1 X120.142 Y101.149 E4.4856
G1 X120.405 Y100.627 E4.5051
G1 X120.698 Y100.109 E4.5249
G1 X121.017 Y99.605 E4.5447
G1 X121.360 Y99.119 E4.5645
G1 X121.726 Y98.649 E4.5843
G1 X122.116 Y98.198 E4.6041
G1 X122.523 Y97.771 E4.6237
G1 X122.954 Y97.361 E4.6435
G1 X123.406 Y96.972 E4.6633
G1 X123.865 Y96.613 E4.6827
G1 X124.358 Y96.266 E4.7028
G1 X124.861 Y95.948 E4.7226
G1 X125.380 Y95.654 E4.7424
G1 X125.906 Y95.390 E4.7620
G1 X126.451 Y95.148 E4.7818
G1 X127.007 Y94.934 E4.8016
G1 X127.573 Y94.748 E4.8215
G1 X128.133 Y94.593 E4.8408
G1 X128.722 Y94.461 E4.8609
G1 X129.310 Y94.359 E4.8807
G1 X129.893 Y94.287 E4.9003
G1 X130.488 Y94.244 E4.9201
G1 X131.084 Y94.229 E4.9399
G1 X131.665 Y94.244 E4.9592
G1 X132.259 Y94.287 E4.9791
G1 X132.858 Y94.361 E4.9991
G1 X133.445 Y94.464 E5.0190
G1 X134.019 Y94.593 E5.0385
G1 X134.594 Y94.752 E5.0583
G1 X135.160 Y94.939 E5.0782
G1 X135.702 Y95.148 E5.0975
G1 X136.253 Y95.393 E5.1176
G1 X136.785 Y95.661 E5.1374
G1 X137.303 Y95.955 E5.1572
G1 X137.801 Y96.270 E5.1768
G1 X138.288 Y96.613 E5.1966
G1 X138.757 Y96.980 E5.2164
G1 X139.208 Y97.369 E5.2362
G1 X139.635 Y97.776 E5.2558
G1 X140.041 Y98.203 E5.2754
G1 X140.434 Y98.658 E5.2954
G1 X140.793 Y99.118 E5.3148
G1 X141.142 Y99.614 E5.3350
G1 X141.455 Y100.108 E5.3545
G1 X141.748 Y100.627 E5.3743
G1 X142.015 Y101.158 E5.3941
G1 X142.257 Y101.702 E5.4139
G1 X142.467 Y102.249 E5.4333
G1 X142.657 Y102.823 E5.4534
G1 X142.813 Y103.388 E5.4729
G1 X142.943 Y103.968 E5.4927
G1 X143.045 Y104.555 E5.5125
G1 X143.118 Y105.145 E5.5323
G1 X143.161 Y105.739 E5.5521
G1 X143.176 Y106.333 E5.5719
G1 X143.161 Y106.928 E5.5917
G1 X143.118 Y107.514 E5.6112
G1 X143.045 Y108.104 E5.6310
G1 X142.943 Y108.690 E5.6508
G1 X142.813 Y109.271 E5.6706
G1 X142.655 Y109.842 E5.6903
G1 X142.467 Y110.410 E5.7102
G1 X142.255 Y110.958 E5.7297
G1 X142.015 Y111.500 E5.7494
G1 X141.746 Y112.034 E5.7693
G1 X141.454 Y112.550 E5.7890
G1 X141.134 Y113.055 E5.8089
G1 X140.795 Y113.536 E5.8285
G1 X140.427 Y114.007 E5.8484
G1 X140.043 Y114.452 E5.8679
G1 X139.631 Y114.885 E5.8878
G1 X139.198 Y115.297 E5.9077
G1 X138.753 Y115.681 E5.9272
G1 X138.530 Y115.855 E5.9366
;segType:HShell
G0 X139.251 Y114.750 F7200
G1 X122.655 Y98.154 E6.7172 F3600
G0 X122.379 Y98.444 F7200
G1 X138.961 Y115.026 E7.4972 F3600
G0 X138.657 Y115.288 F7200
G1 X122.117 Y98.748 E8.2752 F3600
G0 X121.863 Y99.059 F7200
G1 X138.346 Y115.542 E9.0505 F3600
G0 X138.026 Y115.788 F7200
G1 X121.617 Y99.379 E9.8223 F3600
G0 X121.383 Y99.711 F7200
G1 X137.694 Y116.022 E10.5895 F3600
G0 X137.352 Y116.245 F7200
G1 X121.160 Y100.053 E11.3512 F3600
G0 X120.945 Y100.404 F7200
G1 X137.001 Y116.460 E12.1064 F3600
G0 X136.640 Y116.665 F7200
G1 X120.740 Y100.765 E12.8543 F3600
G0 X120.550 Y101.140 F7200
G1 X136.265 Y116.856 E13.5935 F3600
G0 X135.880 Y117.036 F7200
G1 X120.369 Y101.525 E14.3231 F3600
G0 X120.199 Y101.920 F7200
G1 X135.485 Y117.207 E15.0421 F3600
G0 X135.077 Y117.364 F7200
G1 X120.041 Y102.329 E15.7493 F3600
G0 X119.899 Y102.752 F7200
G1 X134.653 Y117.507 E16.4434 F3600
G0 X134.217 Y117.636 F7200
G1 X119.769 Y103.188 E17.1230 F3600
G0 X119.653 Y103.638 F7200
G1 X133.768 Y117.752 E17.7869 F3600
G0 X133.303 Y117.853 F7200
G1 X119.552 Y104.102 E18.4337 F3600
G0 X119.468 Y104.584 F7200
G1 X132.821 Y117.937 E19.0618 F3600
G0 X132.318 Y118.000 F7200
G1 X119.405 Y105.087 E19.6692 F3600
G0 X119.362 Y105.609 F7200
G1 X131.796 Y118.043 E20.2540 F3600
G0 X131.250 Y118.063 F7200
G1 X119.342 Y106.155 E20.8142 F3600
G0 X119.347 Y106.726 F7200
G1 X130.679 Y118.058 E21.3472 F3600
G0 X130.078 Y118.023 F7200
G1 X119.382 Y107.327 E21.8503 F3600
G0 X119.453 Y107.964 F7200
G1 X129.442 Y117.952 E22.3201 F3600
G0 X128.761 Y117.837 F7200
G1 X119.568 Y108.644 E22.7525 F3600
G0 X119.746 Y109.388 F7200
G1 X128.018 Y117.659 E23.1415 F3600
G0 X127.201 Y117.408 F7200
G1 X119.998 Y110.205 E23.4804 F3600
G0 X120.376 Y111.149 F7200
G1 X126.256 Y117.029 E23.7569 F3600
G0 X125.083 Y116.421 F7200
G1 X120.984 Y112.323 E23.9497 F3600
G0 X123.230 Y97.598 F7200
G1 X139.807 Y114.175 E24.7294 F3600
G0 X140.069 Y113.871 F7200
G1 X123.534 Y97.336 E25.5072 F3600
G0 X123.847 Y97.084 F7200
G1 X140.321 Y113.558 E26.2821 F3600
G0 X140.566 Y113.236 F7200
G1 X124.169 Y96.840 E27.0533 F3600
G0 X124.501 Y96.606 F7200
G1 X140.799 Y112.905 E27.8200 F3600
G0 X141.021 Y112.560 F7200
G1 X124.845 Y96.384 E28.5808 F3600
G0 X125.197 Y96.171 F7200
G1 X141.234 Y112.208 E29.3351 F3600
G0 X141.438 Y111.846 F7200
G1 X125.559 Y95.967 E30.0820 F3600
G0 X125.935 Y95.778 F7200
G1 X141.627 Y111.470 E30.8201 F3600
G0 X141.806 Y111.083 F7200
G1 X126.322 Y95.599 E31.5484 F3600
G0 X126.720 Y95.431 F7200
G1 X141.974 Y110.685 E32.2660 F3600
G0 X142.131 Y110.277 F7200
G1 X127.128 Y95.274 E32.9717 F3600
G0 X127.554 Y95.133 F7200
G1 X142.272 Y109.852 E33.6640 F3600
G0 X142.400 Y109.414 F7200
G1 X127.992 Y95.006 E34.3417 F3600
G0 X128.444 Y94.892 F7200
G1 X142.513 Y108.962 E35.0035 F3600
G0 X142.612 Y108.494 F7200
G1 X128.911 Y94.793 E35.6479 F3600
G0 X129.394 Y94.711 F7200
G1 X142.694 Y108.011 E36.2735 F3600
G0 X142.756 Y107.507 F7200
G1 X129.898 Y94.649 E36.8782 F3600
G0 X130.424 Y94.609 F7200
G1 X142.796 Y106.982 E37.4602 F3600
G0 X142.813 Y106.433 F7200
G1 X130.972 Y94.592 E38.0171 F3600
G0 X131.547 Y94.601 F7200
G1 X142.804 Y105.858 E38.5467 F3600
G0 X142.765 Y105.253 F7200
G1 X132.152 Y94.640 E39.0459 F3600
G0 X132.793 Y94.716 F7200
G1 X142.689 Y104.612 E39.5113 F3600
G0 X142.564 Y103.921 F7200
G1 X133.484 Y94.841 E39.9384 F3600
G0 X134.234 Y95.026 F7200
G1 X142.379 Y103.171 E40.3215 F3600
G0 X142.118 Y102.344 F7200
G1 X135.061 Y95.287 E40.6534 F3600
G0 X136.026 Y95.686 F7200
G1 X141.720 Y101.380 E40.9213 F3600
G0 X141.053 Y100.148 F7200
G1 X137.258 Y96.352 E41.0998 F3600
; ------------------------------------
; Layer #3
; ------------------------------------
G92 E0 ;reset extr
;segType:HShell
G0 F3000 E-1.0000
G0 F1200 Z2.200
G0 X141.478 Y111.767 F7200
G0 F3000 E0.0000
G1 X136.515 Y116.730 E0.2334 F3600
G0 X138.012 Y115.798 F7200
G1 X140.546 Y113.265 E0.3526 F3600
;segType:Perimeter
G0 X139.837 Y114.952 F7200
G1 X139.420 Y115.634 E0.3792 F2160
G1 X139.007 Y115.990 E0.3974
G1 X138.519 Y116.371 E0.4180
G1 X138.018 Y116.723 E0.4383
G1 X137.501 Y117.051 E0.4587
G1 X136.962 Y117.355 E0.4793
G1 X136.415 Y117.631 E0.4996
G1 X135.856 Y117.878 E0.5200
G1 X135.285 Y118.099 E0.5403
G1 X134.704 Y118.290 E0.5607
G1 X134.107 Y118.455 E0.5813
G1 X133.516 Y118.588 E0.6014
G1 X132.913 Y118.692 E0.6218
G1 X132.299 Y118.768 E0.6424
G1 X131.688 Y118.813 E0.6627
G1 X131.069 Y118.828 E0.6833
G1 X130.465 Y118.813 E0.7034
G1 X129.847 Y118.767 E0.7240
G1 X129.240 Y118.692 E0.7444
G1 X128.637 Y118.588 E0.7647
G1 X128.033 Y118.452 E0.7853
G1 X127.449 Y118.290 E0.8055
G1 X126.862 Y118.096 E0.8261
G1 X126.297 Y117.878 E0.8462
G1 X125.731 Y117.628 E0.8668
G1 X125.178 Y117.349 E0.8874
G1 X124.652 Y117.051 E0.9075
G1 X124.129 Y116.719 E0.9281
G1 X123.628 Y116.367 E0.9484
G1 X123.146 Y115.990 E0.9688
G1 X122.677 Y115.586 E0.9894
G1 X122.234 Y115.163 E1.0098
G1 X121.812 Y114.720 E1.0301
G1 X121.413 Y114.256 E1.0505
G1 X121.036 Y113.774 E1.0708
G1 X120.680 Y113.267 E1.0914
G1 X120.356 Y112.756 E1.1115
G1 X120.051 Y112.217 E1.1321
G1 X119.776 Y111.671 E1.1525
G1 X119.528 Y111.111 E1.1728
G1 X119.305 Y110.533 E1.1934
G1 X119.116 Y109.959 E1.2136
G1 X118.950 Y109.359 E1.2343
G1 X118.816 Y108.759 E1.2547
G1 X118.712 Y108.163 E1.2748
G1 X118.637 Y107.553 E1.2953
G1 X118.592 Y106.939 E1.3157
G1 X118.577 Y106.324 E1.3362
G1 X118.592 Y105.709 E1.3567
G1 X118.637 Y105.107 E1.3767
G1 X118.714 Y104.484 E1.3976
G1 X118.817 Y103.891 E1.4177
G1 X118.952 Y103.290 E1.4381
G1 X119.116 Y102.697 E1.4586
G1 X119.309 Y102.113 E1.4791
G1 X119.531 Y101.538 E1.4996
G1 X119.781 Y100.975 E1.5200
G1 X120.052 Y100.439 E1.5400
G1 X120.355 Y99.903 E1.5605
G1 X120.685 Y99.383 E1.5810
G1 X121.039 Y98.879 E1.6015
G1 X121.418 Y98.394 E1.6219
G1 X121.821 Y97.928 E1.6424
G1 X122.240 Y97.488 E1.6627
G1 X122.687 Y97.063 E1.6831
G1 X123.154 Y96.661 E1.7036
G1 X123.625 Y96.293 E1.7235
G1 X124.136 Y95.933 E1.7443
G1 X124.657 Y95.603 E1.7648
G1 X125.194 Y95.300 E1.7853
G1 X125.736 Y95.028 E1.8055
G1 X126.300 Y94.778 E1.8260
G1 X126.875 Y94.556 E1.8465
G1 X127.441 Y94.370 E1.8663
G1 X128.045 Y94.202 E1.8872
G1 X128.647 Y94.068 E1.9077
G1 X129.233 Y93.966 E1.9275
G1 X129.856 Y93.889 E1.9484
G1 X130.471 Y93.844 E1.9689
G1 X131.087 Y93.829 E1.9894
G1 X131.682 Y93.844 E2.0092
G1 X132.308 Y93.890 E2.0300
G1 X132.920 Y93.966 E2.0506
G1 X133.506 Y94.068 E2.0703
G1 X134.118 Y94.205 E2.0912
G1 X134.712 Y94.370 E2.1117
G1 X135.278 Y94.556 E2.1315
G1 X135.853 Y94.778 E2.1520
G1 X136.426 Y95.032 E2.1729
G1 X136.976 Y95.309 E2.1934
G1 X137.512 Y95.613 E2.2139
G1 X138.017 Y95.933 E2.2337
G1 X138.528 Y96.293 E2.2545
G1 X139.013 Y96.672 E2.2750
G1 X139.466 Y97.063 E2.2949
G1 X139.919 Y97.494 E2.3157
G1 X140.343 Y97.940 E2.3361
G1 X140.745 Y98.406 E2.3566
G1 X141.114 Y98.879 E2.3766
G1 X141.468 Y99.383 E2.3971
G1 X141.798 Y99.903 E2.4175
G1 X142.101 Y100.439 E2.4380
G1 X142.378 Y100.989 E2.4585
G1 X142.627 Y101.551 E2.4790
G1 X142.848 Y102.125 E2.4994
G1 X143.040 Y102.709 E2.5199
G1 X143.201 Y103.290 E2.5399
G1 X143.336 Y103.890 E2.5604
G1 X143.441 Y104.497 E2.5808
G1 X143.516 Y105.107 E2.6013
G1 X143.561 Y105.721 E2.6218
G1 X143.576 Y106.335 E2.6422
G1 X143.561 Y106.939 E2.6623
G1 X143.516 Y107.553 E2.6828
G1 X143.441 Y108.163 E2.7032
G1 X143.335 Y108.769 E2.7237
G1 X143.201 Y109.369 E2.7441
G1 X143.037 Y109.959 E2.7645
G1 X142.843 Y110.547 E2.7851
G1 X142.625 Y111.111 E2.8052
G1 X142.377 Y111.671 E2.8256
G1 X142.099 Y112.224 E2.8462
G1 X141.797 Y112.756 E2.8665
G1 X141.465 Y113.279 E2.8871
G1 X141.113 Y113.779 E2.9075
G1 X140.736 Y114.262 E2.9278
G1 X140.336 Y114.725 E2.9482
G1 X139.914 Y115.168 E2.9685
G1 X139.509 Y115.554 E2.9871
G0 X138.788 Y115.902 F7200
;segType:Loop
G0 X138.371 Y115.979
G1 X138.281 Y116.050 E2.9909 F3600
G1 X137.796 Y116.390 E3.0106
G1 X137.296 Y116.707 E3.0303
G1 X136.774 Y117.003 E3.0503
G1 X136.245 Y117.269 E3.0700
G1 X135.703 Y117.509 E3.0897
G1 X135.150 Y117.722 E3.1094
G1 X134.588 Y117.907 E3.1291
G1 X134.009 Y118.067 E3.1490
G1 X133.438 Y118.195 E3.1685
G1 X132.855 Y118.297 E3.1882
G1 X132.259 Y118.370 E3.2082
G1 X131.669 Y118.414 E3.2279
G1 X131.069 Y118.428 E3.2478
G1 X130.484 Y118.414 E3.2673
G1 X129.886 Y118.369 E3.2872
G1 X129.298 Y118.297 E3.3069
G1 X128.715 Y118.195 E3.3266
G1 X128.130 Y118.064 E3.3466
G1 X127.566 Y117.907 E3.3660
G1 X126.996 Y117.719 E3.3860
G1 X126.450 Y117.509 E3.4054
G1 X125.902 Y117.266 E3.4254
G1 X125.367 Y116.996 E3.4453
G1 X124.858 Y116.708 E3.4648
G1 X124.351 Y116.387 E3.4847
G1 X123.867 Y116.045 E3.5044
G1 X123.400 Y115.681 E3.5241
G1 X122.946 Y115.289 E3.5441
G1 X122.517 Y114.880 E3.5638
G1 X122.109 Y114.451 E3.5835
G1 X121.722 Y114.003 E3.6032
G1 X121.358 Y113.535 E3.6229
G1 X121.013 Y113.045 E3.6428
G1 X120.699 Y112.551 E3.6623
G1 X120.404 Y112.029 E3.6822
G1 X120.138 Y111.500 E3.7019
G1 X119.898 Y110.958 E3.7216
G1 X119.682 Y110.399 E3.7416
G1 X119.499 Y109.843 E3.7611
G1 X119.338 Y109.262 E3.7811
G1 X119.208 Y108.681 E3.8009
G1 X119.108 Y108.104 E3.8204
G1 X119.035 Y107.514 E3.8402
G1 X118.991 Y106.920 E3.8600
G1 X118.977 Y106.324 E3.8798
G1 X118.992 Y105.729 E3.8996
G1 X119.035 Y105.147 E3.9190
G1 X119.110 Y104.543 E3.9392
G1 X119.209 Y103.969 E3.9586
G1 X119.340 Y103.387 E3.9784
G1 X119.499 Y102.813 E3.9983
G1 X119.686 Y102.248 E4.0181
G1 X119.901 Y101.692 E4.0379
G1 X120.143 Y101.147 E4.0577
G1 X120.405 Y100.627 E4.0771
G1 X120.698 Y100.109 E4.0969
G1 X121.017 Y99.605 E4.1167
G1 X121.361 Y99.118 E4.1366
G1 X121.728 Y98.648 E4.1564
G1 X122.118 Y98.197 E4.1762
G1 X122.523 Y97.771 E4.1958
G1 X122.955 Y97.360 E4.2156
G1 X123.407 Y96.970 E4.2355
G1 X123.864 Y96.614 E4.2547
G1 X124.359 Y96.265 E4.2748
G1 X124.863 Y95.947 E4.2947
G1 X125.382 Y95.653 E4.3145
G1 X125.907 Y95.389 E4.3341
G1 X126.453 Y95.148 E4.3539
G1 X127.010 Y94.933 E4.3738
G1 X127.557 Y94.753 E4.3929
G1 X128.142 Y94.591 E4.4131
G1 X128.725 Y94.460 E4.4330
G1 X129.292 Y94.362 E4.4521
G1 X129.895 Y94.287 E4.4724
G1 X130.490 Y94.243 E4.4922
G1 X131.087 Y94.229 E4.5121
G1 X131.662 Y94.243 E4.5312
G1 X132.269 Y94.288 E4.5514
G1 X132.861 Y94.362 E4.5713
G1 X133.428 Y94.460 E4.5904
G1 X134.021 Y94.593 E4.6106
G1 X134.596 Y94.752 E4.6305
G1 X135.143 Y94.933 E4.6496
G1 X135.700 Y95.148 E4.6695
G1 X136.255 Y95.393 E4.6897
G1 X136.787 Y95.662 E4.7095
G1 X137.306 Y95.956 E4.7293
G1 X137.794 Y96.265 E4.7486
G1 X138.289 Y96.614 E4.7687
G1 X138.759 Y96.981 E4.7885
G1 X139.197 Y97.359 E4.8078
G1 X139.636 Y97.777 E4.8279
G1 X140.046 Y98.208 E4.8477
G1 X140.435 Y98.660 E4.8676
G1 X140.792 Y99.118 E4.8868
G1 X141.136 Y99.605 E4.9067
G1 X141.455 Y100.108 E4.9265
G1 X141.748 Y100.627 E4.9463
G1 X142.016 Y101.160 E4.9661
G1 X142.257 Y101.704 E4.9860
G1 X142.471 Y102.260 E5.0058
G1 X142.657 Y102.825 E5.0256
G1 X142.813 Y103.387 E5.0450
G1 X142.943 Y103.968 E5.0648
G1 X143.045 Y104.555 E5.0846
G1 X143.118 Y105.146 E5.1044
G1 X143.161 Y105.740 E5.1242
G1 X143.176 Y106.335 E5.1440
G1 X143.161 Y106.920 E5.1634
G1 X143.118 Y107.514 E5.1832
G1 X143.045 Y108.105 E5.2030
G1 X142.943 Y108.691 E5.2228
G1 X142.813 Y109.272 E5.2426
G1 X142.654 Y109.842 E5.2623
G1 X142.466 Y110.412 E5.2823
G1 X142.255 Y110.958 E5.3018
G1 X142.015 Y111.500 E5.3215
G1 X141.746 Y112.035 E5.3414
G1 X141.454 Y112.550 E5.3611
G1 X141.133 Y113.057 E5.3810
G1 X140.791 Y113.541 E5.4007
G1 X140.427 Y114.008 E5.4204
G1 X140.040 Y114.456 E5.4401
G1 X139.631 Y114.885 E5.4598
G1 X139.197 Y115.298 E5.4798
G1 X138.753 Y115.681 E5.4993
G1 X138.528 Y115.856 E5.5087
;segType:HShell
G0 X141.963 Y110.716 F7200
G1 X135.464 Y117.215 E5.8144 F3600
G0 X134.583 Y117.530 F7200
G1 X142.277 Y109.836 E6.1763 F3600
G0 X142.492 Y109.055 F7200
G1 X133.803 Y117.744 E6.5851 F3600
G0 X133.092 Y117.890 F7200
G1 X142.638 Y108.344 E7.0341 F3600
G0 X142.734 Y107.682 F7200
G1 X132.430 Y117.986 E7.5188 F3600
G0 X131.808 Y118.042 F7200
G1 X142.790 Y107.060 E8.0353 F3600
G0 X142.812 Y106.472 F7200
G1 X131.220 Y118.064 E8.5806 F3600
G0 X130.661 Y118.058 F7200
G1 X142.805 Y105.913 E9.1518 F3600
G0 X142.774 Y105.379 F7200
G1 X130.127 Y118.026 E9.7467 F3600
G0 X129.615 Y117.973 F7200
G1 X142.721 Y104.867 E10.3632 F3600
G0 X142.648 Y104.374 F7200
G1 X129.121 Y117.900 E10.9994 F3600
G0 X128.645 Y117.811 F7200
G1 X142.558 Y103.898 E11.6538 F3600
G0 X142.453 Y103.437 F7200
G1 X128.185 Y117.705 E12.3250 F3600
G0 X127.742 Y117.583 F7200
G1 X142.330 Y102.994 E13.0112 F3600
G0 X142.193 Y102.566 F7200
G1 X127.314 Y117.445 E13.7110 F3600
G0 X126.898 Y117.295 F7200
G1 X142.043 Y102.150 E14.4234 F3600
G0 X141.882 Y101.746 F7200
G1 X126.494 Y117.134 E15.1472 F3600
G0 X126.102 Y116.960 F7200
G1 X141.708 Y101.354 E15.8813 F3600
G0 X141.521 Y100.976 F7200
G1 X125.724 Y116.773 E16.6243 F3600
G0 X125.355 Y116.576 F7200
G1 X141.323 Y100.607 E17.3754 F3600
G0 X141.117 Y100.248 F7200
G1 X124.996 Y116.369 E18.1337 F3600
G0 X124.650 Y116.150 F7200
G1 X140.897 Y99.902 E18.8979 F3600
G0 X140.668 Y99.566 F7200
G1 X124.314 Y115.920 E19.6672 F3600
G0 X123.986 Y115.682 F7200
G1 X140.430 Y99.238 E20.4406 F3600
G0 X140.182 Y98.921 F7200
G1 X123.668 Y115.434 E21.2174 F3600
G0 X123.363 Y115.173 F7200
G1 X139.921 Y98.615 E21.9962 F3600
G0 X139.653 Y98.318 F7200
G1 X123.065 Y114.905 E22.7764 F3600
G0 X122.776 Y114.629 F7200
G1 X139.377 Y98.028 E23.5573 F3600
G0 X139.087 Y97.752 F7200
G1 X122.500 Y114.340 E24.3376 F3600
G0 X122.232 Y114.042 F7200
G1 X138.790 Y97.484 E25.1164 F3600
G0 X138.484 Y97.224 F7200
G1 X121.971 Y113.737 E25.8931 F3600
G0 X121.723 Y113.419 F7200
G1 X138.167 Y96.976 E26.6666 F3600
G0 X137.839 Y96.738 F7200
G1 X121.485 Y113.091 E27.4358 F3600
G0 X121.255 Y112.756 F7200
G1 X137.503 Y96.508 E28.2001 F3600
G0 X137.157 Y96.288 F7200
G1 X121.036 Y112.409 E28.9584 F3600
G0 X120.830 Y112.050 F7200
G1 X136.798 Y96.082 E29.7094 F3600
G0 X136.429 Y95.885 F7200
G1 X120.632 Y111.682 E30.4525 F3600
G0 X120.445 Y111.304 F7200
G1 X136.051 Y95.697 E31.1866 F3600
G0 X135.659 Y95.523 F7200
G1 X120.271 Y110.912 E31.9104 F3600
G0 X120.110 Y110.507 F7200
G1 X135.255 Y95.362 E32.6228 F3600
G0 X134.839 Y95.212 F7200
G1 X119.960 Y110.091 E33.3226 F3600
G0 X119.823 Y109.663 F7200
G1 X134.411 Y95.075 E34.0088 F3600
G0 X133.968 Y94.952 F7200
G1 X119.700 Y109.220 E34.6799 F3600
G0 X119.595 Y108.759 F7200
G1 X133.507 Y94.847 E35.3343 F3600
G0 X133.032 Y94.757 F7200
G1 X119.505 Y108.284 E35.9706 F3600
G0 X119.432 Y107.791 F7200
G1 X132.538 Y94.684 E36.5871 F3600
G0 X132.026 Y94.631 F7200
G1 X119.379 Y107.278 E37.1819 F3600
G0 X119.347 Y106.744 F7200
G1 X131.492 Y94.599 E37.7532 F3600
G0 X130.933 Y94.593 F7200
G1 X119.341 Y106.185 E38.2984 F3600
G0 X119.363 Y105.597 F7200
G1 X130.345 Y94.615 E38.8150 F3600
G0 X129.723 Y94.671 F7200
G1 X119.419 Y104.975 E39.2997 F3600
G0 X119.515 Y104.314 F7200
G1 X129.062 Y94.767 E39.7487 F3600
G0 X128.350 Y94.913 F7200
G1 X119.661 Y103.602 E40.1574 F3600
G0 X119.875 Y102.822 F7200
G1 X127.570 Y95.127 E40.5193 F3600
G0 X126.689 Y95.443 F7200
G1 X120.191 Y101.941 E40.8250 F3600
G0 X120.675 Y100.891 F7200
G1 X125.639 Y95.927 E41.0585 F3600
G0 X124.141 Y96.860 F7200
G1 X121.607 Y99.393 E41.1776 F3600
; ------------------------------------
; Layer #4
; ------------------------------------
G92 E0 ;reset extr
;segType:Infill
G0 X122.655 Y98.155 F7200
G0 F1200 Z2.400
G1 X139.251 Y114.750 E0.9367 F4500
;segType:Perimeter
G0 X139.835 Y114.953 F7200
G1 X139.418 Y115.636 E0.9633 F2160
G1 X139.000 Y115.996 E0.9817
G1 X138.525 Y116.366 E1.0017
G1 X138.018 Y116.724 E1.0224
G1 X137.501 Y117.051 E1.0427
G1 X136.977 Y117.348 E1.0627
G1 X136.414 Y117.631 E1.0837
G1 X135.855 Y117.879 E1.1040
G1 X135.284 Y118.099 E1.1244
G1 X134.703 Y118.291 E1.1447
G1 X134.105 Y118.456 E1.1654
G1 X133.517 Y118.588 E1.1854
G1 X132.914 Y118.692 E1.2058
G1 X132.298 Y118.768 E1.2264
G1 X131.688 Y118.813 E1.2467
G1 X131.067 Y118.828 E1.2674
G1 X130.465 Y118.813 E1.2874
G1 X129.846 Y118.767 E1.3081
G1 X129.239 Y118.692 E1.3284
G1 X128.636 Y118.588 E1.3488
G1 X128.048 Y118.456 E1.3688
G1 X127.450 Y118.291 E1.3895
G1 X126.860 Y118.096 E1.4101
G1 X126.290 Y117.875 E1.4304
G1 X125.731 Y117.628 E1.4508
G1 X125.177 Y117.348 E1.4714
G1 X124.644 Y117.046 E1.4918
G1 X124.128 Y116.719 E1.5121
G1 X123.628 Y116.366 E1.5325
G1 X123.146 Y115.990 E1.5528
G1 X122.676 Y115.584 E1.5735
G1 X122.240 Y115.169 E1.5935
G1 X121.812 Y114.719 E1.6141
G1 X121.412 Y114.256 E1.6345
G1 X121.036 Y113.773 E1.6548
G1 X120.689 Y113.281 E1.6749
G1 X120.356 Y112.757 E1.6955
G1 X120.051 Y112.217 E1.7162
G1 X119.776 Y111.670 E1.7365
G1 X119.528 Y111.111 E1.7569
G1 X119.305 Y110.532 E1.7775
G1 X119.113 Y109.950 E1.7979
G1 X118.949 Y109.357 E1.8183
G1 X118.818 Y108.769 E1.8384
G1 X118.712 Y108.163 E1.8588
G1 X118.637 Y107.552 E1.8793
G1 X118.592 Y106.938 E1.8998
G1 X118.577 Y106.323 E1.9202
G1 X118.593 Y105.707 E1.9407
G1 X118.637 Y105.108 E1.9607
G1 X118.712 Y104.497 E1.9812
G1 X118.817 Y103.891 E2.0017
G1 X118.952 Y103.290 E2.0221
G1 X119.116 Y102.696 E2.0426
G1 X119.310 Y102.111 E2.0631
G1 X119.526 Y101.553 E2.0830
G1 X119.775 Y100.989 E2.1035
G1 X120.051 Y100.439 E2.1240
G1 X120.355 Y99.903 E2.1445
G1 X120.685 Y99.382 E2.1650
G1 X121.040 Y98.878 E2.1855
G1 X121.407 Y98.409 E2.2053
G1 X121.809 Y97.942 E2.2258
G1 X122.241 Y97.487 E2.2467
G1 X122.688 Y97.062 E2.2672
G1 X123.156 Y96.659 E2.2877
G1 X123.623 Y96.294 E2.3075
G1 X124.138 Y95.932 E2.3284
G1 X124.659 Y95.602 E2.3489
G1 X125.186 Y95.304 E2.3690
G1 X125.737 Y95.027 E2.3896
G1 X126.302 Y94.777 E2.4101
G1 X126.878 Y94.556 E2.4306
G1 X127.439 Y94.370 E2.4503
G1 X128.047 Y94.202 E2.4713
G1 X128.649 Y94.067 E2.4918
G1 X129.258 Y93.962 E2.5123
G1 X129.857 Y93.889 E2.5324
G1 X130.473 Y93.844 E2.5530
G1 X131.090 Y93.829 E2.5735
G1 X131.680 Y93.844 E2.5931
G1 X132.310 Y93.890 E2.6141
G1 X132.922 Y93.966 E2.6346
G1 X133.530 Y94.073 E2.6552
G1 X134.119 Y94.205 E2.6753
G1 X134.714 Y94.370 E2.6958
G1 X135.300 Y94.565 E2.7163
G1 X135.851 Y94.777 E2.7360
G1 X136.427 Y95.032 E2.7569
G1 X136.978 Y95.310 E2.7774
G1 X137.494 Y95.602 E2.7971
G1 X138.025 Y95.939 E2.8181
G1 X138.529 Y96.294 E2.8386
G1 X138.997 Y96.659 E2.8583
G1 X139.465 Y97.062 E2.8788
G1 X139.920 Y97.495 E2.8997
G1 X140.344 Y97.941 E2.9202
G1 X140.746 Y98.409 E2.9407
G1 X141.113 Y98.878 E2.9605
G1 X141.468 Y99.382 E2.9810
G1 X141.798 Y99.903 E3.0016
G1 X142.102 Y100.439 E3.0220
G1 X142.378 Y100.989 E3.0425
G1 X142.627 Y101.553 E3.0630
G1 X142.849 Y102.127 E3.0835
G1 X143.036 Y102.696 E3.1034
G1 X143.201 Y103.290 E3.1239
G1 X143.336 Y103.891 E3.1444
G1 X143.441 Y104.497 E3.1649
G1 X143.516 Y105.108 E3.1853
G1 X143.561 Y105.722 E3.2058
G1 X143.576 Y106.337 E3.2263
G1 X143.561 Y106.938 E3.2463
G1 X143.516 Y107.552 E3.2668
G1 X143.441 Y108.163 E3.2872
G1 X143.335 Y108.769 E3.3077
G1 X143.200 Y109.370 E3.3282
G1 X143.037 Y109.959 E3.3485
G1 X142.848 Y110.531 E3.3685
G1 X142.621 Y111.119 E3.3895
G1 X142.373 Y111.678 E3.4098
G1 X142.098 Y112.225 E3.4302
G1 X141.797 Y112.757 E3.4505
G1 X141.464 Y113.281 E3.4712
G1 X141.117 Y113.773 E3.4912
G1 X140.735 Y114.263 E3.5119
G1 X140.335 Y114.726 E3.5322
G1 X139.913 Y115.169 E3.5526
G1 X139.507 Y115.555 E3.5712
G0 X138.786 Y115.903 F7200
;segType:Loop
G0 X138.369 Y115.981
G1 X138.287 Y116.045 E3.5747 F3600
G1 X137.795 Y116.391 E3.5947
G1 X137.295 Y116.708 E3.6144
G1 X136.788 Y116.995 E3.6337
G1 X136.243 Y117.270 E3.6540
G1 X135.702 Y117.509 E3.6737
G1 X135.149 Y117.722 E3.6934
G1 X134.587 Y117.908 E3.7131
G1 X134.008 Y118.068 E3.7331
G1 X133.439 Y118.195 E3.7525
G1 X132.855 Y118.297 E3.7722
G1 X132.259 Y118.370 E3.7922
G1 X131.669 Y118.414 E3.8119
G1 X131.068 Y118.428 E3.8319
G1 X130.485 Y118.414 E3.8513
G1 X129.885 Y118.369 E3.8712
G1 X129.298 Y118.297 E3.8909
G1 X128.714 Y118.195 E3.9106
G1 X128.145 Y118.068 E3.9300
G1 X127.566 Y117.908 E3.9500
G1 X126.995 Y117.719 E3.9700
G1 X126.443 Y117.506 E3.9897
G1 X125.902 Y117.266 E4.0094
G1 X125.365 Y116.995 E4.0294
G1 X124.850 Y116.703 E4.0491
G1 X124.350 Y116.386 E4.0688
G1 X123.866 Y116.045 E4.0884
G1 X123.400 Y115.681 E4.1081
G1 X122.945 Y115.288 E4.1281
G1 X122.522 Y114.886 E4.1475
G1 X122.108 Y114.450 E4.1675
G1 X121.721 Y114.002 E4.1872
G1 X121.357 Y113.535 E4.2069
G1 X121.021 Y113.058 E4.2263
G1 X120.699 Y112.551 E4.2463
G1 X120.404 Y112.028 E4.2663
G1 X120.137 Y111.499 E4.2860
G1 X119.898 Y110.958 E4.3057
G1 X119.682 Y110.397 E4.3256
G1 X119.496 Y109.835 E4.3453
G1 X119.338 Y109.260 E4.3652
G1 X119.210 Y108.691 E4.3845
G1 X119.108 Y108.105 E4.4044
G1 X119.035 Y107.513 E4.4242
G1 X118.991 Y106.919 E4.4440
G1 X118.977 Y106.323 E4.4638
G1 X118.992 Y105.727 E4.4836
G1 X119.035 Y105.147 E4.5030
G1 X119.108 Y104.556 E4.5228
G1 X119.209 Y103.969 E4.5426
G1 X119.340 Y103.387 E4.5625
G1 X119.499 Y102.812 E4.5823
G1 X119.687 Y102.246 E4.6021
G1 X119.895 Y101.706 E4.6214
G1 X120.137 Y101.160 E4.6412
G1 X120.404 Y100.628 E4.6610
G1 X120.698 Y100.109 E4.6809
G1 X121.017 Y99.605 E4.7007
G1 X121.361 Y99.117 E4.7206
G1 X121.716 Y98.662 E4.7398
G1 X122.105 Y98.210 E4.7596
G1 X122.524 Y97.770 E4.7798
G1 X122.957 Y97.359 E4.7997
G1 X123.409 Y96.969 E4.8195
G1 X123.862 Y96.616 E4.8386
G1 X124.360 Y96.265 E4.8589
G1 X124.865 Y95.945 E4.8788
G1 X125.374 Y95.657 E4.8982
G1 X125.908 Y95.389 E4.9181
G1 X126.454 Y95.147 E4.9380
G1 X127.013 Y94.932 E4.9579
G1 X127.555 Y94.753 E4.9769
G1 X128.144 Y94.590 E4.9972
G1 X128.727 Y94.460 E5.0171
G1 X129.317 Y94.358 E5.0370
G1 X129.896 Y94.287 E5.0564
G1 X130.492 Y94.243 E5.0763
G1 X131.090 Y94.230 E5.0962
G1 X131.660 Y94.243 E5.1151
G1 X132.270 Y94.288 E5.1355
G1 X132.863 Y94.362 E5.1553
G1 X133.452 Y94.465 E5.1752
G1 X134.022 Y94.593 E5.1946
G1 X134.597 Y94.753 E5.2145
G1 X135.165 Y94.941 E5.2344
G1 X135.698 Y95.147 E5.2534
G1 X136.256 Y95.394 E5.2737
G1 X136.789 Y95.663 E5.2936
G1 X137.288 Y95.945 E5.3126
G1 X137.803 Y96.271 E5.3329
G1 X138.291 Y96.615 E5.3528
G1 X138.744 Y96.969 E5.3719
G1 X139.196 Y97.358 E5.3917
G1 X139.637 Y97.778 E5.4119
G1 X140.047 Y98.210 E5.4318
G1 X140.437 Y98.662 E5.4516
G1 X140.792 Y99.117 E5.4708
G1 X141.135 Y99.604 E5.4907
G1 X141.455 Y100.109 E5.5105
G1 X141.749 Y100.628 E5.5303
G1 X142.016 Y101.160 E5.5502
G1 X142.258 Y101.705 E5.5700
G1 X142.472 Y102.262 E5.5898
G1 X142.654 Y102.812 E5.6091
G1 X142.813 Y103.387 E5.6289
G1 X142.943 Y103.969 E5.6488
G1 X143.045 Y104.556 E5.6686
G1 X143.118 Y105.147 E5.6884
G1 X143.161 Y105.741 E5.7082
G1 X143.176 Y106.337 E5.7280
G1 X143.161 Y106.919 E5.7474
G1 X143.118 Y107.513 E5.7672
G1 X143.045 Y108.105 E5.7870
G1 X142.943 Y108.691 E5.8068
G1 X142.812 Y109.272 E5.8267
G1 X142.654 Y109.843 E5.8464
G1 X142.471 Y110.397 E5.8657
G1 X142.252 Y110.966 E5.8860
G1 X142.012 Y111.507 E5.9057
G1 X141.745 Y112.036 E5.9254
G1 X141.454 Y112.551 E5.9451
G1 X141.132 Y113.058 E5.9651
G1 X140.796 Y113.535 E5.9845
G1 X140.426 Y114.009 E6.0045
G1 X140.039 Y114.457 E6.0242
G1 X139.631 Y114.886 E6.0439
G1 X139.195 Y115.300 E6.0639
G1 X138.746 Y115.686 E6.0836
G1 X138.527 Y115.858 E6.0928
;segType:Infill
G0 X136.640 Y116.664 F7200
G1 X120.740 Y100.765 E6.9902 F4500
G0 X119.552 Y104.102 F7200
G1 X133.303 Y117.853 E7.7664 F4500
G0 X128.761 Y117.837 F7200
G1 X119.569 Y108.645 E8.2852 F4500
G0 X125.198 Y96.172 F7200
G1 X141.234 Y112.208 E9.1904 F4500
G0 X142.689 Y104.612 F7200
G1 X132.794 Y94.717 E9.7489 F4500
G0 X128.444 Y94.892 F7200
G1 X142.513 Y108.961 E10.5430 F4500
; ------------------------------------
; Layer #5
; ------------------------------------
G92 E0 ;reset extr
;segType:Loop
G0 F3000 E-1.0000
G0 F1200 Z2.600
G0 X138.385 Y115.968 F7200
G0 F3000 E0.0000
G1 X138.287 Y116.044 E0.0041 F3600
G1 X137.794 Y116.391 E0.0242
G1 X137.295 Y116.708 E0.0438
G1 X136.789 Y116.994 E0.0632
G1 X136.251 Y117.266 E0.0832
G1 X135.701 Y117.510 E0.1032
G1 X135.148 Y117.722 E0.1229
G1 X134.587 Y117.908 E0.1426
G1 X134.006 Y118.068 E0.1626
G1 X133.428 Y118.197 E0.1823
G1 X132.845 Y118.298 E0.2020
G1 X132.258 Y118.370 E0.2217
G1 X131.668 Y118.414 E0.2413
G1 X131.066 Y118.428 E0.2614
G1 X130.474 Y118.413 E0.2811
G1 X129.884 Y118.369 E0.3008
G1 X129.297 Y118.296 E0.3204
G1 X128.714 Y118.195 E0.3401
G1 X128.148 Y118.068 E0.3594
G1 X127.556 Y117.904 E0.3798
G1 X126.994 Y117.719 E0.3995
G1 X126.442 Y117.505 E0.4192
G1 X125.902 Y117.266 E0.4389
G1 X125.363 Y116.994 E0.4589
G1 X124.858 Y116.708 E0.4782
G1 X124.349 Y116.385 E0.4983
G1 X123.866 Y116.045 E0.5179
G1 X123.400 Y115.681 E0.5376
G1 X122.943 Y115.286 E0.5577
G1 X122.515 Y114.878 E0.5773
G1 X122.107 Y114.450 E0.5970
G1 X121.721 Y114.001 E0.6167
G1 X121.357 Y113.535 E0.6364
G1 X121.011 Y113.042 E0.6564
G1 X120.694 Y112.542 E0.6761
G1 X120.403 Y112.027 E0.6958
G1 X120.137 Y111.498 E0.7155
G1 X119.897 Y110.957 E0.7351
G1 X119.685 Y110.406 E0.7548
G1 X119.496 Y109.833 E0.7749
G1 X119.341 Y109.273 E0.7942
G1 X119.210 Y108.692 E0.8140
G1 X119.108 Y108.104 E0.8338
G1 X119.035 Y107.513 E0.8537
G1 X118.991 Y106.918 E0.8735
G1 X118.977 Y106.322 E0.8933
G1 X118.992 Y105.725 E0.9132
G1 X119.035 Y105.148 E0.9324
G1 X119.108 Y104.557 E0.9522
G1 X119.210 Y103.969 E0.9721
G1 X119.340 Y103.387 E0.9919
G1 X119.499 Y102.811 E1.0118
G1 X119.687 Y102.245 E1.0317
G1 X119.895 Y101.707 E1.0508
G1 X120.136 Y101.161 E1.0707
G1 X120.404 Y100.628 E1.0905
G1 X120.698 Y100.109 E1.1104
G1 X121.018 Y99.604 E1.1302
G1 X121.362 Y99.116 E1.1501
G1 X121.730 Y98.645 E1.1700
G1 X122.104 Y98.212 E1.1890
G1 X122.525 Y97.769 E1.2093
G1 X122.958 Y97.358 E1.2292
G1 X123.411 Y96.967 E1.2491
G1 X123.884 Y96.600 E1.2690
G1 X124.349 Y96.272 E1.2879
G1 X124.867 Y95.944 E1.3083
G1 X125.388 Y95.650 E1.3282
G1 X125.909 Y95.388 E1.3476
G1 X126.456 Y95.146 E1.3675
G1 X127.015 Y94.932 E1.3874
G1 X127.584 Y94.745 E1.4073
G1 X128.145 Y94.590 E1.4267
G1 X128.729 Y94.459 E1.4466
G1 X129.320 Y94.358 E1.4665
G1 X129.897 Y94.287 E1.4859
G1 X130.494 Y94.243 E1.5058
G1 X131.093 Y94.230 E1.5257
G1 X131.692 Y94.245 E1.5456
G1 X132.272 Y94.288 E1.5650
G1 X132.866 Y94.362 E1.5849
G1 X133.455 Y94.466 E1.6048
G1 X134.023 Y94.593 E1.6242
G1 X134.600 Y94.754 E1.6441
G1 X135.168 Y94.942 E1.6640
G1 X135.696 Y95.146 E1.6828
G1 X136.258 Y95.395 E1.7032
G1 X136.791 Y95.664 E1.7231
G1 X137.311 Y95.960 E1.7430
G1 X137.804 Y96.272 E1.7624
G1 X138.281 Y96.608 E1.7818
G1 X138.763 Y96.985 E1.8022
G1 X139.195 Y97.357 E1.8211
G1 X139.638 Y97.779 E1.8415
G1 X140.041 Y98.202 E1.8609
G1 X140.423 Y98.645 E1.8804
G1 X140.791 Y99.116 E1.9002
G1 X141.135 Y99.604 E1.9201
G1 X141.455 Y100.109 E1.9400
G1 X141.749 Y100.628 E1.9598
G1 X142.017 Y101.161 E1.9797
G1 X142.258 Y101.707 E1.9995
G1 X142.466 Y102.245 E2.0187
G1 X142.653 Y102.812 E2.0386
G1 X142.813 Y103.386 E2.0584
G1 X142.943 Y103.969 E2.0782
G1 X143.045 Y104.557 E2.0981
G1 X143.118 Y105.148 E2.1179
G1 X143.162 Y105.743 E2.1377
G1 X143.176 Y106.339 E2.1576
G1 X143.161 Y106.918 E2.1768
G1 X143.118 Y107.513 E2.1967
G1 X143.045 Y108.104 E2.2165
G1 X142.943 Y108.692 E2.2363
G1 X142.812 Y109.273 E2.2562
G1 X142.654 Y109.843 E2.2758
G1 X142.472 Y110.395 E2.2951
G1 X142.255 Y110.958 E2.3152
G1 X142.016 Y111.498 E2.3349
G1 X141.745 Y112.037 E2.3549
G1 X141.453 Y112.551 E2.3746
G1 X141.143 Y113.042 E2.3939
G1 X140.789 Y113.544 E2.4143
G1 X140.425 Y114.010 E2.4340
G1 X140.038 Y114.458 E2.4537
G1 X139.630 Y114.886 E2.4733
G1 X139.210 Y115.286 E2.4927
G1 X138.745 Y115.688 E2.5131
G1 X138.543 Y115.845 E2.5216
;segType:Perimeter
G0 X139.850 Y114.939 F7200
G1 X139.433 Y115.622 E2.5482 F2160
G1 X138.999 Y115.997 E2.5673
G1 X138.526 Y116.366 E2.5873
G1 X138.017 Y116.724 E2.6080
G1 X137.500 Y117.051 E2.6283
G1 X136.978 Y117.347 E2.6482
G1 X136.423 Y117.627 E2.6689
G1 X135.854 Y117.879 E2.6896
G1 X135.283 Y118.099 E2.7100
G1 X134.703 Y118.291 E2.7303
G1 X134.103 Y118.456 E2.7510
G1 X133.506 Y118.590 E2.7713
G1 X132.904 Y118.694 E2.7917
G1 X132.297 Y118.768 E2.8120
G1 X131.688 Y118.813 E2.8323
G1 X131.065 Y118.828 E2.8530
G1 X130.454 Y118.813 E2.8734
G1 X129.845 Y118.767 E2.8937
G1 X129.238 Y118.692 E2.9140
G1 X128.636 Y118.588 E2.9344
G1 X128.050 Y118.456 E2.9543
G1 X127.440 Y118.287 E2.9754
G1 X126.859 Y118.095 E2.9957
G1 X126.289 Y117.875 E3.0160
G1 X125.730 Y117.627 E3.0364
G1 X125.175 Y117.347 E3.0571
G1 X124.653 Y117.051 E3.0770
G1 X124.127 Y116.718 E3.0977
G1 X123.627 Y116.366 E3.1181
G1 X123.146 Y115.990 E3.1384
G1 X122.674 Y115.583 E3.1591
G1 X122.232 Y115.161 E3.1794
G1 X121.811 Y114.718 E3.1998
G1 X121.412 Y114.255 E3.2201
G1 X121.036 Y113.773 E3.2404
G1 X120.678 Y113.264 E3.2611
G1 X120.351 Y112.747 E3.2815
G1 X120.050 Y112.216 E3.3018
G1 X119.775 Y111.669 E3.3221
G1 X119.528 Y111.110 E3.3424
G1 X119.308 Y110.540 E3.3628
G1 X119.113 Y109.949 E3.3835
G1 X118.953 Y109.371 E3.4034
G1 X118.818 Y108.770 E3.4239
G1 X118.712 Y108.163 E3.4444
G1 X118.637 Y107.552 E3.4649
G1 X118.592 Y106.938 E3.4854
G1 X118.577 Y106.322 E3.5059
G1 X118.593 Y105.705 E3.5264
G1 X118.636 Y105.109 E3.5462
G1 X118.712 Y104.498 E3.5667
G1 X118.817 Y103.891 E3.5872
G1 X118.952 Y103.289 E3.6077
G1 X119.117 Y102.695 E3.6282
G1 X119.311 Y102.110 E3.6488
G1 X119.525 Y101.554 E3.6686
G1 X119.774 Y100.991 E3.6891
G1 X120.051 Y100.440 E3.7096
G1 X120.355 Y99.903 E3.7301
G1 X120.685 Y99.382 E3.7506
G1 X121.041 Y98.877 E3.7711
G1 X121.421 Y98.391 E3.7917
G1 X121.807 Y97.943 E3.8113
G1 X122.242 Y97.486 E3.8323
G1 X122.689 Y97.061 E3.8528
G1 X123.158 Y96.658 E3.8734
G1 X123.646 Y96.278 E3.8939
G1 X124.126 Y95.939 E3.9135
G1 X124.661 Y95.601 E3.9346
G1 X125.200 Y95.297 E3.9551
G1 X125.738 Y95.027 E3.9752
G1 X126.303 Y94.776 E3.9957
G1 X126.881 Y94.555 E4.0163
G1 X127.468 Y94.362 E4.0369
G1 X128.048 Y94.201 E4.0569
G1 X128.652 Y94.067 E4.0775
G1 X129.261 Y93.962 E4.0980
G1 X129.858 Y93.889 E4.1180
G1 X130.475 Y93.844 E4.1386
G1 X131.094 Y93.829 E4.1592
G1 X131.712 Y93.846 E4.1797
G1 X132.311 Y93.890 E4.1997
G1 X132.925 Y93.967 E4.2203
G1 X133.534 Y94.073 E4.2409
G1 X134.121 Y94.205 E4.2609
G1 X134.716 Y94.371 E4.2814
G1 X135.303 Y94.565 E4.3020
G1 X135.849 Y94.776 E4.3215
G1 X136.429 Y95.033 E4.3425
G1 X136.980 Y95.312 E4.3631
G1 X137.517 Y95.617 E4.3836
G1 X138.027 Y95.939 E4.4037
G1 X138.519 Y96.287 E4.4237
G1 X139.017 Y96.676 E4.4447
G1 X139.463 Y97.061 E4.4644
G1 X139.920 Y97.496 E4.4853
G1 X140.337 Y97.934 E4.5054
G1 X140.732 Y98.391 E4.5255
G1 X141.112 Y98.877 E4.5461
G1 X141.468 Y99.382 E4.5666
G1 X141.798 Y99.903 E4.5871
G1 X142.102 Y100.440 E4.6076
G1 X142.379 Y100.991 E4.6281
G1 X142.628 Y101.554 E4.6486
G1 X142.842 Y102.110 E4.6684
G1 X143.036 Y102.695 E4.6890
G1 X143.201 Y103.289 E4.7095
G1 X143.336 Y103.891 E4.7300
G1 X143.441 Y104.498 E4.7505
G1 X143.516 Y105.109 E4.7709
G1 X143.561 Y105.723 E4.7914
G1 X143.576 Y106.339 E4.8119
G1 X143.561 Y106.938 E4.8318
G1 X143.516 Y107.552 E4.8523
G1 X143.441 Y108.163 E4.8728
G1 X143.335 Y108.770 E4.8933
G1 X143.200 Y109.371 E4.9138
G1 X143.037 Y109.960 E4.9341
G1 X142.849 Y110.530 E4.9540
G1 X142.625 Y111.111 E4.9748
G1 X142.378 Y111.669 E4.9951
G1 X142.098 Y112.225 E5.0158
G1 X141.796 Y112.757 E5.0361
G1 X141.475 Y113.264 E5.0561
G1 X141.110 Y113.782 E5.0771
G1 X140.734 Y114.264 E5.0975
G1 X140.335 Y114.726 E5.1178
G1 X139.913 Y115.169 E5.1381
G1 X139.522 Y115.541 E5.1561
G0 X138.802 Y115.890 F7200
;segType:Infill
G0 X133.092 Y117.890
G1 X142.638 Y108.344 E5.6949 F4500
G0 X142.558 Y103.898 F7200
G1 X128.646 Y117.811 E6.4802 F4500
G0 X125.355 Y116.575 F7200
G1 X141.323 Y100.607 E7.3815 F4500
G0 X139.377 Y98.028 F7200
G1 X122.776 Y114.629 E8.3185 F4500
G0 X120.830 Y112.050 F7200
G1 X136.798 Y96.082 E9.2198 F4500
G0 X133.507 Y94.847 F7200
G1 X119.595 Y108.759 E10.0051 F4500
G0 X119.515 Y104.313 F7200
G1 X129.061 Y94.768 E10.5439 F4500
; ------------------------------------
; Layer #6
; ------------------------------------
G92 E0 ;reset extr
;segType:Infill
G0 F3000 E-1.0000
G0 F1200 Z2.800
G0 X122.655 Y98.155 F7200
G0 F3000 E0.0000
G1 X139.251 Y114.750 E0.9367 F4500
;segType:Perimeter
G0 X139.842 Y114.947 F7200
G1 X139.425 Y115.630 E0.9633 F2160
G1 X139.008 Y115.990 E0.9816
G1 X138.516 Y116.373 E1.0024
G1 X138.016 Y116.725 E1.0227
G1 X137.500 Y117.051 E1.0430
G1 X136.957 Y117.358 E1.0638
G1 X136.411 Y117.632 E1.0841
G1 X135.852 Y117.880 E1.1044
G1 X135.282 Y118.099 E1.1247
G1 X134.702 Y118.291 E1.1450
G1 X134.101 Y118.457 E1.1658
G1 X133.505 Y118.590 E1.1861
G1 X132.916 Y118.692 E1.2060
G1 X132.296 Y118.768 E1.2268
G1 X131.687 Y118.813 E1.2471
G1 X131.063 Y118.828 E1.2678
G1 X130.466 Y118.813 E1.2877
G1 X129.844 Y118.767 E1.3085
G1 X129.237 Y118.692 E1.3288
G1 X128.636 Y118.588 E1.3491
G1 X128.027 Y118.450 E1.3698
G1 X127.451 Y118.291 E1.3897
G1 X126.858 Y118.095 E1.4105
G1 X126.289 Y117.875 E1.4308
G1 X125.730 Y117.627 E1.4511
G1 X125.173 Y117.346 E1.4719
G1 X124.642 Y117.045 E1.4922
G1 X124.126 Y116.717 E1.5125
G1 X123.627 Y116.366 E1.5328
G1 X123.145 Y115.990 E1.5531
G1 X122.673 Y115.582 E1.5739
G1 X122.231 Y115.160 E1.5942
G1 X121.810 Y114.717 E1.6145
G1 X121.411 Y114.255 E1.6348
G1 X121.036 Y113.773 E1.6552
G1 X120.677 Y113.262 E1.6759
G1 X120.350 Y112.746 E1.6962
G1 X120.049 Y112.214 E1.7166
G1 X119.775 Y111.669 E1.7369
G1 X119.528 Y111.110 E1.7572
G1 X119.304 Y110.528 E1.7779
G1 X119.112 Y109.948 E1.7983
G1 X118.953 Y109.372 E1.8181
G1 X118.818 Y108.771 E1.8386
G1 X118.712 Y108.163 E1.8591
G1 X118.637 Y107.552 E1.8796
G1 X118.592 Y106.937 E1.9001
G1 X118.577 Y106.320 E1.9206
G1 X118.592 Y105.725 E1.9404
G1 X118.636 Y105.110 E1.9609
G1 X118.712 Y104.498 E1.9814
G1 X118.817 Y103.891 E2.0020
G1 X118.952 Y103.289 E2.0225
G1 X119.117 Y102.694 E2.0430
G1 X119.311 Y102.108 E2.0635
G1 X119.524 Y101.556 E2.0832
G1 X119.774 Y100.992 E2.1037
G1 X120.051 Y100.440 E2.1243
G1 X120.355 Y99.903 E2.1448
G1 X120.685 Y99.382 E2.1653
G1 X121.042 Y98.876 E2.1859
G1 X121.422 Y98.390 E2.2064
G1 X121.827 Y97.922 E2.2270
G1 X122.242 Y97.486 E2.2470
G1 X122.691 Y97.060 E2.2676
G1 X123.160 Y96.656 E2.2882
G1 X123.648 Y96.276 E2.3088
G1 X124.140 Y95.930 E2.3288
G1 X124.663 Y95.600 E2.3494
G1 X125.203 Y95.295 E2.3700
G1 X125.739 Y95.026 E2.3899
G1 X126.288 Y94.783 E2.4099
G1 X126.883 Y94.554 E2.4311
G1 X127.472 Y94.361 E2.4517
G1 X128.031 Y94.206 E2.4710
G1 X128.655 Y94.066 E2.4923
G1 X129.265 Y93.961 E2.5129
G1 X129.860 Y93.888 E2.5328
G1 X130.477 Y93.844 E2.5534
G1 X131.097 Y93.829 E2.5740
G1 X131.716 Y93.846 E2.5946
G1 X132.293 Y93.888 E2.6138
G1 X132.928 Y93.967 E2.6351
G1 X133.537 Y94.074 E2.6557
G1 X134.122 Y94.206 E2.6756
G1 X134.699 Y94.366 E2.6956
G1 X135.305 Y94.567 E2.7168
G1 X135.882 Y94.790 E2.7374
G1 X136.414 Y95.026 E2.7567
G1 X136.983 Y95.313 E2.7779
G1 X137.489 Y95.600 E2.7973
G1 X138.028 Y95.940 E2.8185
G1 X138.532 Y96.296 E2.8390
G1 X139.019 Y96.677 E2.8596
G1 X139.486 Y97.082 E2.8801
G1 X139.922 Y97.497 E2.9001
G1 X140.347 Y97.945 E2.9207
G1 X140.731 Y98.389 E2.9402
G1 X141.111 Y98.876 E2.9608
G1 X141.467 Y99.382 E2.9813
G1 X141.798 Y99.903 E3.0019
G1 X142.102 Y100.440 E3.0224
G1 X142.379 Y100.992 E3.0429
G1 X142.629 Y101.556 E3.0634
G1 X142.842 Y102.108 E3.0831
G1 X143.036 Y102.694 E3.1036
G1 X143.201 Y103.289 E3.1242
G1 X143.336 Y103.891 E3.1447
G1 X143.441 Y104.498 E3.1652
G1 X143.516 Y105.110 E3.1857
G1 X143.561 Y105.725 E3.2062
G1 X143.576 Y106.320 E3.2260
G1 X143.561 Y106.937 E3.2465
G1 X143.516 Y107.552 E3.2670
G1 X143.440 Y108.163 E3.2875
G1 X143.335 Y108.771 E3.3080
G1 X143.200 Y109.372 E3.3285
G1 X143.037 Y109.960 E3.3488
G1 X142.849 Y110.528 E3.3687
G1 X142.625 Y111.110 E3.3895
G1 X142.372 Y111.680 E3.4102
G1 X142.097 Y112.226 E3.4305
G1 X141.796 Y112.757 E3.4508
G1 X141.462 Y113.284 E3.4716
G1 X141.110 Y113.783 E3.4919
G1 X140.742 Y114.255 E3.5118
G1 X140.334 Y114.727 E3.5326
G1 X139.913 Y115.169 E3.5529
G1 X139.514 Y115.549 E3.5712
G0 X138.794 Y115.897 F7200
;segType:Loop
G0 X138.376 Y115.975
G1 X138.278 Y116.052 E3.5754 F3600
G1 X137.794 Y116.392 E3.5950
G1 X137.295 Y116.708 E3.6147
G1 X136.769 Y117.005 E3.6348
G1 X136.240 Y117.271 E3.6544
G1 X135.699 Y117.510 E3.6741
G1 X135.148 Y117.722 E3.6938
G1 X134.586 Y117.908 E3.7134
G1 X134.004 Y118.068 E3.7335
G1 X133.427 Y118.198 E3.7532
G1 X132.857 Y118.296 E3.7724
G1 X132.257 Y118.370 E3.7925
G1 X131.668 Y118.414 E3.8122
G1 X131.063 Y118.428 E3.8323
G1 X130.486 Y118.414 E3.8515
G1 X129.883 Y118.369 E3.8716
G1 X129.296 Y118.296 E3.8913
G1 X128.714 Y118.195 E3.9109
G1 X128.124 Y118.062 E3.9310
G1 X127.567 Y117.908 E3.9503
G1 X126.993 Y117.718 E3.9704
G1 X126.442 Y117.505 E3.9900
G1 X125.901 Y117.265 E4.0097
G1 X125.362 Y116.993 E4.0298
G1 X124.848 Y116.702 E4.0495
G1 X124.348 Y116.385 E4.0691
G1 X123.865 Y116.044 E4.0888
G1 X123.399 Y115.680 E4.1085
G1 X122.942 Y115.285 E4.1286
G1 X122.514 Y114.877 E4.1482
G1 X122.106 Y114.449 E4.1679
G1 X121.721 Y114.001 E4.1876
G1 X121.357 Y113.535 E4.2072
G1 X121.010 Y113.040 E4.2273
G1 X120.694 Y112.541 E4.2470
G1 X120.402 Y112.026 E4.2666
G1 X120.137 Y111.498 E4.2863
G1 X119.897 Y110.957 E4.3060
G1 X119.680 Y110.393 E4.3261
G1 X119.495 Y109.832 E4.3457
G1 X119.341 Y109.274 E4.3650
G1 X119.210 Y108.692 E4.3848
G1 X119.108 Y108.105 E4.4046
G1 X119.035 Y107.512 E4.4245
G1 X118.991 Y106.918 E4.4443
G1 X118.977 Y106.320 E4.4642
G1 X118.991 Y105.745 E4.4834
G1 X119.035 Y105.149 E4.5032
G1 X119.108 Y104.557 E4.5231
G1 X119.210 Y103.969 E4.5429
G1 X119.340 Y103.386 E4.5628
G1 X119.500 Y102.810 E4.5826
G1 X119.688 Y102.243 E4.6025
G1 X119.894 Y101.709 E4.6216
G1 X120.135 Y101.163 E4.6414
G1 X120.404 Y100.629 E4.6613
G1 X120.698 Y100.109 E4.6812
G1 X121.018 Y99.604 E4.7011
G1 X121.363 Y99.115 E4.7210
G1 X121.731 Y98.644 E4.7409
G1 X122.123 Y98.191 E4.7608
G1 X122.525 Y97.769 E4.7802
G1 X122.959 Y97.357 E4.8001
G1 X123.413 Y96.966 E4.8200
G1 X123.886 Y96.598 E4.8399
G1 X124.362 Y96.263 E4.8593
G1 X124.869 Y95.943 E4.8792
G1 X125.391 Y95.649 E4.8991
G1 X125.910 Y95.388 E4.9185
G1 X126.441 Y95.153 E4.9378
G1 X127.018 Y94.931 E4.9583
G1 X127.588 Y94.744 E4.9783
G1 X128.128 Y94.594 E4.9969
G1 X128.732 Y94.459 E5.0175
G1 X129.323 Y94.357 E5.0375
G1 X129.899 Y94.287 E5.0568
G1 X130.497 Y94.243 E5.0767
G1 X131.096 Y94.230 E5.0966
G1 X131.696 Y94.246 E5.1166
G1 X132.253 Y94.287 E5.1352
G1 X132.868 Y94.363 E5.1558
G1 X133.459 Y94.466 E5.1757
G1 X134.025 Y94.594 E5.1950
G1 X134.583 Y94.749 E5.2143
G1 X135.170 Y94.943 E5.2349
G1 X135.729 Y95.160 E5.2548
G1 X136.242 Y95.388 E5.2735
G1 X136.794 Y95.666 E5.2940
G1 X137.284 Y95.943 E5.3128
G1 X137.805 Y96.273 E5.3333
G1 X138.294 Y96.618 E5.3532
G1 X138.765 Y96.986 E5.3731
G1 X139.217 Y97.378 E5.3930
G1 X139.639 Y97.780 E5.4123
G1 X140.050 Y98.213 E5.4322
G1 X140.422 Y98.643 E5.4511
G1 X140.790 Y99.115 E5.4710
G1 X141.135 Y99.604 E5.4909
G1 X141.455 Y100.109 E5.5108
G1 X141.749 Y100.629 E5.5307
G1 X142.017 Y101.163 E5.5505
G1 X142.259 Y101.709 E5.5704
G1 X142.465 Y102.243 E5.5895
G1 X142.653 Y102.811 E5.6093
G1 X142.813 Y103.386 E5.6292
G1 X142.943 Y103.969 E5.6491
G1 X143.045 Y104.557 E5.6689
G1 X143.118 Y105.149 E5.6888
G1 X143.162 Y105.745 E5.7086
G1 X143.176 Y106.320 E5.7278
G1 X143.161 Y106.917 E5.7476
G1 X143.118 Y107.513 E5.7675
G1 X143.045 Y108.105 E5.7873
G1 X142.943 Y108.693 E5.8072
G1 X142.812 Y109.274 E5.8270
G1 X142.654 Y109.844 E5.8467
G1 X142.473 Y110.393 E5.8659
G1 X142.256 Y110.957 E5.8860
G1 X142.011 Y111.509 E5.9061
G1 X141.745 Y112.037 E5.9258
G1 X141.453 Y112.551 E5.9454
G1 X141.129 Y113.062 E5.9655
G1 X140.788 Y113.545 E5.9852
G1 X140.433 Y114.001 E6.0044
G1 X140.038 Y114.458 E6.0245
G1 X139.630 Y114.886 E6.0442
G1 X139.202 Y115.294 E6.0639
G1 X138.754 Y115.680 E6.0835
G1 X138.534 Y115.852 E6.0928
;segType:Infill
G0 X136.640 Y116.664 F7200
G1 X120.740 Y100.765 E6.9902 F4500
G0 X119.552 Y104.102 F7200
G1 X133.303 Y117.853 E7.7664 F4500
G0 X128.761 Y117.837 F7200
G1 X119.569 Y108.645 E8.2852 F4500
G0 X132.794 Y94.717 F7200
G1 X142.689 Y104.612 E8.8437 F4500
G0 X142.513 Y108.961 F7200
G1 X128.444 Y94.892 E9.6379 F4500
G0 X125.198 Y96.172 F7200
G1 X141.234 Y112.208 E10.5430 F4500
; ------------------------------------
; Layer #7
; ------------------------------------
G92 E0 ;reset extr
;segType:Loop
G0 F3000 E-1.0000
G0 F1200 Z3.000
G0 X138.364 Y115.984 F7200
G0 F3000 E0.0000
G1 X138.276 Y116.053 E0.0037 F3600
G1 X137.806 Y116.384 E0.0228
G1 X137.294 Y116.708 E0.0430
G1 X136.766 Y117.006 E0.0631
G1 X136.252 Y117.265 E0.0823
G1 X135.698 Y117.511 E0.1024
G1 X135.147 Y117.723 E0.1221
G1 X134.586 Y117.908 E0.1417
G1 X134.002 Y118.069 E0.1619
G1 X133.425 Y118.198 E0.1815
G1 X132.843 Y118.298 E0.2012
G1 X132.257 Y118.370 E0.2209
G1 X131.667 Y118.414 E0.2405
G1 X131.062 Y118.428 E0.2607
G1 X130.486 Y118.414 E0.2798
G1 X129.897 Y118.370 E0.2995
G1 X129.295 Y118.296 E0.3196
G1 X128.713 Y118.195 E0.3393
G1 X128.122 Y118.062 E0.3594
G1 X127.553 Y117.904 E0.3791
G1 X126.992 Y117.718 E0.3987
G1 X126.441 Y117.505 E0.4184
G1 X125.901 Y117.265 E0.4380
G1 X125.360 Y116.992 E0.4582
G1 X124.859 Y116.709 E0.4773
G1 X124.347 Y116.384 E0.4975
G1 X123.865 Y116.044 E0.5171
G1 X123.399 Y115.680 E0.5368
G1 X122.941 Y115.284 E0.5569
G1 X122.523 Y114.887 E0.5761
G1 X122.106 Y114.448 E0.5962
G1 X121.720 Y114.000 E0.6159
G1 X121.357 Y113.535 E0.6355
G1 X121.008 Y113.039 E0.6557
G1 X120.693 Y112.539 E0.6753
G1 X120.402 Y112.025 E0.6950
G1 X120.137 Y111.497 E0.7146
G1 X119.897 Y110.957 E0.7343
G1 X119.680 Y110.391 E0.7544
G1 X119.499 Y109.845 E0.7736
G1 X119.341 Y109.275 E0.7932
G1 X119.210 Y108.693 E0.8131
G1 X119.108 Y108.105 E0.8329
G1 X119.035 Y107.512 E0.8528
G1 X118.991 Y106.917 E0.8727
G1 X118.977 Y106.319 E0.8925
G1 X118.992 Y105.722 E0.9124
G1 X119.035 Y105.151 E0.9315
G1 X119.107 Y104.558 E0.9513
G1 X119.209 Y103.969 E0.9712
G1 X119.340 Y103.386 E0.9911
G1 X119.500 Y102.810 E1.0110
G1 X119.688 Y102.242 E1.0309
G1 X119.893 Y101.711 E1.0498
G1 X120.135 Y101.164 E1.0697
G1 X120.403 Y100.629 E1.0896
G1 X120.698 Y100.109 E1.1095
G1 X121.018 Y99.603 E1.1294
G1 X121.363 Y99.114 E1.1493
G1 X121.732 Y98.642 E1.1692
G1 X122.125 Y98.189 E1.1892
G1 X122.526 Y97.768 E1.2085
G1 X122.960 Y97.355 E1.2284
G1 X123.415 Y96.964 E1.2484
G1 X123.889 Y96.596 E1.2683
G1 X124.347 Y96.273 E1.2870
G1 X124.853 Y95.953 E1.3069
G1 X125.394 Y95.647 E1.3275
G1 X125.911 Y95.387 E1.3468
G1 X126.440 Y95.153 E1.3660
G1 X127.020 Y94.930 E1.3867
G1 X127.592 Y94.742 E1.4067
G1 X128.127 Y94.594 E1.4252
G1 X128.712 Y94.463 E1.4452
G1 X129.327 Y94.357 E1.4659
G1 X129.900 Y94.287 E1.4851
G1 X130.476 Y94.244 E1.5043
G1 X131.099 Y94.230 E1.5250
G1 X131.700 Y94.246 E1.5450
G1 X132.252 Y94.287 E1.5635
G1 X132.871 Y94.363 E1.5842
G1 X133.440 Y94.462 E1.6034
G1 X134.026 Y94.594 E1.6234
G1 X134.582 Y94.748 E1.6426
G1 X135.173 Y94.944 E1.6633
G1 X135.732 Y95.161 E1.6832
G1 X136.241 Y95.387 E1.7017
G1 X136.795 Y95.667 E1.7224
G1 X137.316 Y95.963 E1.7423
G1 X137.806 Y96.273 E1.7616
G1 X138.280 Y96.607 E1.7809
G1 X138.767 Y96.988 E1.8014
G1 X139.219 Y97.380 E1.8214
G1 X139.627 Y97.768 E1.8401
G1 X140.052 Y98.215 E1.8606
G1 X140.442 Y98.668 E1.8805
G1 X140.809 Y99.140 E1.9004
G1 X141.134 Y99.603 E1.9192
G1 X141.455 Y100.109 E1.9391
G1 X141.750 Y100.630 E1.9590
G1 X142.018 Y101.164 E1.9789
G1 X142.260 Y101.710 E1.9988
G1 X142.474 Y102.268 E2.0186
G1 X142.653 Y102.810 E2.0376
G1 X142.813 Y103.386 E2.0575
G1 X142.944 Y103.969 E2.0774
G1 X143.046 Y104.558 E2.0972
G1 X143.118 Y105.150 E2.1171
G1 X143.162 Y105.746 E2.1370
G1 X143.176 Y106.319 E2.1560
G1 X143.161 Y106.917 E2.1759
G1 X143.118 Y107.512 E2.1958
G1 X143.045 Y108.105 E2.2156
G1 X142.943 Y108.693 E2.2355
G1 X142.812 Y109.275 E2.2553
G1 X142.654 Y109.844 E2.2750
G1 X142.463 Y110.419 E2.2951
G1 X142.256 Y110.957 E2.3143
G1 X142.016 Y111.497 E2.3339
G1 X141.744 Y112.038 E2.3541
G1 X141.453 Y112.552 E2.3737
G1 X141.128 Y113.064 E2.3939
G1 X140.796 Y113.534 E2.4130
G1 X140.433 Y114.000 E2.4327
G1 X140.037 Y114.459 E2.4528
G1 X139.630 Y114.886 E2.4725
G1 X139.190 Y115.304 E2.4926
G1 X138.754 Y115.680 E2.5118
G1 X138.522 Y115.861 E2.5216
;segType:Perimeter
G0 X139.831 Y114.957 F7200
G1 X139.413 Y115.640 E2.5482 F2160
G1 X139.008 Y115.989 E2.5660
G1 X138.515 Y116.374 E2.5868
G1 X138.028 Y116.717 E2.6066
G1 X137.500 Y117.052 E2.6274
G1 X136.955 Y117.359 E2.6482
G1 X136.423 Y117.627 E2.6680
G1 X135.851 Y117.880 E2.6888
G1 X135.281 Y118.100 E2.7091
G1 X134.702 Y118.291 E2.7294
G1 X134.099 Y118.457 E2.7503
G1 X133.503 Y118.590 E2.7706
G1 X132.901 Y118.694 E2.7909
G1 X132.296 Y118.769 E2.8112
G1 X131.687 Y118.813 E2.8315
G1 X131.061 Y118.828 E2.8523
G1 X130.466 Y118.813 E2.8721
G1 X129.857 Y118.769 E2.8924
G1 X129.236 Y118.692 E2.9132
G1 X128.635 Y118.587 E2.9335
G1 X128.025 Y118.450 E2.9543
G1 X127.437 Y118.286 E2.9746
G1 X126.857 Y118.095 E2.9949
G1 X126.288 Y117.874 E3.0152
G1 X125.730 Y117.627 E3.0355
G1 X125.171 Y117.345 E3.0563
G1 X124.653 Y117.052 E3.0761
G1 X124.125 Y116.717 E3.0969
G1 X123.626 Y116.365 E3.1172
G1 X123.145 Y115.989 E3.1375
G1 X122.672 Y115.580 E3.1583
G1 X122.240 Y115.170 E3.1781
G1 X121.809 Y114.716 E3.1989
G1 X121.411 Y114.254 E3.2193
G1 X121.035 Y113.773 E3.2395
G1 X120.676 Y113.261 E3.2604
G1 X120.349 Y112.745 E3.2807
G1 X120.049 Y112.213 E3.3010
G1 X119.775 Y111.668 E3.3213
G1 X119.527 Y111.110 E3.3416
G1 X119.303 Y110.526 E3.3624
G1 X119.116 Y109.961 E3.3822
G1 X118.953 Y109.373 E3.4025
G1 X118.818 Y108.771 E3.4230
G1 X118.712 Y108.163 E3.4435
G1 X118.637 Y107.551 E3.4640
G1 X118.592 Y106.936 E3.4845
G1 X118.577 Y106.319 E3.5051
G1 X118.593 Y105.702 E3.5256
G1 X118.636 Y105.111 E3.5453
G1 X118.711 Y104.499 E3.5658
G1 X118.817 Y103.891 E3.5863
G1 X118.952 Y103.289 E3.6069
G1 X119.117 Y102.693 E3.6274
G1 X119.312 Y102.107 E3.6480
G1 X119.523 Y101.558 E3.6675
G1 X119.773 Y100.993 E3.6881
G1 X120.050 Y100.441 E3.7086
G1 X120.355 Y99.903 E3.7292
G1 X120.686 Y99.381 E3.7497
G1 X121.042 Y98.876 E3.7703
G1 X121.423 Y98.388 E3.7909
G1 X121.829 Y97.920 E3.8115
G1 X122.243 Y97.485 E3.8315
G1 X122.692 Y97.059 E3.8521
G1 X123.161 Y96.655 E3.8727
G1 X123.651 Y96.274 E3.8933
G1 X124.125 Y95.941 E3.9125
G1 X124.647 Y95.609 E3.9331
G1 X125.205 Y95.294 E3.9545
G1 X125.740 Y95.026 E3.9744
G1 X126.287 Y94.783 E3.9942
G1 X126.886 Y94.553 E4.0156
G1 X127.476 Y94.359 E4.0362
G1 X128.030 Y94.206 E4.0554
G1 X128.634 Y94.070 E4.0760
G1 X129.269 Y93.961 E4.0974
G1 X129.861 Y93.888 E4.1172
G1 X130.456 Y93.845 E4.1371
G1 X131.100 Y93.829 E4.1585
G1 X131.720 Y93.846 E4.1791
G1 X132.292 Y93.888 E4.1982
G1 X132.930 Y93.968 E4.2196
G1 X133.518 Y94.070 E4.2394
G1 X134.123 Y94.206 E4.2601
G1 X134.699 Y94.366 E4.2799
G1 X135.308 Y94.568 E4.3013
G1 X135.886 Y94.792 E4.3219
G1 X136.412 Y95.025 E4.3411
G1 X136.984 Y95.314 E4.3624
G1 X137.523 Y95.620 E4.3830
G1 X138.028 Y95.941 E4.4029
G1 X138.518 Y96.286 E4.4228
G1 X139.021 Y96.679 E4.4440
G1 X139.488 Y97.084 E4.4646
G1 X139.910 Y97.485 E4.4839
G1 X140.348 Y97.946 E4.5051
G1 X140.751 Y98.415 E4.5257
G1 X141.130 Y98.902 E4.5462
G1 X141.467 Y99.381 E4.5657
G1 X141.798 Y99.903 E4.5862
G1 X142.103 Y100.441 E4.6068
G1 X142.380 Y100.993 E4.6273
G1 X142.629 Y101.557 E4.6479
G1 X142.851 Y102.134 E4.6684
G1 X143.036 Y102.693 E4.6880
G1 X143.201 Y103.289 E4.7085
G1 X143.336 Y103.891 E4.7291
G1 X143.441 Y104.499 E4.7496
G1 X143.516 Y105.111 E4.7701
G1 X143.561 Y105.727 E4.7906
G1 X143.576 Y106.319 E4.8103
G1 X143.561 Y106.936 E4.8309
G1 X143.516 Y107.551 E4.8514
G1 X143.440 Y108.164 E4.8719
G1 X143.335 Y108.771 E4.8924
G1 X143.200 Y109.373 E4.9129
G1 X143.037 Y109.961 E4.9332
G1 X142.840 Y110.554 E4.9540
G1 X142.626 Y111.110 E4.9738
G1 X142.378 Y111.668 E4.9941
G1 X142.097 Y112.227 E5.0149
G1 X141.796 Y112.758 E5.0352
G1 X141.460 Y113.286 E5.0561
G1 X141.118 Y113.773 E5.0759
G1 X140.742 Y114.254 E5.0962
G1 X140.334 Y114.728 E5.1170
G1 X139.913 Y115.170 E5.1373
G1 X139.502 Y115.559 E5.1561
G0 X138.782 Y115.907 F7200
;segType:Infill
G0 X142.638 Y108.344
G1 X133.092 Y117.890 E5.6949 F4500
G0 X128.646 Y117.811 F7200
G1 X142.558 Y103.898 E6.4802 F4500
G0 X141.323 Y100.607 F7200
G1 X125.355 Y116.575 E7.3815 F4500
G0 X122.776 Y114.629 F7200
G1 X139.377 Y98.028 E8.3185 F4500
G0 X136.798 Y96.082 F7200
G1 X120.830 Y112.050 E9.2198 F4500
G0 X119.595 Y108.759 F7200
G1 X133.507 Y94.847 E10.0051 F4500
G0 X129.061 Y94.768 F7200
G1 X119.515 Y104.313 E10.5439 F4500
; ------------------------------------
; Layer #8
; ------------------------------------
G92 E0 ;reset extr
;segType:Infill
G0 F3000 E-1.0000
G0 F1200 Z3.200
G0 X122.655 Y98.155 F7200
G0 F3000 E0.0000
G1 X139.251 Y114.750 E0.9367 F4500
;segType:Perimeter
G0 X139.830 Y114.959 F7200
G1 X139.412 Y115.641 E0.9633 F2160
G1 X139.008 Y115.989 E0.9810
G1 X138.528 Y116.365 E1.0013
G1 X138.029 Y116.716 E1.0216
G1 X137.499 Y117.052 E1.0425
G1 X136.953 Y117.360 E1.0633
G1 X136.424 Y117.627 E1.0831
G1 X135.866 Y117.874 E1.1033
G1 X135.281 Y118.100 E1.1242
G1 X134.701 Y118.291 E1.1445
G1 X134.097 Y118.458 E1.1654
G1 X133.518 Y118.587 E1.1851
G1 X132.900 Y118.694 E1.2059
G1 X132.295 Y118.769 E1.2262
G1 X131.687 Y118.813 E1.2465
G1 X131.059 Y118.828 E1.2674
G1 X130.467 Y118.813 E1.2871
G1 X129.841 Y118.767 E1.3080
G1 X129.236 Y118.692 E1.3282
G1 X128.635 Y118.587 E1.3485
G1 X128.023 Y118.449 E1.3694
G1 X127.452 Y118.291 E1.3891
G1 X126.872 Y118.100 E1.4094
G1 X126.287 Y117.874 E1.4303
G1 X125.729 Y117.627 E1.4506
G1 X125.169 Y117.344 E1.4714
G1 X124.654 Y117.052 E1.4911
G1 X124.124 Y116.716 E1.5120
G1 X123.625 Y116.365 E1.5323
G1 X123.145 Y115.989 E1.5526
G1 X122.670 Y115.579 E1.5734
G1 X122.241 Y115.170 E1.5932
G1 X121.808 Y114.716 E1.6140
G1 X121.410 Y114.254 E1.6343
G1 X121.035 Y113.772 E1.6546
G1 X120.684 Y113.274 E1.6749
G1 X120.358 Y112.758 E1.6952
G1 X120.048 Y112.212 E1.7160
G1 X119.775 Y111.667 E1.7363
G1 X119.527 Y111.110 E1.7566
G1 X119.308 Y110.540 E1.7769
G1 X119.116 Y109.961 E1.7972
G1 X118.953 Y109.373 E1.8175
G1 X118.818 Y108.772 E1.8380
G1 X118.712 Y108.164 E1.8585
G1 X118.637 Y107.551 E1.8791
G1 X118.592 Y106.935 E1.8996
G1 X118.577 Y106.318 E1.9201
G1 X118.593 Y105.700 E1.9407
G1 X118.636 Y105.112 E1.9603
G1 X118.711 Y104.500 E1.9808
G1 X118.817 Y103.891 E2.0014
G1 X118.952 Y103.288 E2.0219
G1 X119.118 Y102.693 E2.0425
G1 X119.312 Y102.105 E2.0630
G1 X119.536 Y101.528 E2.0836
G1 X119.773 Y100.994 E2.1031
G1 X120.050 Y100.442 E2.1236
G1 X120.355 Y99.903 E2.1442
G1 X120.686 Y99.381 E2.1648
G1 X121.043 Y98.875 E2.1854
G1 X121.425 Y98.387 E2.2060
G1 X121.816 Y97.933 E2.2259
G1 X122.244 Y97.484 E2.2465
G1 X122.677 Y97.072 E2.2664
G1 X123.164 Y96.653 E2.2878
G1 X123.654 Y96.272 E2.3084
G1 X124.143 Y95.929 E2.3283
G1 X124.647 Y95.610 E2.3481
G1 X125.208 Y95.293 E2.3696
G1 X125.741 Y95.025 E2.3894
G1 X126.286 Y94.783 E2.4092
G1 X126.889 Y94.552 E2.4307
G1 X127.455 Y94.365 E2.4505
G1 X128.053 Y94.200 E2.4712
G1 X128.634 Y94.070 E2.4910
G1 X129.272 Y93.960 E2.5125
G1 X129.863 Y93.888 E2.5323
G1 X130.455 Y93.845 E2.5521
G1 X131.103 Y93.829 E2.5736
G1 X131.724 Y93.846 E2.5943
G1 X132.317 Y93.891 E2.6141
G1 X132.933 Y93.968 E2.6347
G1 X133.519 Y94.070 E2.6545
G1 X134.125 Y94.207 E2.6751
G1 X134.698 Y94.365 E2.6949
G1 X135.311 Y94.569 E2.7164
G1 X135.889 Y94.793 E2.7370
G1 X136.412 Y95.025 E2.7560
G1 X136.987 Y95.315 E2.7775
G1 X137.525 Y95.622 E2.7981
G1 X138.010 Y95.929 E2.8172
G1 X138.518 Y96.285 E2.8378
G1 X139.023 Y96.681 E2.8592
G1 X139.476 Y97.072 E2.8790
G1 X139.909 Y97.484 E2.8990
G1 X140.337 Y97.933 E2.9196
G1 X140.753 Y98.417 E2.9408
G1 X141.110 Y98.874 E2.9601
G1 X141.467 Y99.381 E2.9807
G1 X141.798 Y99.903 E3.0013
G1 X142.103 Y100.442 E3.0218
G1 X142.380 Y100.994 E3.0424
G1 X142.630 Y101.559 E3.0630
G1 X142.852 Y102.136 E3.0835
G1 X143.035 Y102.692 E3.1030
G1 X143.201 Y103.288 E3.1236
G1 X143.336 Y103.891 E3.1441
G1 X143.441 Y104.499 E3.1647
G1 X143.517 Y105.112 E3.1852
G1 X143.561 Y105.728 E3.2057
G1 X143.576 Y106.318 E3.2253
G1 X143.561 Y106.935 E3.2459
G1 X143.516 Y107.551 E3.2664
G1 X143.440 Y108.164 E3.2870
G1 X143.335 Y108.771 E3.3075
G1 X143.199 Y109.373 E3.3280
G1 X143.037 Y109.961 E3.3483
G1 X142.845 Y110.540 E3.3686
G1 X142.626 Y111.110 E3.3889
G1 X142.371 Y111.683 E3.4097
G1 X142.096 Y112.228 E3.4300
G1 X141.795 Y112.758 E3.4503
G1 X141.469 Y113.274 E3.4706
G1 X141.118 Y113.772 E3.4909
G1 X140.732 Y114.267 E3.5117
G1 X140.333 Y114.728 E3.5320
G1 X139.912 Y115.170 E3.5523
G1 X139.501 Y115.561 E3.5712
G0 X138.780 Y115.909 F7200
;segType:Loop
G0 X138.362 Y115.986
G1 X138.289 Y116.043 E3.5743 F3600
