; GCode generated by CraftWare

G28 X0 Y0
G28 Z0


M104 S215 ;set head temp (no wait)
M190 S60 ;set bed temp (wait)
M109 S215 ;set head temp (wait)

; ------------------------------------
; Raft Layer #0
; ------------------------------------
M106 S0 ;turn off fan
G21 ; mm
G90 ; abs
G92 E0 ;reset extr
G0 F1200 Z0.300
;segType:Raft
G0 F3000 E-1.0000
G0 F1200 Z2.300
G0 X122.838 Y103.851 F5400
G0 F1200 Z0.300
G0 F3000 E0.0000
G1 X120.942 Y101.833 E0.1381 F600
G1 X119.535 Y99.325 E0.2816
G1 X118.618 Y96.329 E0.4379
G1 X118.435 Y94.555 E0.5269
G1 X118.435 Y92.598 E0.6246
G1 X118.557 Y90.763 E0.7163
G1 X118.863 Y89.111 E0.8001
G1 X119.291 Y87.582 E0.8793
G1 X120.698 Y85.075 E1.0228
G1 X122.471 Y82.934 E1.1614
G1 X124.490 Y81.038 E1.2996
G1 X125.651 Y80.243 E1.3698
G1 X128.282 Y78.958 E1.5159
G1 X129.810 Y78.531 E1.5951
G1 X131.462 Y78.225 E1.6789
G1 X135.376 Y78.225 E1.8742
G1 X137.089 Y78.469 E1.9605
G1 X139.964 Y79.509 E2.1130
G1 X141.248 Y80.182 E2.1853
G1 X143.450 Y81.894 E2.3245
G1 X145.346 Y83.913 E2.4626
G1 X146.202 Y85.014 E2.5322
G1 X147.608 Y87.521 E2.6757
G1 X148.404 Y90.640 E2.8363
G1 X148.526 Y92.475 E2.9280
G1 X148.526 Y94.432 E3.0256
G1 X148.404 Y96.267 E3.1174
G1 X147.486 Y99.264 E3.2738
G1 X146.080 Y101.772 E3.4172
G1 X144.183 Y103.790 E3.5554
G1 X142.165 Y105.686 E3.6935
G1 X141.003 Y106.481 E3.7638
G1 X139.719 Y107.154 E3.8361
G1 X138.312 Y107.704 E3.9115
G1 X136.722 Y108.071 E3.9929
G1 X135.009 Y108.316 E4.0792
G1 X133.052 Y108.316 E4.1768
G1 X131.217 Y108.194 E4.2686
G1 X129.505 Y107.949 E4.3549
G1 X127.303 Y107.215 E4.4707
G1 X124.857 Y105.747 E4.6130
G1 X122.838 Y103.851 E4.7512
G0 X125.358 Y104.952 F5400
G1 X125.358 Y81.711 E5.9107 F600
G0 F3000 E4.9107
G0 X129.358 Y79.631 F5400
G0 F3000 E5.9107
G1 X129.358 Y106.909 E7.2716 F600
G0 F3000 E6.2716
G0 X133.358 Y107.521 F5400
G0 F3000 E7.2716
G1 X133.358 Y79.142 E8.6874 F600
G0 F3000 E7.6874
G0 X137.358 Y79.631 F5400
G0 F3000 E8.6874
G1 X137.358 Y107.031 E10.0544 F600
G0 F3000 E9.0544
G0 X141.358 Y105.074 F5400
G0 F3000 E10.0544
G1 X141.358 Y81.466 E11.2322 F600
G0 F3000 E10.2322
G0 X145.358 Y85.625 F5400
G0 F3000 E11.2322
G1 X145.358 Y101.038 E12.0011 F600
G0 F3000 E11.0011
G0 X121.358 Y100.671 F5400
G0 F3000 E12.0011
G1 X121.358 Y85.992 E12.7334 F600



; ------------------------------------
; Raft Layer #1
; ------------------------------------
M106 S0 ;turn off fan
G92 E0 ;reset extr
G0 F1200 Z0.600
;segType:Raft
G0 X120.453 Y85.393 F7200
G1 X146.385 Y85.393 E1.2938 F2400
G0 X147.119 Y86.726 F7200
G1 X119.719 Y86.726 E2.6608 F2400
G0 X119.108 Y88.059 F7200
G1 X147.731 Y88.059 E4.0888 F2400
G0 X148.098 Y89.393 F7200
G1 X118.741 Y89.393 E5.5534 F2400
G0 X118.496 Y90.726 F7200
G1 X148.342 Y90.726 E7.0424 F2400
G0 X148.465 Y92.059 F7200
G1 X118.374 Y92.059 E8.5437 F2400
G1 X118.374 Y93.393 E8.6102
G1 X148.465 Y93.393 E10.1115
G1 X148.465 Y94.726 E10.1780
G1 X118.374 Y94.726 E11.6792
G0 X118.496 Y96.059 F7200
G1 X148.342 Y96.059 E13.1683 F2400
G0 X148.098 Y97.393 F7200
G1 X118.741 Y97.393 E14.6329 F2400
G0 X119.230 Y98.726 F7200
G1 X147.608 Y98.726 E16.0487 F2400
G0 X146.997 Y100.059 F7200
G1 X119.841 Y100.059 E17.4035 F2400
G0 X120.575 Y101.393 F7200
G1 X146.263 Y101.393 E18.6851 F2400
G0 X145.162 Y102.726 F7200
G1 X121.676 Y102.726 E19.8568 F2400
G0 X123.022 Y104.059 F7200
G1 X143.816 Y104.059 E20.8942 F2400
G0 X142.349 Y105.393 F7200
G1 X124.490 Y105.393 E21.7852 F2400
G0 X126.447 Y106.726 F7200
G1 X140.391 Y106.726 E22.4809 F2400
G0 F3000 E21.4809
G0 X136.966 Y108.059 F7200
G0 F3000 E22.4809
G1 X129.872 Y108.059 E22.8349 F2400
G0 F3000 E21.8349
G0 X121.432 Y84.059 F7200
G0 F3000 E22.8349
G1 X145.407 Y84.059 E24.0310 F2400
G0 X144.183 Y82.726 F7200
G1 X122.655 Y82.726 E25.1050 F2400
G0 X124.123 Y81.393 F7200
G1 X142.716 Y81.393 E26.0327 F2400
G0 X140.881 Y80.059 F7200
G1 X125.958 Y80.059 E26.7772 F2400
G0 F3000 E25.7772
G0 X128.771 Y78.726 F7200
G0 F3000 E26.7772
G1 X138.067 Y78.726 E27.2410 F2400



; ------------------------------------
; Raft Layer #2
; ------------------------------------
M106 S0 ;turn off fan
G92 E0 ;reset extr
G0 F1200 Z0.900
;segType:Raft
G0 F3000 E-1.0000
G0 F1200 Z2.900
G0 X148.158 Y89.173 F7200
G0 F1200 Z0.900
G0 F3000 E0.0000
G1 X148.158 Y97.490 E0.4150 F2400
G0 X147.758 Y98.714 F7200
G1 X147.758 Y87.949 E0.9520 F2400
G1 X147.358 Y87.093 E0.9992
G1 X147.358 Y99.570 E1.6216
G1 X146.958 Y100.304 E1.6633
G1 X146.958 Y86.359 E2.3590
G1 X146.558 Y85.503 E2.4062
G1 X146.558 Y101.160 E3.1873
G1 X146.158 Y101.649 E3.2189
G1 X146.158 Y85.014 E4.0488
G1 X145.758 Y84.524 E4.0803
G1 X145.758 Y102.139 E4.9591
G1 X145.358 Y102.628 E4.9907
G1 X145.358 Y84.035 E5.9183
G1 X144.958 Y83.423 E5.9547
G1 X144.958 Y103.117 E6.9372
G1 X144.558 Y103.484 E6.9643
G1 X144.558 Y83.056 E7.9835
G1 X144.158 Y82.689 E8.0105
G1 X144.158 Y103.851 E9.0663
G1 X143.758 Y104.218 E9.0934
G1 X143.758 Y82.323 E10.1858
G1 X143.358 Y81.833 E10.2173
G1 X143.358 Y104.707 E11.3585
G1 X142.958 Y105.074 E11.3856
G1 X142.958 Y81.589 E12.5573
G1 X142.558 Y81.222 E12.5843
G1 X142.558 Y105.441 E13.7927
G1 X142.158 Y105.808 E13.8198
G1 X142.158 Y80.855 E15.0647
G1 X141.758 Y80.610 E15.0881
G1 X141.758 Y106.053 E16.3574
G1 X141.358 Y106.298 E16.3808
G1 X141.358 Y80.365 E17.6746
G1 X140.958 Y80.121 E17.6980
G1 X140.958 Y106.542 E19.0162
G1 X140.558 Y106.787 E19.0395
G1 X140.558 Y79.876 E20.3821
G1 X140.158 Y79.631 E20.4055
G1 X140.158 Y107.031 E21.7725
G1 X139.758 Y107.154 E21.7934
G1 X139.758 Y79.509 E23.1726
G1 X139.358 Y79.264 E23.1960
G1 X139.358 Y107.398 E24.5996
G1 X138.958 Y107.521 E24.6204
G1 X138.958 Y79.142 E26.0363
G1 X138.558 Y79.020 E26.0571
G1 X138.558 Y107.643 E27.4851
G1 X138.158 Y107.765 E27.5060
G1 X138.158 Y78.898 E28.9462
G1 X137.758 Y78.653 E28.9696
G1 X137.758 Y107.888 E30.4282
G1 X137.358 Y108.010 E30.4490
G1 X137.358 Y78.653 E31.9137
G1 X136.958 Y78.531 E31.9345
G1 X136.958 Y108.132 E33.4114
G1 X136.558 Y108.132 E33.4313
G1 X136.558 Y78.531 E34.9082
G1 X136.158 Y78.408 E34.9290
G1 X136.158 Y108.255 E36.4181
G1 X135.758 Y108.255 E36.4380
G1 X135.758 Y78.408 E37.9271
G1 X135.358 Y78.286 E37.9479
G1 X135.358 Y108.255 E39.4431
G1 X134.958 Y108.377 E39.4640
G1 X134.958 Y78.286 E40.9652
G1 X134.558 Y78.286 E40.9852
G1 X134.558 Y108.377 E42.4864
G1 X134.158 Y108.377 E42.5064
G1 X134.158 Y78.286 E44.0076
G1 X133.758 Y78.286 E44.0276
G1 X133.758 Y108.377 E45.5288
G1 X133.358 Y108.377 E45.5488
G1 X133.358 Y78.286 E47.0500
G1 X132.958 Y78.286 E47.0700
G1 X132.958 Y108.377 E48.5712
G1 X132.558 Y108.377 E48.5912
G1 X132.558 Y78.286 E50.0924
G1 X132.158 Y78.286 E50.1124
G1 X132.158 Y108.377 E51.6136
G1 X131.758 Y108.377 E51.6336
G1 X131.758 Y78.286 E53.1349
G1 X131.358 Y78.286 E53.1548
G1 X131.358 Y108.255 E54.6500
G1 X130.958 Y108.255 E54.6699
G1 X130.958 Y78.408 E56.1590
G1 X130.558 Y78.408 E56.1789
G1 X130.558 Y108.255 E57.6680
G1 X130.158 Y108.132 E57.6888
G1 X130.158 Y78.531 E59.1657
G1 X129.758 Y78.653 E59.1865
G1 X129.758 Y108.010 E60.6512
G1 X129.358 Y108.010 E60.6711
G1 X129.358 Y78.653 E62.1358
G1 X128.958 Y78.775 E62.1566
G1 X128.958 Y107.888 E63.6091
G1 X128.558 Y107.643 E63.6324
G1 X128.558 Y78.898 E65.0666
G1 X128.158 Y79.020 E65.0874
G1 X128.158 Y107.521 E66.5093
G1 X127.758 Y107.398 E66.5302
G1 X127.758 Y79.142 E67.9399
G1 X127.358 Y79.387 E67.9633
G1 X127.358 Y107.276 E69.3547
G1 X126.958 Y107.031 E69.3781
G1 X126.958 Y79.631 E70.7451
G1 X126.558 Y79.754 E70.7660
G1 X126.558 Y106.909 E72.1208
G1 X126.158 Y106.664 E72.1441
G1 X126.158 Y79.998 E73.4745
G1 X125.758 Y80.243 E73.4979
G1 X125.758 Y106.420 E74.8039
G1 X125.358 Y106.175 E74.8273
G1 X125.358 Y80.488 E76.1088
G1 X124.958 Y80.732 E76.1322
G1 X124.958 Y105.931 E77.3894
G1 X124.558 Y105.564 E77.4164
G1 X124.558 Y81.099 E78.6370
G1 X124.158 Y81.466 E78.6641
G1 X124.158 Y105.197 E79.8480
G1 X123.758 Y104.830 E79.8750
G1 X123.758 Y81.711 E81.0284
G1 X123.358 Y82.078 E81.0555
G1 X123.358 Y104.463 E82.1723
G1 X122.958 Y103.973 E82.2038
G1 X122.958 Y82.567 E83.2718
G1 X122.558 Y82.934 E83.2989
G1 X122.558 Y103.606 E84.3302
G1 X122.158 Y103.239 E84.3573
G1 X122.158 Y83.301 E85.3521
G1 X121.758 Y83.790 E85.3836
G1 X121.758 Y102.873 E86.3356
G1 X121.358 Y102.261 E86.3721
G1 X121.358 Y84.280 E87.2691
G1 X120.958 Y84.769 E87.3007
G1 X120.958 Y101.894 E88.1550
G1 X120.558 Y101.282 E88.1915
G1 X120.558 Y85.258 E88.9910
G1 X120.158 Y85.870 E89.0274
G1 X120.158 Y100.671 E89.7658
G1 X119.758 Y99.814 E89.8130
G1 X119.758 Y86.848 E90.4599
G1 X119.358 Y87.582 E90.5016
G1 X119.358 Y98.958 E91.0691
G0 X118.958 Y97.857 F7200
G1 X118.958 Y88.683 E91.5268 F2400
G0 X118.558 Y90.273 F7200
G1 X118.558 Y96.389 E91.8319 F2400



; ------------------------------------
; Raft Layer #3
; ------------------------------------
M106 S255 ;set fan speed
G92 E0 ;reset extr
G0 F1200 Z1.200
;segType:Raft
G0 F3000 E-1.0000
G0 F1200 Z3.200
G0 X127.792 Y107.393 F7200
G0 F1200 Z1.200
G0 F3000 E0.0000
G1 X139.046 Y107.393 E0.5614 F2400
G1 X139.902 Y106.993 E0.6086
G1 X126.936 Y106.993 E1.2555
G1 X126.080 Y106.593 E1.3026
G1 X140.758 Y106.593 E2.0349
G1 X141.370 Y106.193 E2.0714
G1 X125.468 Y106.193 E2.8647
G1 X124.857 Y105.793 E2.9012
G1 X141.982 Y105.793 E3.7556
G1 X142.349 Y105.393 E3.7827
G1 X124.490 Y105.393 E4.6736
G1 X123.878 Y104.993 E4.7101
G1 X142.960 Y104.993 E5.6621
G1 X143.327 Y104.593 E5.6892
G1 X123.511 Y104.593 E6.6778
G1 X123.144 Y104.193 E6.7049
G1 X143.694 Y104.193 E7.7301
G1 X144.061 Y103.793 E7.7572
G1 X122.777 Y103.793 E8.8191
G1 X122.288 Y103.393 E8.8506
G1 X144.550 Y103.393 E9.9613
G1 X144.917 Y102.993 E9.9884
G1 X121.921 Y102.993 E11.1357
G1 X121.554 Y102.593 E11.1628
G1 X145.284 Y102.593 E12.3467
G1 X145.651 Y102.193 E12.3738
G1 X121.187 Y102.193 E13.5943
G1 X120.820 Y101.793 E13.6214
G1 X146.018 Y101.793 E14.8785
G1 X146.263 Y101.393 E14.9019
G1 X120.575 Y101.393 E16.1835
G1 X120.331 Y100.993 E16.2068
G1 X146.508 Y100.993 E17.5128
G1 X146.752 Y100.593 E17.5362
G1 X120.086 Y100.593 E18.8666
G1 X119.841 Y100.193 E18.8900
G1 X146.997 Y100.193 E20.2448
G1 X147.119 Y99.793 E20.2656
G1 X119.719 Y99.793 E21.6326
G1 X119.474 Y99.393 E21.6560
G1 X147.364 Y99.393 E23.0474
G1 X147.486 Y98.993 E23.0683
G1 X119.352 Y98.993 E24.4719
G1 X119.108 Y98.593 E24.4953
G1 X147.731 Y98.593 E25.9233
G1 X147.853 Y98.193 E25.9442
G1 X118.985 Y98.193 E27.3844
G1 X118.863 Y97.793 E27.4053
G1 X147.975 Y97.793 E28.8577
G1 X148.098 Y97.393 E28.8786
G1 X118.741 Y97.393 E30.3432
G1 X118.741 Y96.993 E30.3631
G1 X148.098 Y96.993 E31.8278
G1 X148.220 Y96.593 E31.8486
G1 X118.618 Y96.593 E33.3255
G1 X118.496 Y96.193 E33.3464
G1 X148.342 Y96.193 E34.8354
G1 X148.342 Y95.793 E34.8554
G1 X118.496 Y95.793 E36.3444
G1 X118.496 Y95.393 E36.3644
G1 X148.342 Y95.393 E37.8534
G1 X148.465 Y94.993 E37.8743
G1 X118.374 Y94.993 E39.3755
G1 X118.374 Y94.593 E39.3955
G1 X148.465 Y94.593 E40.8967
G1 X148.465 Y94.193 E40.9167
G1 X118.374 Y94.193 E42.4179
G1 X118.374 Y93.793 E42.4379
G1 X148.465 Y93.793 E43.9391
G1 X148.465 Y93.393 E43.9591
G1 X118.374 Y93.393 E45.4603
G1 X118.374 Y92.993 E45.4803
G1 X148.465 Y92.993 E46.9816
G1 X148.465 Y92.593 E47.0015
G1 X118.374 Y92.593 E48.5028
G1 X118.374 Y92.193 E48.5227
G1 X148.465 Y92.193 E50.0240
G1 X148.465 Y91.793 E50.0439
G1 X118.374 Y91.793 E51.5452
G1 X118.374 Y91.393 E51.5651
G1 X148.465 Y91.393 E53.0664
G1 X148.342 Y90.993 E53.0872
G1 X118.496 Y90.993 E54.5763
G1 X118.496 Y90.593 E54.5962
G1 X148.342 Y90.593 E56.0853
G1 X148.220 Y90.193 E56.1062
G1 X118.618 Y90.193 E57.5830
G1 X118.618 Y89.793 E57.6030
G1 X148.220 Y89.793 E59.0798
G1 X148.098 Y89.393 E59.1007
G1 X118.741 Y89.393 E60.5653
G1 X118.863 Y88.993 E60.5862
G1 X147.975 Y88.993 E62.0386
G1 X147.853 Y88.593 E62.0595
G1 X118.985 Y88.593 E63.4997
G1 X119.108 Y88.193 E63.5206
G1 X147.731 Y88.193 E64.9486
G1 X147.608 Y87.793 E64.9694
G1 X119.230 Y87.793 E66.3852
G1 X119.352 Y87.393 E66.4061
G1 X147.486 Y87.393 E67.8097
G1 X147.241 Y86.993 E67.8331
G1 X119.597 Y86.993 E69.2123
G1 X119.719 Y86.593 E69.2332
G1 X147.119 Y86.593 E70.6002
G1 X146.875 Y86.193 E70.6236
G1 X119.964 Y86.193 E71.9661
G1 X120.208 Y85.793 E71.9895
G1 X146.630 Y85.793 E73.3077
G1 X146.385 Y85.393 E73.3311
G1 X120.453 Y85.393 E74.6249
G1 X120.698 Y84.993 E74.6482
G1 X146.141 Y84.993 E75.9176
G1 X145.896 Y84.593 E75.9410
G1 X120.942 Y84.593 E77.1859
G1 X121.309 Y84.193 E77.2130
G1 X145.529 Y84.193 E78.4213
G1 X145.162 Y83.793 E78.4484
G1 X121.676 Y83.793 E79.6201
G1 X121.921 Y83.393 E79.6435
G1 X144.917 Y83.393 E80.7908
G1 X144.428 Y82.993 E80.8223
G1 X122.410 Y82.993 E81.9208
G1 X122.777 Y82.593 E81.9479
G1 X144.061 Y82.593 E83.0098
G1 X143.694 Y82.193 E83.0368
G1 X123.144 Y82.193 E84.0621
G1 X123.511 Y81.793 E84.0892
G1 X143.327 Y81.793 E85.0778
G1 X142.716 Y81.393 E85.1143
G1 X124.123 Y81.393 E86.0419
G1 X124.612 Y80.993 E86.0734
G1 X142.226 Y80.993 E86.9522
G1 X141.859 Y80.593 E86.9793
G1 X124.979 Y80.593 E87.8214
G1 X125.591 Y80.193 E87.8579
G1 X141.248 Y80.193 E88.6390
G1 X140.391 Y79.793 E88.6862
G1 X126.447 Y79.793 E89.3819
G1 X127.181 Y79.393 E89.4236
G1 X139.658 Y79.393 E90.0460
G1 X138.801 Y78.993 E90.0932
G1 X128.037 Y78.993 E90.6302
G0 X129.138 Y78.593 F7200
G1 X137.700 Y78.593 E91.0574 F2400
G0 F3000 E90.0574
G0 X137.945 Y107.793 F7200
G0 F3000 E91.0574
G1 X128.893 Y107.793 E91.5090 F2400
G0 X130.483 Y108.193 F7200
G1 X136.355 Y108.193 E91.8019 F2400



; ------------------------------------
; Raft Layer #4
; ------------------------------------
G92 E0 ;reset extr
G0 F1200 Z1.400
;segType:Raft
G0 F3000 E-1.0000
G0 F1200 Z3.400
G0 X147.758 Y98.714 F7200
G0 F1200 Z1.400
G0 F3000 E0.0000
G1 X147.758 Y87.949 E0.3580 F2400
G1 X147.358 Y87.093 E0.3895
G1 X147.358 Y99.570 E0.8044
G1 X146.958 Y100.304 E0.8322
G1 X146.958 Y86.359 E1.2960
G1 X146.558 Y85.503 E1.3275
G1 X146.558 Y101.160 E1.8482
G1 X146.158 Y101.649 E1.8692
G1 X146.158 Y85.014 E2.4226
G1 X145.758 Y84.524 E2.4436
G1 X145.758 Y102.139 E3.0294
G1 X145.358 Y102.628 E3.0504
G1 X145.358 Y84.035 E3.6688
G1 X144.958 Y83.423 E3.6932
G1 X144.958 Y103.117 E4.3482
G1 X144.558 Y103.484 E4.3662
G1 X144.558 Y83.056 E5.0457
G1 X144.158 Y82.689 E5.0637
G1 X144.158 Y103.851 E5.7675
G1 X143.758 Y104.218 E5.7856
G1 X143.758 Y82.323 E6.5139
G1 X143.358 Y81.833 E6.5349
G1 X143.358 Y104.707 E7.2957
G1 X142.958 Y105.074 E7.3137
G1 X142.958 Y81.589 E8.0949
G1 X142.558 Y81.222 E8.1129
G1 X142.558 Y105.441 E8.9185
G1 X142.158 Y105.808 E8.9365
G1 X142.158 Y80.855 E9.7665
G1 X141.758 Y80.610 E9.7821
G1 X141.758 Y106.053 E10.6283
G1 X141.358 Y106.298 E10.6439
G1 X141.358 Y80.365 E11.5064
G1 X140.958 Y80.121 E11.5220
G1 X140.958 Y106.542 E12.4008
G1 X140.558 Y106.787 E12.4164
G1 X140.558 Y79.876 E13.3114
G1 X140.158 Y79.631 E13.3270
G1 X140.158 Y107.031 E14.2384
G1 X139.758 Y107.154 E14.2523
G1 X139.758 Y79.509 E15.1717
G1 X139.358 Y79.264 E15.1873
G1 X139.358 Y107.398 E16.1231
G1 X138.958 Y107.521 E16.1370
G1 X138.958 Y79.142 E17.0809
G1 X138.558 Y79.020 E17.0948
G1 X138.558 Y107.643 E18.0468
G1 X138.158 Y107.765 E18.0607
G1 X138.158 Y78.898 E19.0208
G1 X137.758 Y78.653 E19.0364
G1 X137.758 Y107.888 E20.0088
G1 X137.358 Y108.010 E20.0227
G1 X137.358 Y78.653 E20.9991
G1 X136.958 Y78.531 E21.0130
G1 X136.958 Y108.132 E21.9976
G1 X136.558 Y108.132 E22.0109
G1 X136.558 Y78.531 E22.9955
G1 X136.158 Y78.408 E23.0094
G1 X136.158 Y108.255 E24.0021
G1 X135.758 Y108.255 E24.0154
G1 X135.758 Y78.408 E25.0081
G1 X135.358 Y78.286 E25.0220
G1 X135.358 Y108.255 E26.0187
G1 X134.958 Y108.377 E26.0327
G1 X134.958 Y78.286 E27.0335
G1 X134.558 Y78.286 E27.0468
G1 X134.558 Y108.377 E28.0476
G1 X134.158 Y108.377 E28.0609
G1 X134.158 Y78.286 E29.0618
G1 X133.758 Y78.286 E29.0751
G1 X133.758 Y108.377 E30.0759
G1 X133.358 Y108.377 E30.0892
G1 X133.358 Y78.286 E31.0900
G1 X132.958 Y78.286 E31.1033
G1 X132.958 Y108.377 E32.1042
G1 X132.558 Y108.377 E32.1175
G1 X132.558 Y78.286 E33.1183
G1 X132.158 Y78.286 E33.1316
G1 X132.158 Y108.377 E34.1325
G1 X131.758 Y108.377 E34.1458
G1 X131.758 Y78.286 E35.1466
G1 X131.358 Y78.286 E35.1599
G1 X131.358 Y108.255 E36.1567
G1 X130.958 Y108.255 E36.1700
G1 X130.958 Y78.408 E37.1627
G1 X130.558 Y78.408 E37.1760
G1 X130.558 Y108.255 E38.1687
G1 X130.158 Y108.132 E38.1826
G1 X130.158 Y78.531 E39.1671
G1 X129.758 Y78.653 E39.1810
G1 X129.758 Y108.010 E40.1575
G1 X129.358 Y108.010 E40.1708
G1 X129.358 Y78.653 E41.1472
G1 X128.958 Y78.775 E41.1611
G1 X128.958 Y107.888 E42.1294
G1 X128.558 Y107.643 E42.1450
G1 X128.558 Y78.898 E43.1011
G1 X128.158 Y79.020 E43.1150
G1 X128.158 Y107.521 E44.0629
G1 X127.758 Y107.398 E44.0768
G1 X127.758 Y79.142 E45.0166
G1 X127.358 Y79.387 E45.0322
G1 X127.358 Y107.276 E45.9598
G1 X126.958 Y107.031 E45.9754
G1 X126.958 Y79.631 E46.8868
G1 X126.558 Y79.754 E46.9007
G1 X126.558 Y106.909 E47.8039
G1 X126.158 Y106.664 E47.8195
G1 X126.158 Y79.998 E48.7064
G1 X125.758 Y80.243 E48.7220
G1 X125.758 Y106.420 E49.5926
G1 X125.358 Y106.175 E49.6082
G1 X125.358 Y80.488 E50.4626
G1 X124.958 Y80.732 E50.4782
G1 X124.958 Y105.931 E51.3163
G1 X124.558 Y105.564 E51.3343
G1 X124.558 Y81.099 E52.1480
G1 X124.158 Y81.466 E52.1661
G1 X124.158 Y105.197 E52.9553
G1 X123.758 Y104.830 E52.9734
G1 X123.758 Y81.711 E53.7423
G1 X123.358 Y82.078 E53.7604
G1 X123.358 Y104.463 E54.5049
G1 X122.958 Y103.973 E54.5259
G1 X122.958 Y82.567 E55.2379
G1 X122.558 Y82.934 E55.2560
G1 X122.558 Y103.606 E55.9435
G1 X122.158 Y103.239 E55.9616
G1 X122.158 Y83.301 E56.6247
G1 X121.758 Y83.790 E56.6457
G1 X121.758 Y102.873 E57.2804
G1 X121.358 Y102.261 E57.3047
G1 X121.358 Y84.280 E57.9028
G1 X120.958 Y84.769 E57.9238
G1 X120.958 Y101.894 E58.4934
G1 X120.558 Y101.282 E58.5177
G1 X120.558 Y85.258 E59.0507
G1 X120.158 Y85.870 E59.0750
G1 X120.158 Y100.671 E59.5672
G1 X119.758 Y99.814 E59.5987
G1 X119.758 Y86.848 E60.0299
G1 X119.358 Y87.582 E60.0577
G1 X119.358 Y98.958 E60.4361
G0 X118.958 Y97.857 F7200
G1 X118.958 Y88.683 E60.7412 F2400
G0 X118.558 Y90.273 F7200
G1 X118.558 Y96.389 E60.9447 F2400
G0 F3000 E59.9447
G0 X148.158 Y97.490 F7200
G0 F3000 E60.9447
G1 X148.158 Y89.173 E61.2213 F2400


; ------------------------------------
; Layer #0
; ------------------------------------
G21 ; mm
G90 ; abs
G92 E0 ;reset extr
G0 F1200 Z1.850
;segType:HShell
G0 F3000 E-1.0000
G0 X126.966 Y83.486 F5400
G0 F3000 E0.0000
G1 X143.264 Y99.785 E0.7666 F2400
;segType:Perimeter
G0 X143.821 Y99.950 F5400
G1 X143.545 Y100.701 E0.7932 F1440
G1 X143.202 Y101.141 E0.8118
G1 X142.802 Y101.605 E0.8322
G1 X142.379 Y102.049 E0.8526
G1 X141.935 Y102.471 E0.8729
G1 X141.469 Y102.873 E0.8934
G1 X140.986 Y103.250 E0.9138
G1 X140.487 Y103.601 E0.9341
G1 X139.970 Y103.929 E0.9544
G1 X139.431 Y104.234 E0.9750
G1 X138.887 Y104.508 E0.9953
G1 X138.327 Y104.756 E1.0157
G1 X137.749 Y104.979 E1.0363
G1 X137.171 Y105.170 E1.0565
G1 X136.577 Y105.334 E1.0770
G1 X135.983 Y105.468 E1.0973
G1 X135.376 Y105.573 E1.1178
G1 X134.768 Y105.648 E1.1381
G1 X134.158 Y105.694 E1.1585
G1 X133.537 Y105.709 E1.1791
G1 X132.925 Y105.694 E1.1995
G1 X132.315 Y105.648 E1.2199
G1 X131.707 Y105.573 E1.2402
G1 X131.100 Y105.468 E1.2607
G1 X130.506 Y105.334 E1.2810
G1 X129.912 Y105.170 E1.3015
G1 X129.327 Y104.977 E1.3220
G1 X128.756 Y104.756 E1.3423
G1 X128.196 Y104.508 E1.3627
G1 X127.649 Y104.232 E1.3831
G1 X127.113 Y103.929 E1.4036
G1 X126.595 Y103.601 E1.4239
G1 X126.095 Y103.248 E1.4443
G1 X125.614 Y102.873 E1.4646
G1 X125.148 Y102.471 E1.4851
G1 X124.702 Y102.047 E1.5055
G1 X124.281 Y101.605 E1.5258
G1 X123.879 Y101.139 E1.5463
G1 X123.501 Y100.654 E1.5667
G1 X123.148 Y100.153 E1.5871
G1 X122.820 Y99.635 E1.6075
G1 X122.517 Y99.100 E1.6280
G1 X122.242 Y98.552 E1.6484
G1 X121.994 Y97.994 E1.6687
G1 X121.773 Y97.420 E1.6891
G1 X121.580 Y96.838 E1.7095
G1 X121.416 Y96.246 E1.7300
G1 X121.282 Y95.646 E1.7504
G1 X121.177 Y95.042 E1.7708
G1 X121.102 Y94.433 E1.7912
G1 X121.057 Y93.824 E1.8115
G1 X121.042 Y93.208 E1.8320
G1 X121.057 Y92.595 E1.8524
G1 X121.102 Y91.985 E1.8728
G1 X121.177 Y91.376 E1.8931
G1 X121.282 Y90.770 E1.9136
G1 X121.417 Y90.171 E1.9340
G1 X121.580 Y89.580 E1.9544
G1 X121.772 Y88.999 E1.9748
G1 X121.994 Y88.425 E1.9952
G1 X122.242 Y87.864 E2.0156
G1 X122.518 Y87.317 E2.0360
G1 X122.820 Y86.784 E2.0564
G1 X123.149 Y86.264 E2.0769
G1 X123.502 Y85.763 E2.0973
G1 X123.880 Y85.279 E2.1177
G1 X124.280 Y84.814 E2.1381
G1 X124.703 Y84.370 E2.1585
G1 X125.147 Y83.948 E2.1789
G1 X125.611 Y83.548 E2.1992
G1 X126.096 Y83.169 E2.2197
G1 X126.598 Y82.816 E2.2401
G1 X127.115 Y82.488 E2.2605
G1 X127.649 Y82.186 E2.2809
G1 X128.197 Y81.910 E2.3013
G1 X128.759 Y81.661 E2.3217
G1 X129.332 Y81.440 E2.3421
G1 X129.914 Y81.248 E2.3625
G1 X130.505 Y81.084 E2.3829
G1 X131.104 Y80.950 E2.4033
G1 X131.708 Y80.845 E2.4237
G1 X132.315 Y80.770 E2.4441
G1 X132.928 Y80.725 E2.4645
G1 X133.543 Y80.710 E2.4850
G1 X134.156 Y80.725 E2.5054
G1 X134.767 Y80.770 E2.5258
G1 X135.376 Y80.845 E2.5462
G1 X135.981 Y80.950 E2.5666
G1 X136.579 Y81.084 E2.5870
G1 X137.170 Y81.248 E2.6074
G1 X137.753 Y81.440 E2.6278
G1 X138.326 Y81.661 E2.6482
G1 X138.885 Y81.910 E2.6686
G1 X139.434 Y82.186 E2.6890
G1 X139.968 Y82.488 E2.7094
G1 X140.486 Y82.816 E2.7298
G1 X140.988 Y83.170 E2.7502
G1 X141.472 Y83.548 E2.7707
G1 X141.936 Y83.948 E2.7911
G1 X142.380 Y84.371 E2.8114
G1 X142.803 Y84.815 E2.8318
G1 X143.204 Y85.280 E2.8523
G1 X143.582 Y85.764 E2.8727
G1 X143.935 Y86.265 E2.8931
G1 X144.263 Y86.784 E2.9135
G1 X144.565 Y87.317 E2.9339
G1 X144.841 Y87.864 E2.9543
G1 X145.090 Y88.426 E2.9747
G1 X145.311 Y89.000 E2.9951
G1 X145.503 Y89.580 E3.0155
G1 X145.667 Y90.173 E3.0359
G1 X145.801 Y90.771 E3.0563
G1 X145.906 Y91.376 E3.0767
G1 X145.981 Y91.985 E3.0971
G1 X146.026 Y92.595 E3.1175
G1 X146.041 Y93.208 E3.1379
G1 X146.026 Y93.823 E3.1584
G1 X145.981 Y94.433 E3.1787
G1 X145.906 Y95.042 E3.1991
G1 X145.801 Y95.647 E3.2195
G1 X145.667 Y96.246 E3.2399
G1 X145.503 Y96.838 E3.2604
G1 X145.310 Y97.422 E3.2808
G1 X145.089 Y97.994 E3.3012
G1 X144.841 Y98.554 E3.3216
G1 X144.566 Y99.100 E3.3419
G1 X144.263 Y99.635 E3.3624
G1 X143.935 Y100.153 E3.3828
G1 X143.617 Y100.605 E3.4011
G0 X142.978 Y101.086 F5400
;segType:Loop
G0 X142.584 Y101.245
G1 X142.505 Y101.336 E3.4052 F2400
G1 X142.096 Y101.766 E3.4249
G1 X141.667 Y102.175 E3.4446
G1 X141.215 Y102.564 E3.4644
G1 X140.747 Y102.929 E3.4842
G1 X140.265 Y103.268 E3.5038
G1 X139.764 Y103.586 E3.5235
G1 X139.243 Y103.881 E3.5434
G1 X138.716 Y104.146 E3.5631
G1 X138.174 Y104.387 E3.5828
G1 X137.614 Y104.602 E3.6027
G1 X137.055 Y104.787 E3.6223
G1 X136.480 Y104.946 E3.6422
G1 X135.905 Y105.075 E3.6618
G1 X135.317 Y105.178 E3.6816
G1 X134.729 Y105.250 E3.7013
G1 X134.138 Y105.294 E3.7210
G1 X133.538 Y105.308 E3.7410
G1 X132.945 Y105.294 E3.7607
G1 X132.354 Y105.250 E3.7804
G1 X131.766 Y105.178 E3.8001
G1 X131.178 Y105.075 E3.8200
G1 X130.603 Y104.946 E3.8396
G1 X130.028 Y104.787 E3.8594
G1 X129.462 Y104.600 E3.8793
G1 X128.909 Y104.387 E3.8990
G1 X128.367 Y104.146 E3.9187
G1 X127.837 Y103.880 E3.9384
G1 X127.319 Y103.586 E3.9582
G1 X126.818 Y103.268 E3.9780
G1 X126.333 Y102.927 E3.9977
G1 X125.868 Y102.564 E4.0173
G1 X125.416 Y102.175 E4.0371
G1 X124.985 Y101.764 E4.0569
G1 X124.578 Y101.336 E4.0766
G1 X124.189 Y100.885 E4.0964
G1 X123.822 Y100.416 E4.1162
G1 X123.481 Y99.931 E4.1359
G1 X123.163 Y99.429 E4.1557
G1 X122.870 Y98.912 E4.1755
G1 X122.603 Y98.381 E4.1952
G1 X122.364 Y97.841 E4.2149
G1 X122.149 Y97.285 E4.2347
G1 X121.963 Y96.722 E4.2544
G1 X121.804 Y96.149 E4.2742
G1 X121.674 Y95.568 E4.2940
G1 X121.573 Y94.983 E4.3137
G1 X121.500 Y94.394 E4.3335
G1 X121.457 Y93.804 E4.3532
G1 X121.442 Y93.208 E4.3730
G1 X121.457 Y92.615 E4.3927
G1 X121.500 Y92.024 E4.4124
G1 X121.573 Y91.435 E4.4322
G1 X121.675 Y90.848 E4.4520
G1 X121.805 Y90.269 E4.4717
G1 X121.963 Y89.697 E4.4915
G1 X122.149 Y89.134 E4.5112
G1 X122.363 Y88.578 E4.5310
G1 X122.604 Y88.036 E4.5507
G1 X122.871 Y87.505 E4.5705
G1 X123.163 Y86.990 E4.5902
G1 X123.482 Y86.487 E4.6100
G1 X123.823 Y86.001 E4.6297
G1 X124.189 Y85.533 E4.6495
G1 X124.577 Y85.083 E4.6693
G1 X124.986 Y84.653 E4.6890
G1 X125.416 Y84.244 E4.7087
G1 X125.865 Y83.857 E4.7284
G1 X126.334 Y83.490 E4.7483
G1 X126.820 Y83.149 E4.7680
G1 X127.321 Y82.831 E4.7877
G1 X127.837 Y82.539 E4.8075
G1 X128.369 Y82.271 E4.8273
G1 X128.912 Y82.030 E4.8470
G1 X129.466 Y81.817 E4.8668
G1 X130.030 Y81.631 E4.8865
G1 X130.602 Y81.472 E4.9063
G1 X131.182 Y81.342 E4.9260
G1 X131.767 Y81.241 E4.9458
G1 X132.355 Y81.168 E4.9655
G1 X132.948 Y81.124 E4.9853
G1 X133.543 Y81.110 E5.0051
G1 X134.136 Y81.124 E5.0248
G1 X134.728 Y81.168 E5.0445
G1 X135.317 Y81.241 E5.0643
G1 X135.902 Y81.342 E5.0840
G1 X136.482 Y81.472 E5.1038
G1 X137.054 Y81.631 E5.1235
G1 X137.618 Y81.817 E5.1433
G1 X138.173 Y82.031 E5.1631
G1 X138.714 Y82.271 E5.1828
G1 X139.246 Y82.539 E5.2026
G1 X139.762 Y82.831 E5.2223
G1 X140.264 Y83.149 E5.2421
G1 X140.749 Y83.491 E5.2618
G1 X141.218 Y83.857 E5.2816
G1 X141.668 Y84.245 E5.3013
G1 X142.097 Y84.654 E5.3211
G1 X142.507 Y85.084 E5.3408
G1 X142.895 Y85.534 E5.3606
G1 X143.260 Y86.002 E5.3803
G1 X143.602 Y86.488 E5.4001
G1 X143.920 Y86.990 E5.4199
G1 X144.212 Y87.506 E5.4396
G1 X144.479 Y88.036 E5.4593
G1 X144.720 Y88.579 E5.4791
G1 X144.934 Y89.134 E5.4989
G1 X145.120 Y89.697 E5.5186
G1 X145.278 Y90.270 E5.5383
G1 X145.408 Y90.849 E5.5581
G1 X145.510 Y91.435 E5.5779
G1 X145.583 Y92.024 E5.5976
G1 X145.626 Y92.615 E5.6173
G1 X145.641 Y93.208 E5.6370
G1 X145.626 Y93.804 E5.6569
G1 X145.583 Y94.394 E5.6766
G1 X145.510 Y94.983 E5.6963
G1 X145.408 Y95.569 E5.7161
G1 X145.278 Y96.149 E5.7358
G1 X145.120 Y96.722 E5.7556
G1 X144.933 Y97.287 E5.7754
G1 X144.719 Y97.841 E5.7952
G1 X144.479 Y98.383 E5.8149
G1 X144.213 Y98.911 E5.8346
G1 X143.920 Y99.429 E5.8544
G1 X143.602 Y99.931 E5.8741
G1 X143.261 Y100.416 E5.8938
G1 X142.893 Y100.887 E5.9137
G1 X142.715 Y101.093 E5.9228
;segType:HShell
G0 X143.031 Y100.117 F5400
G1 X126.634 Y83.720 E6.6940 F2400
G0 X126.312 Y83.964 F5400
G1 X142.786 Y100.438 E7.4689 F2400
G0 X142.534 Y100.752 F5400
G1 X125.999 Y84.217 E8.2467 F2400
G0 X125.695 Y84.479 F5400
G1 X142.272 Y101.055 E9.0264 F2400
G0 X141.998 Y101.347 F5400
G1 X125.404 Y84.753 E9.8069 F2400
G0 X125.120 Y85.035 F5400
G1 X141.716 Y101.631 E10.5875 F2400
G0 X141.426 Y101.906 F5400
G1 X124.844 Y85.325 E11.3675 F2400
G0 X124.582 Y85.628 F5400
G1 X141.122 Y102.168 E12.1455 F2400
G0 X140.811 Y102.422 F5400
G1 X124.328 Y85.940 E12.9207 F2400
G0 X124.082 Y86.260 F5400
G1 X140.491 Y102.669 E13.6926 F2400
G0 X140.159 Y102.902 F5400
G1 X123.848 Y86.591 E14.4598 F2400
G0 X123.625 Y86.934 F5400
G1 X139.817 Y103.126 E15.2214 F2400
G0 X139.466 Y103.341 F5400
G1 X123.410 Y87.284 E15.9767 F2400
G0 X123.205 Y87.646 F5400
G1 X139.105 Y103.545 E16.7245 F2400
G0 X138.730 Y103.736 F5400
G1 X123.015 Y88.021 E17.4637 F2400
G0 X122.834 Y88.405 F5400
G1 X138.345 Y103.917 E18.1934 F2400
G0 X137.950 Y104.087 F5400
G1 X122.663 Y88.801 E18.9124 F2400
G0 X122.506 Y89.209 F5400
G1 X137.542 Y104.245 E19.6196 F2400
G0 X137.118 Y104.387 F5400
G1 X122.364 Y89.632 E20.3136 F2400
G0 X122.234 Y90.068 F5400
G1 X136.682 Y104.517 E20.9932 F2400
G0 X136.233 Y104.633 F5400
G1 X122.118 Y90.518 E21.6572 F2400
G0 X122.017 Y90.983 F5400
G1 X135.768 Y104.734 E22.3040 F2400
G0 X135.286 Y104.818 F5400
G1 X121.933 Y91.465 E22.9321 F2400
G0 X121.870 Y91.967 F5400
G1 X134.784 Y104.881 E23.5395 F2400
G0 X134.261 Y104.924 F5400
G1 X121.827 Y92.490 E24.1243 F2400
G0 X121.807 Y93.035 F5400
G1 X133.715 Y104.944 E24.6845 F2400
G0 X133.144 Y104.939 F5400
G1 X121.812 Y93.606 E25.2175 F2400
G0 X121.847 Y94.207 F5400
G1 X132.543 Y104.903 E25.7206 F2400
G0 X131.907 Y104.832 F5400
G1 X121.918 Y94.844 E26.1904 F2400
G0 X122.034 Y95.525 F5400
G1 X131.226 Y104.717 E26.6228 F2400
G0 X130.482 Y104.539 F5400
G1 X122.211 Y96.268 E27.0119 F2400
G0 X122.462 Y97.085 F5400
G1 X129.665 Y104.288 E27.3507 F2400
G0 X128.721 Y103.909 F5400
G1 X122.841 Y98.030 E27.6272 F2400
G0 X123.449 Y99.203 F5400
G1 X127.547 Y103.301 E27.8200 F2400
G0 X127.310 Y83.265 F5400
G1 X143.486 Y99.441 E28.5809 F2400
G0 X143.699 Y99.088 F5400
G1 X127.662 Y83.052 E29.3352 F2400
G0 X128.024 Y82.848 F5400
G1 X143.903 Y98.726 E30.0821 F2400
G0 X144.092 Y98.350 F5400
G1 X128.400 Y82.658 E30.8202 F2400
G0 X128.787 Y82.480 F5400
G1 X144.271 Y97.963 E31.5485 F2400
G0 X144.439 Y97.566 F5400
G1 X129.185 Y82.311 E32.2660 F2400
G0 X129.593 Y82.154 F5400
G1 X144.597 Y97.157 E32.9717 F2400
G0 X144.737 Y96.732 F5400
G1 X130.018 Y82.014 E33.6640 F2400
G0 X130.457 Y81.886 F5400
G1 X144.865 Y96.294 E34.3417 F2400
G0 X144.978 Y95.842 F5400
G1 X130.909 Y81.772 E35.0035 F2400
G0 X131.376 Y81.674 F5400
G1 X145.077 Y95.375 E35.6480 F2400
G0 X145.159 Y94.891 F5400
G1 X131.860 Y81.592 E36.2735 F2400
G0 X132.363 Y81.530 F5400
G1 X145.221 Y94.388 E36.8783 F2400
G0 X145.261 Y93.862 F5400
G1 X132.889 Y81.490 E37.4603 F2400
G0 X133.437 Y81.473 F5400
G1 X145.278 Y93.313 E38.0172 F2400
G0 X145.269 Y92.739 F5400
G1 X134.012 Y81.482 E38.5467 F2400
G0 X134.617 Y81.521 F5400
G1 X145.230 Y92.134 E39.0459 F2400
G0 X145.154 Y91.493 F5400
G1 X135.258 Y81.596 E39.5114 F2400
G0 X135.949 Y81.722 F5400
G1 X145.029 Y90.801 E39.9385 F2400
G0 X144.844 Y90.051 F5400
G1 X136.699 Y81.906 E40.3216 F2400
G0 X137.526 Y82.168 F5400
G1 X144.583 Y89.224 E40.6535 F2400
G0 X144.185 Y88.260 F5400
G1 X138.490 Y82.566 E40.9213 F2400
G0 X139.723 Y83.233 F5400
G1 X143.518 Y87.028 E41.0998 F2400
; ------------------------------------
; Layer #1
; ------------------------------------
G92 E0 ;reset extr
;segType:HShell
G0 F3000 E-1.0000
G0 F1200 Z1.800
G0 X143.943 Y98.647 F7200
G0 F3000 E0.0000
G1 X138.979 Y103.611 E0.2335 F3600
G0 X140.477 Y102.679 F7200
G1 X143.012 Y100.144 E0.3527 F3600
;segType:Perimeter
G0 X143.823 Y99.948 F7200
G1 X143.547 Y100.699 E0.3793 F2160
G1 X143.198 Y101.145 E0.3982
G1 X142.804 Y101.602 E0.4182
G1 X142.377 Y102.051 E0.4388
G1 X141.934 Y102.472 E0.4592
G1 X141.464 Y102.877 E0.4798
G1 X140.990 Y103.247 E0.4998
G1 X140.483 Y103.604 E0.5204
G1 X139.975 Y103.926 E0.5404
G1 X139.426 Y104.237 E0.5614
G1 X138.881 Y104.511 E0.5817
G1 X138.322 Y104.758 E0.6020
G1 X137.763 Y104.974 E0.6220
G1 X137.162 Y105.173 E0.6430
G1 X136.574 Y105.335 E0.6633
G1 X135.990 Y105.466 E0.6832
G1 X135.365 Y105.575 E0.7043
G1 X134.760 Y105.649 E0.7246
G1 X134.151 Y105.694 E0.7449
G1 X133.529 Y105.708 E0.7656
G1 X132.919 Y105.693 E0.7859
G1 X132.311 Y105.648 E0.8062
G1 X131.706 Y105.573 E0.8265
G1 X131.093 Y105.466 E0.8471
G1 X130.498 Y105.332 E0.8674
G1 X129.910 Y105.169 E0.8877
G1 X129.320 Y104.974 E0.9084
G1 X128.751 Y104.754 E0.9287
G1 X128.193 Y104.507 E0.9490
G1 X127.648 Y104.232 E0.9693
G1 X127.108 Y103.926 E0.9899
G1 X126.593 Y103.599 E1.0102
G1 X126.093 Y103.247 E1.0305
G1 X125.605 Y102.866 E1.0511
G1 X125.143 Y102.467 E1.0715
G1 X124.700 Y102.045 E1.0918
G1 X124.279 Y101.602 E1.1121
G1 X123.875 Y101.134 E1.1327
G1 X123.499 Y100.652 E1.1530
G1 X123.147 Y100.152 E1.1734
G1 X122.817 Y99.630 E1.1939
G1 X122.516 Y99.097 E1.2143
G1 X122.241 Y98.551 E1.2346
G1 X121.993 Y97.991 E1.2549
G1 X121.775 Y97.426 E1.2751
G1 X121.581 Y96.839 E1.2957
G1 X121.417 Y96.250 E1.3160
G1 X121.281 Y95.643 E1.3367
G1 X121.177 Y95.040 E1.3571
G1 X121.102 Y94.432 E1.3774
G1 X121.057 Y93.821 E1.3978
G1 X121.042 Y93.205 E1.4183
G1 X121.057 Y92.597 E1.4385
G1 X121.102 Y91.982 E1.4590
G1 X121.177 Y91.375 E1.4794
G1 X121.283 Y90.768 E1.4999
G1 X121.416 Y90.174 E1.5201
G1 X121.579 Y89.583 E1.5405
G1 X121.771 Y89.002 E1.5609
G1 X121.993 Y88.427 E1.5814
G1 X122.243 Y87.864 E1.6018
G1 X122.518 Y87.317 E1.6222
G1 X122.822 Y86.781 E1.6427
G1 X123.149 Y86.263 E1.6631
G1 X123.502 Y85.763 E1.6834
G1 X123.881 Y85.277 E1.7039
G1 X124.281 Y84.814 E1.7243
G1 X124.704 Y84.370 E1.7447
G1 X125.148 Y83.947 E1.7651
G1 X125.609 Y83.549 E1.7853
G1 X126.095 Y83.170 E1.8058
G1 X126.599 Y82.815 E1.8263
G1 X127.114 Y82.489 E1.8466
G1 X127.650 Y82.185 E1.8671
G1 X128.198 Y81.909 E1.8875
G1 X128.755 Y81.662 E1.9078
G1 X129.330 Y81.440 E1.9283
G1 X129.915 Y81.247 E1.9488
G1 X130.503 Y81.084 E1.9691
G1 X131.101 Y80.950 E1.9895
G1 X131.709 Y80.845 E2.0099
G1 X132.317 Y80.770 E2.0303
G1 X132.928 Y80.725 E2.0507
G1 X133.545 Y80.710 E2.0712
G1 X134.154 Y80.725 E2.0915
G1 X134.766 Y80.770 E2.1119
G1 X135.377 Y80.845 E2.1324
G1 X135.981 Y80.950 E2.1528
G1 X136.580 Y81.084 E2.1732
G1 X137.171 Y81.248 E2.1936
G1 X137.752 Y81.440 E2.2140
G1 X138.328 Y81.662 E2.2345
G1 X138.885 Y81.909 E2.2548
G1 X139.433 Y82.185 E2.2751
G1 X139.969 Y82.489 E2.2956
G1 X140.487 Y82.817 E2.3160
G1 X140.988 Y83.170 E2.3364
G1 X141.474 Y83.549 E2.3569
G1 X141.935 Y83.947 E2.3772
G1 X142.381 Y84.372 E2.3977
G1 X142.803 Y84.815 E2.4180
G1 X143.202 Y85.277 E2.4383
G1 X143.581 Y85.763 E2.4588
G1 X143.934 Y86.263 E2.4792
G1 X144.264 Y86.786 E2.4998
G1 X144.566 Y87.320 E2.5201
G1 X144.840 Y87.864 E2.5404
G1 X145.090 Y88.427 E2.5609
G1 X145.312 Y89.002 E2.5814
G1 X145.504 Y89.583 E2.6018
G1 X145.667 Y90.174 E2.6221
G1 X145.801 Y90.771 E2.6425
G1 X145.906 Y91.379 E2.6630
G1 X145.981 Y91.982 E2.6832
G1 X146.026 Y92.597 E2.7037
G1 X146.041 Y93.205 E2.7240
G1 X146.026 Y93.821 E2.7445
G1 X145.981 Y94.432 E2.7648
G1 X145.906 Y95.040 E2.7852
G1 X145.800 Y95.652 E2.8059
G1 X145.666 Y96.249 E2.8262
G1 X145.502 Y96.839 E2.8466
G1 X145.308 Y97.426 E2.8671
G1 X145.090 Y97.991 E2.8873
G1 X144.840 Y98.556 E2.9078
G1 X144.565 Y99.103 E2.9282
G1 X144.263 Y99.635 E2.9485
G1 X143.932 Y100.157 E2.9691
G1 X143.618 Y100.603 E2.9872
G0 X142.979 Y101.084 F7200
;segType:Loop
G0 X142.586 Y101.243
G1 X142.508 Y101.334 E2.9912 F3600
G1 X142.094 Y101.768 E3.0112
G1 X141.666 Y102.175 E3.0308
G1 X141.211 Y102.567 E3.0508
G1 X140.751 Y102.926 E3.0702
G1 X140.260 Y103.271 E3.0902
G1 X139.769 Y103.583 E3.1095
G1 X139.238 Y103.884 E3.1298
G1 X138.710 Y104.149 E3.1495
G1 X138.169 Y104.389 E3.1691
G1 X137.628 Y104.598 E3.1884
G1 X137.046 Y104.790 E3.2088
G1 X136.477 Y104.947 E3.2284
G1 X135.912 Y105.074 E3.2477
G1 X135.307 Y105.179 E3.2681
G1 X134.721 Y105.251 E3.2878
G1 X134.132 Y105.294 E3.3074
G1 X133.530 Y105.308 E3.3274
G1 X132.939 Y105.293 E3.3471
G1 X132.351 Y105.250 E3.3667
G1 X131.765 Y105.177 E3.3864
G1 X131.171 Y105.074 E3.4064
G1 X130.595 Y104.944 E3.4260
G1 X130.026 Y104.787 E3.4457
G1 X129.455 Y104.598 E3.4657
G1 X128.904 Y104.385 E3.4853
G1 X128.364 Y104.145 E3.5050
G1 X127.836 Y103.879 E3.5246
G1 X127.314 Y103.583 E3.5446
G1 X126.815 Y103.266 E3.5643
G1 X126.332 Y102.926 E3.5839
G1 X125.859 Y102.557 E3.6039
G1 X125.412 Y102.170 E3.6235
G1 X124.983 Y101.762 E3.6432
G1 X124.575 Y101.334 E3.6629
G1 X124.185 Y100.880 E3.6828
G1 X123.821 Y100.413 E3.7025
G1 X123.480 Y99.929 E3.7222
G1 X123.160 Y99.424 E3.7420
G1 X122.869 Y98.909 E3.7617
G1 X122.602 Y98.380 E3.7814
G1 X122.363 Y97.838 E3.8011
G1 X122.151 Y97.291 E3.8206
G1 X121.964 Y96.723 E3.8405
G1 X121.805 Y96.152 E3.8602
G1 X121.674 Y95.565 E3.8803
G1 X121.573 Y94.981 E3.9000
G1 X121.500 Y94.393 E3.9197
G1 X121.457 Y93.802 E3.9394
G1 X121.442 Y93.205 E3.9592
G1 X121.456 Y92.617 E3.9788
G1 X121.500 Y92.022 E3.9987
G1 X121.573 Y91.434 E4.0184
G1 X121.675 Y90.846 E4.0382
G1 X121.804 Y90.271 E4.0578
G1 X121.962 Y89.699 E4.0775
G1 X122.148 Y89.136 E4.0973
G1 X122.363 Y88.580 E4.1171
G1 X122.604 Y88.035 E4.1369
G1 X122.871 Y87.505 E4.1566
G1 X123.165 Y86.987 E4.1765
G1 X123.482 Y86.486 E4.1962
G1 X123.824 Y86.001 E4.2159
G1 X124.190 Y85.531 E4.2357
G1 X124.578 Y85.082 E4.2555
G1 X124.987 Y84.653 E4.2752
G1 X125.416 Y84.244 E4.2949
G1 X125.863 Y83.858 E4.3145
G1 X126.333 Y83.491 E4.3344
G1 X126.821 Y83.148 E4.3542
G1 X127.320 Y82.832 E4.3739
G1 X127.839 Y82.538 E4.3937
G1 X128.369 Y82.271 E4.4134
G1 X128.909 Y82.032 E4.4331
G1 X129.465 Y81.817 E4.4529
G1 X130.031 Y81.630 E4.4728
G1 X130.600 Y81.473 E4.4924
G1 X131.180 Y81.342 E4.5121
G1 X131.767 Y81.240 E4.5320
G1 X132.356 Y81.168 E4.5517
G1 X132.948 Y81.124 E4.5714
G1 X133.545 Y81.110 E4.5913
G1 X134.135 Y81.124 E4.6109
G1 X134.727 Y81.168 E4.6307
G1 X135.319 Y81.241 E4.6505
G1 X135.903 Y81.342 E4.6702
G1 X136.482 Y81.473 E4.6900
G1 X137.054 Y81.631 E4.7097
G1 X137.618 Y81.817 E4.7294
G1 X138.175 Y82.032 E4.7493
G1 X138.714 Y82.271 E4.7689
G1 X139.244 Y82.538 E4.7887
G1 X139.763 Y82.832 E4.8085
G1 X140.265 Y83.150 E4.8283
G1 X140.749 Y83.491 E4.8480
G1 X141.220 Y83.858 E4.8678
G1 X141.667 Y84.244 E4.8875
G1 X142.098 Y84.655 E4.9073
G1 X142.507 Y85.084 E4.9270
G1 X142.893 Y85.531 E4.9466
G1 X143.259 Y86.001 E4.9665
G1 X143.601 Y86.486 E4.9862
G1 X143.921 Y86.992 E5.0061
G1 X144.213 Y87.508 E5.0258
G1 X144.479 Y88.035 E5.0454
G1 X144.720 Y88.580 E5.0653
G1 X144.935 Y89.136 E5.0851
G1 X145.121 Y89.699 E5.1048
G1 X145.279 Y90.271 E5.1246
G1 X145.408 Y90.849 E5.1443
G1 X145.510 Y91.437 E5.1641
G1 X145.583 Y92.022 E5.1837
G1 X145.626 Y92.617 E5.2035
G1 X145.641 Y93.205 E5.2231
G1 X145.626 Y93.802 E5.2430
G1 X145.583 Y94.393 E5.2627
G1 X145.510 Y94.981 E5.2824
G1 X145.407 Y95.574 E5.3024
G1 X145.278 Y96.152 E5.3221
G1 X145.119 Y96.723 E5.3418
G1 X144.931 Y97.291 E5.3617
G1 X144.720 Y97.838 E5.3812
G1 X144.478 Y98.385 E5.4011
G1 X144.212 Y98.914 E5.4208
G1 X143.920 Y99.429 E5.4405
G1 X143.599 Y99.935 E5.4604
G1 X143.262 Y100.413 E5.4799
G1 X142.889 Y100.891 E5.5001
G1 X142.717 Y101.091 E5.5088
;segType:HShell
G0 X144.428 Y97.596 F7200
G1 X137.929 Y104.095 E5.8145 F3600
G0 X137.049 Y104.410 F7200
G1 X144.742 Y96.716 E6.1764 F3600
G0 X144.957 Y95.936 F7200
G1 X136.268 Y104.625 E6.5851 F3600
G0 X135.557 Y104.770 F7200
G1 X145.103 Y95.224 E7.0341 F3600
G0 X145.199 Y94.562 F7200
G1 X134.895 Y104.867 E7.5188 F3600
G0 X134.273 Y104.923 F7200
G1 X145.255 Y93.941 E8.0354 F3600
G0 X145.277 Y93.353 F7200
G1 X133.686 Y104.944 E8.5806 F3600
G0 X133.126 Y104.938 F7200
G1 X145.271 Y92.794 E9.1518 F3600
G0 X145.239 Y92.260 F7200
G1 X132.592 Y104.907 E9.7467 F3600
G0 X132.080 Y104.853 F7200
G1 X145.186 Y91.747 E10.3632 F3600
G0 X145.113 Y91.254 F7200
G1 X131.586 Y104.781 E10.9994 F3600
G0 X131.110 Y104.691 F7200
G1 X145.023 Y90.778 E11.6539 F3600
G0 X144.918 Y90.318 F7200
G1 X130.650 Y104.586 E12.3250 F3600
G0 X130.207 Y104.463 F7200
G1 X144.796 Y89.875 E13.0112 F3600
G0 X144.658 Y89.447 F7200
G1 X129.779 Y104.325 E13.7110 F3600
G0 X129.363 Y104.176 F7200
G1 X144.508 Y89.031 E14.4234 F3600
G0 X144.347 Y88.626 F7200
G1 X128.958 Y104.015 E15.1472 F3600
G0 X128.567 Y103.841 F7200
G1 X144.173 Y88.234 E15.8813 F3600
G0 X143.986 Y87.856 F7200
G1 X128.189 Y103.653 E16.6244 F3600
G0 X127.820 Y103.456 F7200
G1 X143.788 Y87.488 E17.3755 F3600
G0 X143.582 Y87.129 F7200
G1 X127.461 Y103.250 E18.1337 F3600
G0 X127.115 Y103.030 F7200
G1 X143.362 Y86.782 E18.8980 F3600
G0 X143.133 Y86.446 F7200
G1 X126.779 Y102.800 E19.6672 F3600
G0 X126.451 Y102.562 F7200
G1 X142.895 Y86.119 E20.4406 F3600
G0 X142.647 Y85.801 F7200
G1 X126.134 Y102.314 E21.2174 F3600
G0 X125.828 Y102.054 F7200
G1 X142.386 Y85.496 E21.9962 F3600
G0 X142.118 Y85.198 F7200
G1 X125.530 Y101.786 E22.7765 F3600
G0 X125.241 Y101.510 F7200
G1 X141.842 Y84.908 E23.5573 F3600
G0 X141.553 Y84.632 F7200
G1 X124.965 Y101.220 E24.3376 F3600
G0 X124.697 Y100.923 F7200
G1 X141.255 Y84.364 E25.1164 F3600
G0 X140.949 Y84.104 F7200
G1 X124.436 Y100.617 E25.8932 F3600
G0 X124.188 Y100.299 F7200
G1 X140.632 Y83.856 E26.6666 F3600
G0 X140.304 Y83.618 F7200
G1 X123.950 Y99.972 E27.4359 F3600
G0 X123.720 Y99.636 F7200
G1 X139.968 Y83.388 E28.2001 F3600
G0 X139.622 Y83.169 F7200
G1 X123.501 Y99.289 E28.9584 F3600
G0 X123.295 Y98.930 F7200
G1 X139.263 Y82.962 E29.7095 F3600
G0 X138.894 Y82.765 F7200
G1 X123.097 Y98.562 E30.4525 F3600
G0 X122.910 Y98.184 F7200
G1 X138.516 Y82.577 E31.1866 F3600
G0 X138.124 Y82.404 F7200
G1 X122.736 Y97.792 E31.9104 F3600
G0 X122.575 Y97.388 F7200
G1 X137.720 Y82.242 E32.6228 F3600
G0 X137.304 Y82.093 F7200
G1 X122.425 Y96.972 E33.3227 F3600
G0 X122.287 Y96.544 F7200
G1 X136.876 Y81.955 E34.0089 F3600
G0 X136.433 Y81.833 F7200
G1 X122.165 Y96.101 E34.6800 F3600
G0 X122.060 Y95.640 F7200
G1 X135.973 Y81.727 E35.3344 F3600
G0 X135.497 Y81.637 F7200
G1 X121.970 Y95.164 E35.9707 F3600
G0 X121.897 Y94.671 F7200
G1 X135.003 Y81.565 E36.5872 F3600
G0 X134.491 Y81.512 F7200
G1 X121.844 Y94.159 E37.1820 F3600
G0 X121.813 Y93.624 F7200
G1 X133.957 Y81.480 E37.7533 F3600
G0 X133.398 Y81.474 F7200
G1 X121.806 Y93.065 E38.2985 F3600
G0 X121.828 Y92.478 F7200
G1 X132.810 Y81.496 E38.8151 F3600
G0 X132.188 Y81.551 F7200
G1 X121.884 Y91.856 E39.2998 F3600
G0 X121.980 Y91.194 F7200
G1 X131.526 Y81.648 E39.7488 F3600
G0 X130.815 Y81.793 F7200
G1 X122.126 Y90.483 E40.1575 F3600
G0 X122.340 Y89.702 F7200
G1 X130.034 Y82.008 E40.5194 F3600
G0 X129.154 Y82.323 F7200
G1 X122.655 Y88.822 E40.8251 F3600
G0 X123.140 Y87.771 F7200
G1 X128.104 Y82.807 E41.0586 F3600
G0 X126.606 Y83.740 F7200
G1 X124.072 Y86.274 E41.1778 F3600
; ------------------------------------
; Layer #2
; ------------------------------------
G92 E0 ;reset extr
;segType:HShell
G0 F3000 E-1.0000
G0 F1200 Z2.000
G0 X126.966 Y83.486 F7200
G0 F3000 E0.0000
G1 X143.264 Y99.785 E0.7666 F3600
;segType:Perimeter
G0 X143.817 Y99.955 F7200
G1 X143.542 Y100.706 E0.7932 F2160
G1 X143.210 Y101.130 E0.8111
G1 X142.804 Y101.602 E0.8318
G1 X142.375 Y102.053 E0.8526
G1 X141.933 Y102.473 E0.8728
G1 X141.472 Y102.871 E0.8931
G1 X140.979 Y103.255 E0.9139
G1 X140.481 Y103.605 E0.9341
G1 X139.951 Y103.939 E0.9550
G1 X139.436 Y104.231 E0.9746
G1 X138.877 Y104.512 E0.9955
G1 X138.320 Y104.759 E1.0157
G1 X137.735 Y104.984 E1.0366
G1 X137.175 Y105.169 E1.0562
G1 X136.571 Y105.336 E1.0770
G1 X135.958 Y105.472 E1.0979
G1 X135.378 Y105.573 E1.1175
G1 X134.755 Y105.650 E1.1384
G1 X134.149 Y105.694 E1.1586
G1 X133.521 Y105.708 E1.1795
G1 X132.934 Y105.694 E1.1990
G1 X132.328 Y105.650 E1.2192
G1 X131.704 Y105.573 E1.2401
G1 X131.105 Y105.469 E1.2603
G1 X130.512 Y105.336 E1.2806
G1 X129.908 Y105.169 E1.3014
G1 X129.314 Y104.972 E1.3222
G1 X128.763 Y104.759 E1.3419
G1 X128.190 Y104.505 E1.3627
G1 X127.647 Y104.231 E1.3829
G1 X127.104 Y103.923 E1.4037
G1 X126.590 Y103.597 E1.4240
G1 X126.092 Y103.246 E1.4442
G1 X125.601 Y102.862 E1.4649
G1 X125.140 Y102.464 E1.4852
G1 X124.699 Y102.043 E1.5055
G1 X124.278 Y101.602 E1.5258
G1 X123.873 Y101.130 E1.5464
G1 X123.498 Y100.649 E1.5667
G1 X123.146 Y100.150 E1.5870
G1 X122.826 Y99.644 E1.6070
G1 X122.519 Y99.104 E1.6276
G1 X122.240 Y98.549 E1.6483
G1 X121.993 Y97.991 E1.6686
G1 X121.770 Y97.412 E1.6892
G1 X121.579 Y96.832 E1.7095
G1 X121.416 Y96.243 E1.7298
G1 X121.281 Y95.639 E1.7504
G1 X121.177 Y95.045 E1.7705
G1 X121.102 Y94.431 E1.7911
G1 X121.057 Y93.821 E1.8114
G1 X121.042 Y93.203 E1.8320
G1 X121.057 Y92.598 E1.8521
G1 X121.102 Y91.982 E1.8727
G1 X121.178 Y91.368 E1.8932
G1 X121.282 Y90.772 E1.9133
G1 X121.417 Y90.169 E1.9339
G1 X121.580 Y89.579 E1.9542
G1 X121.774 Y88.993 E1.9748
G1 X121.995 Y88.422 E1.9951
G1 X122.243 Y87.863 E2.0155
G1 X122.518 Y87.316 E2.0358
G1 X122.822 Y86.779 E2.0564
G1 X123.150 Y86.262 E2.0767
G1 X123.503 Y85.762 E2.0971
G1 X123.882 Y85.276 E2.1176
G1 X124.279 Y84.816 E2.1378
G1 X124.704 Y84.369 E2.1583
G1 X125.148 Y83.947 E2.1787
G1 X125.611 Y83.547 E2.1990
G1 X126.099 Y83.167 E2.2196
G1 X126.600 Y82.814 E2.2400
G1 X127.117 Y82.487 E2.2604
G1 X127.651 Y82.185 E2.2807
G1 X128.198 Y81.909 E2.3011
G1 X128.763 Y81.659 E2.3217
G1 X129.335 Y81.439 E2.3421
G1 X129.912 Y81.248 E2.3623
G1 X130.508 Y81.083 E2.3828
G1 X131.101 Y80.950 E2.4030
G1 X131.704 Y80.845 E2.4234
G1 X132.318 Y80.770 E2.4440
G1 X132.924 Y80.725 E2.4642
G1 X133.547 Y80.710 E2.4849
G1 X134.159 Y80.725 E2.5053
G1 X134.765 Y80.770 E2.5255
G1 X135.379 Y80.845 E2.5461
G1 X135.982 Y80.950 E2.5664
G1 X136.575 Y81.083 E2.5866
G1 X137.171 Y81.248 E2.6072
G1 X137.748 Y81.439 E2.6274
G1 X138.329 Y81.663 E2.6481
G1 X138.885 Y81.909 E2.6684
G1 X139.432 Y82.185 E2.6887
G1 X139.966 Y82.487 E2.7091
G1 X140.483 Y82.814 E2.7295
G1 X140.984 Y83.167 E2.7499
G1 X141.472 Y83.547 E2.7704
G1 X141.935 Y83.947 E2.7908
G1 X142.382 Y84.373 E2.8113
G1 X142.804 Y84.816 E2.8317
G1 X143.207 Y85.284 E2.8522
G1 X143.580 Y85.762 E2.8724
G1 X143.936 Y86.267 E2.8929
G1 X144.266 Y86.789 E2.9135
G1 X144.565 Y87.316 E2.9336
G1 X144.843 Y87.868 E2.9542
G1 X145.090 Y88.428 E2.9745
G1 X145.312 Y89.004 E2.9951
G1 X145.502 Y89.579 E3.0152
G1 X145.666 Y90.169 E3.0356
G1 X145.801 Y90.772 E3.0561
G1 X145.906 Y91.381 E3.0767
G1 X145.981 Y91.988 E3.0970
G1 X146.026 Y92.598 E3.1174
G1 X146.041 Y93.203 E3.1375
G1 X146.026 Y93.821 E3.1581
G1 X145.981 Y94.438 E3.1786
G1 X145.905 Y95.045 E3.1990
G1 X145.799 Y95.655 E3.2196
G1 X145.665 Y96.252 E3.2399
G1 X145.502 Y96.841 E3.2602
G1 X145.307 Y97.430 E3.2809
G1 X145.087 Y98.000 E3.3012
G1 X144.839 Y98.558 E3.3215
G1 X144.564 Y99.104 E3.3418
G1 X144.257 Y99.644 E3.3625
G1 X143.936 Y100.150 E3.3824
G1 X143.613 Y100.610 E3.4011
G0 X142.974 Y101.091 F7200
;segType:Loop
G0 X142.580 Y101.249
G1 X142.508 Y101.333 E3.4048 F3600
G1 X142.092 Y101.770 E3.4249
G1 X141.664 Y102.176 E3.4445
G1 X141.218 Y102.562 E3.4641
G1 X140.741 Y102.933 E3.4842
G1 X140.259 Y103.273 E3.5038
G1 X139.746 Y103.596 E3.5240
G1 X139.248 Y103.878 E3.5430
G1 X138.706 Y104.151 E3.5632
G1 X138.168 Y104.389 E3.5828
G1 X137.600 Y104.607 E3.6030
G1 X137.059 Y104.786 E3.6219
G1 X136.474 Y104.948 E3.6421
G1 X135.880 Y105.080 E3.6624
G1 X135.320 Y105.177 E3.6813
G1 X134.716 Y105.251 E3.7015
G1 X134.130 Y105.294 E3.7211
G1 X133.522 Y105.308 E3.7413
G1 X132.953 Y105.294 E3.7602
G1 X132.367 Y105.251 E3.7798
G1 X131.763 Y105.177 E3.8000
G1 X131.183 Y105.077 E3.8196
G1 X130.609 Y104.948 E3.8391
G1 X130.024 Y104.786 E3.8593
G1 X129.449 Y104.595 E3.8795
G1 X128.916 Y104.389 E3.8985
G1 X128.361 Y104.143 E3.9187
G1 X127.836 Y103.879 E3.9383
G1 X127.310 Y103.580 E3.9584
G1 X126.812 Y103.265 E3.9780
G1 X126.330 Y102.925 E3.9976
G1 X125.855 Y102.553 E4.0176
G1 X125.409 Y102.168 E4.0373
G1 X124.982 Y101.760 E4.0569
G1 X124.575 Y101.333 E4.0765
G1 X124.182 Y100.877 E4.0965
G1 X123.819 Y100.411 E4.1162
G1 X123.479 Y99.928 E4.1358
G1 X123.169 Y99.438 E4.1551
G1 X122.872 Y98.915 E4.1751
G1 X122.602 Y98.378 E4.1951
G1 X122.362 Y97.838 E4.2148
G1 X122.147 Y97.278 E4.2347
G1 X121.962 Y96.716 E4.2544
G1 X121.804 Y96.146 E4.2740
G1 X121.673 Y95.561 E4.2940
G1 X121.573 Y94.986 E4.3134
G1 X121.500 Y94.391 E4.3333
G1 X121.456 Y93.802 E4.3530
G1 X121.442 Y93.203 E4.3729
G1 X121.456 Y92.618 E4.3924
G1 X121.501 Y92.021 E4.4123
G1 X121.574 Y91.427 E4.4322
G1 X121.674 Y90.850 E4.4517
G1 X121.805 Y90.266 E4.4716
G1 X121.963 Y89.696 E4.4913
G1 X122.151 Y89.128 E4.5112
G1 X122.364 Y88.576 E4.5308
G1 X122.605 Y88.034 E4.5505
G1 X122.871 Y87.505 E4.5702
G1 X123.166 Y86.985 E4.5901
G1 X123.483 Y86.485 E4.6098
G1 X123.824 Y86.000 E4.6295
G1 X124.191 Y85.530 E4.6494
G1 X124.575 Y85.085 E4.6689
G1 X124.987 Y84.652 E4.6888
G1 X125.416 Y84.244 E4.7085
G1 X125.865 Y83.857 E4.7282
G1 X126.337 Y83.489 E4.7481
G1 X126.822 Y83.147 E4.7679
G1 X127.323 Y82.830 E4.7876
G1 X127.839 Y82.538 E4.8073
G1 X128.369 Y82.271 E4.8270
G1 X128.916 Y82.029 E4.8470
G1 X129.470 Y81.815 E4.8667
G1 X130.028 Y81.631 E4.8862
G1 X130.605 Y81.471 E4.9061
G1 X131.179 Y81.343 E4.9257
G1 X131.763 Y81.241 E4.9454
G1 X132.357 Y81.168 E4.9653
G1 X132.943 Y81.125 E4.9849
G1 X133.547 Y81.110 E5.0050
G1 X134.140 Y81.125 E5.0247
G1 X134.726 Y81.168 E5.0442
G1 X135.320 Y81.241 E5.0641
G1 X135.904 Y81.343 E5.0839
G1 X136.478 Y81.471 E5.1034
G1 X137.055 Y81.631 E5.1233
G1 X137.613 Y81.815 E5.1429
G1 X138.176 Y82.033 E5.1630
G1 X138.714 Y82.271 E5.1825
G1 X139.244 Y82.538 E5.2023
G1 X139.760 Y82.830 E5.2220
G1 X140.261 Y83.147 E5.2417
G1 X140.746 Y83.489 E5.2614
G1 X141.218 Y83.857 E5.2813
G1 X141.666 Y84.244 E5.3010
G1 X142.099 Y84.656 E5.3209
G1 X142.508 Y85.085 E5.3406
G1 X142.898 Y85.537 E5.3605
G1 X143.259 Y86.000 E5.3800
G1 X143.603 Y86.489 E5.3999
G1 X143.923 Y86.994 E5.4198
G1 X144.212 Y87.505 E5.4393
G1 X144.481 Y88.039 E5.4592
G1 X144.721 Y88.581 E5.4789
G1 X144.936 Y89.139 E5.4988
G1 X145.120 Y89.696 E5.5183
G1 X145.278 Y90.266 E5.5380
G1 X145.409 Y90.850 E5.5579
G1 X145.511 Y91.440 E5.5778
G1 X145.583 Y92.028 E5.5975
G1 X145.626 Y92.618 E5.6172
G1 X145.641 Y93.203 E5.6366
G1 X145.626 Y93.801 E5.6566
G1 X145.582 Y94.399 E5.6765
G1 X145.510 Y94.986 E5.6962
G1 X145.407 Y95.577 E5.7161
G1 X145.277 Y96.154 E5.7358
G1 X145.119 Y96.724 E5.7555
G1 X144.930 Y97.295 E5.7754
G1 X144.717 Y97.846 E5.7951
G1 X144.477 Y98.387 E5.8148
G1 X144.211 Y98.915 E5.8344
G1 X143.914 Y99.438 E5.8545
G1 X143.604 Y99.928 E5.8738
G1 X143.257 Y100.420 E5.8938
G1 X142.901 Y100.877 E5.9130
G1 X142.711 Y101.098 E5.9227
;segType:HShell
G0 X143.486 Y99.441 F7200
G1 X127.310 Y83.265 E6.6836 F3600
G0 X127.662 Y83.052 F7200
G1 X143.699 Y99.088 E7.4379 F3600
G0 X143.903 Y98.726 F7200
G1 X128.024 Y82.848 E8.1848 F3600
G0 X128.401 Y82.658 F7200
G1 X144.092 Y98.350 E8.9229 F3600
G0 X144.271 Y97.963 F7200
G1 X128.787 Y82.480 E9.6512 F3600
G0 X129.185 Y82.311 F7200
G1 X144.439 Y97.566 E10.3687 F3600
G0 X144.596 Y97.157 F7200
G1 X129.593 Y82.154 E11.0744 F3600
G0 X130.018 Y82.014 F7200
G1 X144.737 Y96.732 E11.7668 F3600
G0 X144.864 Y96.294 F7200
G1 X130.457 Y81.886 E12.4445 F3600
G0 X130.909 Y81.772 F7200
G1 X144.978 Y95.842 E13.1063 F3600
G0 X145.077 Y95.375 F7200
G1 X131.376 Y81.674 E13.7507 F3600
G0 X131.860 Y81.592 F7200
G1 X145.159 Y94.891 E14.3762 F3600
G0 X145.221 Y94.388 F7200
G1 X132.363 Y81.530 E14.9810 F3600
G0 X132.889 Y81.490 F7200
G1 X145.261 Y93.862 E15.5630 F3600
G0 X145.278 Y93.313 F7200
G1 X133.437 Y81.473 E16.1199 F3600
G0 X134.012 Y81.482 F7200
G1 X145.269 Y92.739 E16.6494 F3600
G0 X145.230 Y92.134 F7200
G1 X134.617 Y81.521 E17.1486 F3600
G0 X135.258 Y81.596 F7200
G1 X145.154 Y91.493 E17.6141 F3600
G0 X145.029 Y90.801 F7200
G1 X135.949 Y81.722 E18.0412 F3600
G0 X136.699 Y81.906 F7200
G1 X144.844 Y90.051 E18.4243 F3600
G0 X144.582 Y89.224 F7200
G1 X137.527 Y82.168 E18.7562 F3600
G0 X138.490 Y82.566 F7200
G1 X144.185 Y88.261 E19.0240 F3600
G0 X143.517 Y87.027 F7200
G1 X139.723 Y83.233 E19.2025 F3600
G0 X126.634 Y83.720 F7200
G1 X143.030 Y100.117 E19.9738 F3600
G0 X142.786 Y100.438 F7200
G1 X126.312 Y83.964 E20.7486 F3600
G0 X125.999 Y84.217 F7200
G1 X142.534 Y100.751 E21.5264 F3600
G0 X142.272 Y101.055 F7200
G1 X125.695 Y84.479 E22.3061 F3600
G0 X125.404 Y84.753 F7200
G1 X141.998 Y101.347 E23.0866 F3600
G0 X141.716 Y101.631 F7200
G1 X125.120 Y85.035 E23.8672 F3600
G0 X124.844 Y85.325 F7200
G1 X141.426 Y101.906 E24.6472 F3600
G0 X141.122 Y102.168 F7200
G1 X124.582 Y85.628 E25.4252 F3600
G0 X124.328 Y85.940 F7200
G1 X140.811 Y102.422 E26.2005 F3600
G0 X140.491 Y102.669 F7200
G1 X124.082 Y86.259 E26.9723 F3600
G0 X123.848 Y86.591 F7200
G1 X140.159 Y102.902 E27.7395 F3600
G0 X139.817 Y103.126 F7200
G1 X123.625 Y86.934 E28.5012 F3600
G0 X123.410 Y87.285 F7200
G1 X139.466 Y103.341 E29.2564 F3600
G0 X139.105 Y103.545 F7200
G1 X123.205 Y87.646 E30.0043 F3600
G0 X123.015 Y88.021 F7200
G1 X138.730 Y103.736 E30.7435 F3600
G0 X138.345 Y103.917 F7200
G1 X122.834 Y88.405 E31.4731 F3600
G0 X122.663 Y88.801 F7200
G1 X137.950 Y104.087 E32.1921 F3600
G0 X137.541 Y104.244 F7200
G1 X122.506 Y89.209 E32.8993 F3600
G0 X122.364 Y89.632 F7200
G1 X137.118 Y104.387 E33.5933 F3600
G0 X136.682 Y104.516 F7200
G1 X122.234 Y90.068 E34.2729 F3600
G0 X122.118 Y90.518 F7200
G1 X136.232 Y104.632 E34.9368 F3600
G0 X135.768 Y104.734 F7200
G1 X122.017 Y90.982 E35.5836 F3600
G0 X121.933 Y91.465 F7200
G1 X135.286 Y104.817 E36.2117 F3600
G0 X134.783 Y104.880 F7200
G1 X121.870 Y91.967 E36.8191 F3600
G0 X121.827 Y92.490 F7200
G1 X134.261 Y104.924 E37.4039 F3600
G0 X133.715 Y104.944 F7200
G1 X121.806 Y93.035 E37.9641 F3600
G0 X121.812 Y93.606 F7200
G1 X133.144 Y104.939 E38.4971 F3600
G0 X132.543 Y104.903 F7200
G1 X121.847 Y94.207 E39.0002 F3600
G0 X121.919 Y94.844 F7200
G1 X131.906 Y104.832 E39.4700 F3600
G0 X131.226 Y104.717 F7200
G1 X122.034 Y95.525 E39.9024 F3600
G0 X122.211 Y96.268 F7200
G1 X130.482 Y104.539 E40.2914 F3600
G0 X129.665 Y104.287 F7200
G1 X122.462 Y97.085 E40.6302 F3600
G0 X122.841 Y98.029 F7200
G1 X128.720 Y103.909 E40.9067 F3600
G0 X127.546 Y103.300 F7200
G1 X123.450 Y99.204 E41.0994 F3600
; ------------------------------------
; Layer #3
; ------------------------------------
G92 E0 ;reset extr
;segType:HShell
G0 F3000 E-1.0000
G0 F1200 Z2.200
G0 X143.943 Y98.647 F7200
G0 F3000 E0.0000
G1 X138.979 Y103.611 E0.2335 F3600
G0 X140.477 Y102.678 F7200
G1 X143.011 Y100.145 E0.3526 F3600
;segType:Perimeter
G0 X143.816 Y99.956 F7200
G1 X143.540 Y100.707 E0.3792 F2160
G1 X143.191 Y101.153 E0.3981
G1 X142.805 Y101.601 E0.4177
G1 X142.373 Y102.055 E0.4386
G1 X141.932 Y102.474 E0.4588
G1 X141.472 Y102.871 E0.4790
G1 X140.993 Y103.245 E0.4993
G1 X140.479 Y103.607 E0.5202
G1 X139.945 Y103.943 E0.5411
G1 X139.437 Y104.231 E0.5606
G1 X138.895 Y104.504 E0.5807
G1 X138.319 Y104.760 E0.6017
G1 X137.728 Y104.986 E0.6227
G1 X137.177 Y105.168 E0.6420
G1 X136.594 Y105.330 E0.6622
G1 X135.949 Y105.474 E0.6842
G1 X135.380 Y105.573 E0.7034
G1 X134.779 Y105.647 E0.7235
G1 X134.147 Y105.694 E0.7446
G1 X133.513 Y105.708 E0.7657
G1 X132.936 Y105.694 E0.7849
G1 X132.304 Y105.647 E0.8059
G1 X131.703 Y105.573 E0.8261
G1 X131.106 Y105.469 E0.8462
G1 X130.489 Y105.330 E0.8673
G1 X129.906 Y105.168 E0.8874
G1 X129.307 Y104.969 E0.9084
G1 X128.764 Y104.760 E0.9278
G1 X128.187 Y104.504 E0.9487
G1 X127.646 Y104.231 E0.9689
G1 X127.118 Y103.932 E0.9891
G1 X126.605 Y103.607 E1.0093
G1 X126.090 Y103.245 E1.0302
G1 X125.611 Y102.871 E1.0504
G1 X125.151 Y102.474 E1.0707
G1 X124.697 Y102.042 E1.0915
G1 X124.278 Y101.601 E1.1117
G1 X123.870 Y101.127 E1.1325
G1 X123.506 Y100.660 E1.1522
G1 X123.146 Y100.149 E1.1730
G1 X122.813 Y99.622 E1.1937
G1 X122.519 Y99.104 E1.2135
G1 X122.239 Y98.547 E1.2343
G1 X121.992 Y97.990 E1.2545
G1 X121.769 Y97.409 E1.2752
G1 X121.581 Y96.842 E1.2951
G1 X121.416 Y96.242 E1.3158
G1 X121.282 Y95.647 E1.3361
G1 X121.176 Y95.035 E1.3568
G1 X121.102 Y94.429 E1.3771
G1 X121.057 Y93.820 E1.3974
G1 X121.042 Y93.200 E1.4180
G1 X121.057 Y92.590 E1.4383
G1 X121.102 Y91.981 E1.4586
G1 X121.176 Y91.384 E1.4786
G1 X121.283 Y90.764 E1.4995
G1 X121.418 Y90.168 E1.5199
G1 X121.581 Y89.579 E1.5402
G1 X121.770 Y89.006 E1.5602
G1 X121.996 Y88.421 E1.5811
G1 X122.243 Y87.862 E1.6014
G1 X122.518 Y87.316 E1.6218
G1 X122.823 Y86.778 E1.6424
G1 X123.151 Y86.262 E1.6627
G1 X123.503 Y85.762 E1.6830
G1 X123.884 Y85.274 E1.7036
G1 X124.283 Y84.811 E1.7239
G1 X124.705 Y84.369 E1.7443
G1 X125.148 Y83.947 E1.7646
G1 X125.617 Y83.543 E1.7852
G1 X126.100 Y83.166 E1.8056
G1 X126.601 Y82.814 E1.8260
G1 X127.118 Y82.486 E1.8463
G1 X127.651 Y82.184 E1.8667
G1 X128.198 Y81.909 E1.8871
G1 X128.766 Y81.658 E1.9077
G1 X129.330 Y81.440 E1.9278
G1 X129.919 Y81.246 E1.9484
G1 X130.502 Y81.085 E1.9686
G1 X131.107 Y80.949 E1.9892
G1 X131.710 Y80.844 E2.0096
G1 X132.318 Y80.770 E2.0299
G1 X132.929 Y80.725 E2.0503
G1 X133.549 Y80.710 E2.0709
G1 X134.154 Y80.725 E2.0910
G1 X134.772 Y80.770 E2.1117
G1 X135.380 Y80.846 E2.1320
G1 X135.983 Y80.950 E2.1524
G1 X136.581 Y81.085 E2.1728
G1 X137.171 Y81.248 E2.1932
G1 X137.753 Y81.440 E2.2135
G1 X138.331 Y81.664 E2.2341
G1 X138.884 Y81.909 E2.2543
G1 X139.438 Y82.188 E2.2749
G1 X139.964 Y82.486 E2.2950
G1 X140.488 Y82.818 E2.3156
G1 X140.983 Y83.166 E2.3358
G1 X141.466 Y83.543 E2.3561
G1 X141.935 Y83.947 E2.3767
G1 X142.383 Y84.374 E2.3973
G1 X142.805 Y84.817 E2.4176
G1 X143.204 Y85.280 E2.4380
G1 X143.584 Y85.767 E2.4585
G1 X143.936 Y86.268 E2.4789
G1 X144.267 Y86.791 E2.4995
G1 X144.565 Y87.316 E2.5196
G1 X144.843 Y87.869 E2.5401
G1 X145.090 Y88.428 E2.5605
G1 X145.313 Y89.006 E2.5811
G1 X145.505 Y89.587 E2.6014
G1 X145.665 Y90.168 E2.6215
G1 X145.801 Y90.772 E2.6421
G1 X145.907 Y91.384 E2.6627
G1 X145.981 Y91.990 E2.6830
G1 X146.026 Y92.599 E2.7033
G1 X146.041 Y93.210 E2.7237
G1 X146.026 Y93.820 E2.7440
G1 X145.980 Y94.440 E2.7646
G1 X145.905 Y95.046 E2.7849
G1 X145.803 Y95.636 E2.8049
G1 X145.664 Y96.254 E2.8259
G1 X145.502 Y96.842 E2.8462
G1 X145.314 Y97.409 E2.8661
G1 X145.085 Y98.003 E2.8872
G1 X144.838 Y98.560 E2.9075
G1 X144.564 Y99.104 E2.9278
G1 X144.263 Y99.634 E2.9481
G1 X143.928 Y100.162 E2.9689
G1 X143.612 Y100.611 E2.9871
G0 X142.973 Y101.092 F7200
;segType:Loop
G0 X142.579 Y101.251
G1 X142.509 Y101.332 E2.9907 F3600
G1 X142.090 Y101.772 E3.0109
G1 X141.664 Y102.177 E3.0305
G1 X141.218 Y102.562 E3.0500
G1 X140.754 Y102.924 E3.0696
G1 X140.257 Y103.274 E3.0898
G1 X139.740 Y103.600 E3.1102
G1 X139.248 Y103.878 E3.1289
G1 X138.724 Y104.142 E3.1485
G1 X138.166 Y104.390 E3.1688
G1 X137.594 Y104.609 E3.1892
G1 X137.061 Y104.785 E3.2078
G1 X136.497 Y104.942 E3.2273
G1 X135.871 Y105.081 E3.2486
G1 X135.321 Y105.177 E3.2672
G1 X134.739 Y105.249 E3.2867
G1 X134.128 Y105.294 E3.3071
G1 X133.513 Y105.308 E3.3275
G1 X132.956 Y105.294 E3.3461
G1 X132.344 Y105.249 E3.3665
G1 X131.762 Y105.177 E3.3860
G1 X131.185 Y105.077 E3.4055
G1 X130.587 Y104.942 E3.4259
G1 X130.022 Y104.786 E3.4453
G1 X129.442 Y104.592 E3.4657
G1 X128.917 Y104.390 E3.4844
G1 X128.359 Y104.142 E3.5047
G1 X127.835 Y103.878 E3.5242
G1 X127.323 Y103.588 E3.5438
G1 X126.827 Y103.274 E3.5633
G1 X126.329 Y102.924 E3.5836
G1 X125.865 Y102.562 E3.6031
G1 X125.420 Y102.177 E3.6227
G1 X124.980 Y101.759 E3.6429
G1 X124.574 Y101.333 E3.6625
G1 X124.179 Y100.873 E3.6826
G1 X123.827 Y100.422 E3.7017
G1 X123.479 Y99.927 E3.7218
G1 X123.156 Y99.416 E3.7419
G1 X122.872 Y98.916 E3.7610
G1 X122.601 Y98.376 E3.7811
G1 X122.362 Y97.837 E3.8007
G1 X122.146 Y97.275 E3.8208
G1 X121.964 Y96.726 E3.8400
G1 X121.804 Y96.145 E3.8600
G1 X121.674 Y95.569 E3.8797
G1 X121.572 Y94.977 E3.8997
G1 X121.500 Y94.390 E3.9193
G1 X121.456 Y93.801 E3.9390
G1 X121.442 Y93.200 E3.9589
G1 X121.457 Y92.610 E3.9786
G1 X121.501 Y92.020 E3.9983
G1 X121.572 Y91.442 E4.0176
G1 X121.676 Y90.842 E4.0379
G1 X121.806 Y90.265 E4.0576
G1 X121.964 Y89.695 E4.0772
G1 X122.146 Y89.141 E4.0966
G1 X122.365 Y88.574 E4.1168
G1 X122.605 Y88.033 E4.1365
G1 X122.871 Y87.505 E4.1562
G1 X123.167 Y86.984 E4.1761
G1 X123.483 Y86.484 E4.1958
G1 X123.824 Y86.000 E4.2155
G1 X124.193 Y85.528 E4.2354
G1 X124.580 Y85.080 E4.2551
G1 X124.988 Y84.652 E4.2748
G1 X125.417 Y84.244 E4.2945
G1 X125.871 Y83.852 E4.3144
G1 X126.338 Y83.488 E4.3341
G1 X126.823 Y83.146 E4.3538
G1 X127.324 Y82.829 E4.3736
G1 X127.840 Y82.537 E4.3933
G1 X128.369 Y82.271 E4.4130
G1 X128.919 Y82.028 E4.4330
G1 X129.465 Y81.817 E4.4524
G1 X130.035 Y81.629 E4.4724
G1 X130.599 Y81.473 E4.4919
G1 X131.185 Y81.341 E4.5118
G1 X131.769 Y81.240 E4.5316
G1 X132.357 Y81.168 E4.5513
G1 X132.949 Y81.124 E4.5710
G1 X133.549 Y81.110 E4.5910
G1 X134.134 Y81.124 E4.6104
G1 X134.733 Y81.169 E4.6304
G1 X135.321 Y81.241 E4.6501
G1 X135.905 Y81.343 E4.6698
G1 X136.484 Y81.473 E4.6896
G1 X137.055 Y81.631 E4.7093
G1 X137.618 Y81.817 E4.7290
G1 X138.178 Y82.033 E4.7490
G1 X138.713 Y82.271 E4.7684
G1 X139.249 Y82.541 E4.7884
G1 X139.759 Y82.829 E4.8079
G1 X140.266 Y83.151 E4.8278
G1 X140.745 Y83.488 E4.8473
G1 X141.212 Y83.852 E4.8670
G1 X141.666 Y84.243 E4.8870
G1 X142.100 Y84.657 E4.9069
G1 X142.508 Y85.085 E4.9266
G1 X142.894 Y85.533 E4.9463
G1 X143.263 Y86.006 E4.9662
G1 X143.603 Y86.490 E4.9859
G1 X143.924 Y86.996 E5.0058
G1 X144.212 Y87.505 E5.0252
G1 X144.481 Y88.040 E5.0452
G1 X144.721 Y88.581 E5.0649
G1 X144.936 Y89.141 E5.0848
G1 X145.122 Y89.703 E5.1045
G1 X145.277 Y90.265 E5.1239
G1 X145.409 Y90.850 E5.1438
G1 X145.511 Y91.442 E5.1638
G1 X145.583 Y92.029 E5.1835
G1 X145.626 Y92.619 E5.2031
G1 X145.641 Y93.210 E5.2228
G1 X145.626 Y93.801 E5.2425
G1 X145.582 Y94.400 E5.2625
G1 X145.509 Y94.987 E5.2821
G1 X145.411 Y95.558 E5.3014
G1 X145.276 Y96.157 E5.3218
G1 X145.119 Y96.725 E5.3414
G1 X144.937 Y97.274 E5.3607
G1 X144.716 Y97.849 E5.3812
G1 X144.476 Y98.388 E5.4008
G1 X144.211 Y98.916 E5.4204
G1 X143.920 Y99.429 E5.4400
G1 X143.596 Y99.940 E5.4602
G1 X143.256 Y100.421 E5.4798
G1 X142.882 Y100.899 E5.4999
G1 X142.710 Y101.099 E5.5087
;segType:HShell
G0 X144.427 Y97.597 F7200
G1 X137.929 Y104.095 E5.8144 F3600
G0 X137.048 Y104.410 F7200
G1 X144.743 Y96.716 E6.1763 F3600
G0 X144.957 Y95.936 F7200
G1 X136.269 Y104.624 E6.5849 F3600
G0 X135.556 Y104.771 F7200
G1 X145.103 Y95.224 E7.0340 F3600
G0 X145.199 Y94.562 F7200
G1 X134.894 Y104.867 E7.5187 F3600
G0 X134.273 Y104.922 F7200
G1 X145.255 Y93.941 E8.0352 F3600
G0 X145.277 Y93.353 F7200
G1 X133.686 Y104.944 E8.5804 F3600
G0 X133.126 Y104.938 F7200
G1 X145.271 Y92.794 E9.1517 F3600
G0 X145.239 Y92.260 F7200
G1 X132.592 Y104.906 E9.7465 F3600
G0 X132.080 Y104.853 F7200
G1 X145.186 Y91.747 E10.3630 F3600
G0 X145.113 Y91.254 F7200
G1 X131.586 Y104.781 E10.9993 F3600
G0 X131.111 Y104.691 F7200
G1 X145.023 Y90.778 E11.6537 F3600
G0 X144.918 Y90.318 F7200
G1 X130.650 Y104.586 E12.3248 F3600
G0 X130.207 Y104.463 F7200
G1 X144.796 Y89.875 E13.0110 F3600
G0 X144.658 Y89.447 F7200
G1 X129.779 Y104.325 E13.7109 F3600
G0 X129.363 Y104.176 F7200
G1 X144.508 Y89.031 E14.4233 F3600
G0 X144.347 Y88.626 F7200
G1 X128.959 Y104.014 E15.1471 F3600
G0 X128.567 Y103.841 F7200
G1 X144.173 Y88.234 E15.8811 F3600
G0 X143.986 Y87.856 F7200
G1 X128.188 Y103.653 E16.6242 F3600
G0 X127.820 Y103.456 F7200
G1 X143.788 Y87.488 E17.3753 F3600
G0 X143.581 Y87.129 F7200
G1 X127.461 Y103.249 E18.1335 F3600
G0 X127.115 Y103.030 F7200
G1 X143.362 Y86.782 E18.8978 F3600
G0 X143.133 Y86.446 F7200
G1 X126.779 Y102.800 E19.6670 F3600
G0 X126.451 Y102.562 F7200
G1 X142.894 Y86.119 E20.4405 F3600
G0 X142.647 Y85.801 F7200
G1 X126.133 Y102.314 E21.2172 F3600
G0 X125.828 Y102.054 F7200
G1 X142.386 Y85.496 E21.9961 F3600
G0 X142.118 Y85.198 F7200
G1 X125.531 Y101.786 E22.7763 F3600
G0 X125.241 Y101.510 F7200
G1 X141.842 Y84.908 E23.5572 F3600
G0 X141.552 Y84.632 F7200
G1 X124.965 Y101.220 E24.3374 F3600
G0 X124.697 Y100.923 F7200
G1 X141.255 Y84.364 E25.1163 F3600
G0 X140.950 Y84.104 F7200
G1 X124.436 Y100.617 E25.8930 F3600
G0 X124.188 Y100.300 F7200
G1 X140.632 Y83.856 E26.6664 F3600
G0 X140.304 Y83.618 F7200
G1 X123.950 Y99.972 E27.4357 F3600
G0 X123.721 Y99.636 F7200
G1 X139.968 Y83.388 E28.1999 F3600
G0 X139.622 Y83.169 F7200
G1 X123.502 Y99.289 E28.9582 F3600
G0 X123.295 Y98.931 F7200
G1 X139.263 Y82.962 E29.7093 F3600
G0 X138.894 Y82.765 F7200
G1 X123.097 Y98.562 E30.4523 F3600
G0 X122.910 Y98.184 F7200
G1 X138.516 Y82.577 E31.1864 F3600
G0 X138.124 Y82.404 F7200
G1 X122.736 Y97.792 E31.9102 F3600
G0 X122.575 Y97.387 F7200
G1 X137.720 Y82.243 E32.6226 F3600
G0 X137.304 Y82.093 F7200
G1 X122.425 Y96.972 E33.3224 F3600
G0 X122.288 Y96.543 F7200
G1 X136.876 Y81.955 E34.0086 F3600
G0 X136.433 Y81.832 F7200
G1 X122.165 Y96.100 E34.6797 F3600
G0 X122.059 Y95.640 F7200
G1 X135.973 Y81.727 E35.3342 F3600
G0 X135.497 Y81.637 F7200
G1 X121.970 Y95.164 E35.9704 F3600
G0 X121.897 Y94.671 F7200
G1 X135.003 Y81.565 E36.5869 F3600
G0 X134.491 Y81.512 F7200
G1 X121.844 Y94.159 E37.1818 F3600
G0 X121.812 Y93.624 F7200
G1 X133.957 Y81.480 E37.7530 F3600
G0 X133.398 Y81.474 F7200
G1 X121.806 Y93.065 E38.2982 F3600
G0 X121.828 Y92.478 F7200
G1 X132.810 Y81.496 E38.8148 F3600
G0 X132.188 Y81.551 F7200
G1 X121.884 Y91.856 E39.2995 F3600
G0 X121.980 Y91.194 F7200
G1 X131.526 Y81.648 E39.7485 F3600
G0 X130.815 Y81.793 F7200
G1 X122.126 Y90.482 E40.1572 F3600
G0 X122.340 Y89.702 F7200
G1 X130.034 Y82.009 E40.5191 F3600
G0 X129.154 Y82.323 F7200
G1 X122.656 Y88.821 E40.8248 F3600
G0 X123.140 Y87.771 F7200
G1 X128.103 Y82.808 E41.0582 F3600
G0 X126.607 Y83.739 F7200
G1 X124.072 Y86.274 E41.1775 F3600
; ------------------------------------
; Layer #4
; ------------------------------------
G92 E0 ;reset extr
;segType:Infill
G0 F3000 E-1.0000
G0 F1200 Z2.400
G0 X127.663 Y83.052 F7200
G0 F3000 E0.0000
G1 X143.698 Y99.088 E0.9051 F4500
;segType:Perimeter
G0 X143.815 Y99.958 F7200
G1 X143.539 Y100.709 E0.9317 F2160
G1 X143.188 Y101.158 E0.9507
G1 X142.806 Y101.600 E0.9701
G1 X142.388 Y102.040 E0.9903
G1 X141.931 Y102.475 E1.0113
G1 X141.472 Y102.871 E1.0315
G1 X140.994 Y103.244 E1.0516
G1 X140.477 Y103.608 E1.0727
G1 X139.939 Y103.947 E1.0938
G1 X139.411 Y104.244 E1.1140
G1 X138.870 Y104.516 E1.1341
G1 X138.317 Y104.760 E1.1542
G1 X137.721 Y104.988 E1.1754
G1 X137.180 Y105.167 E1.1944
G1 X136.565 Y105.338 E1.2156
G1 X135.940 Y105.476 E1.2369
G1 X135.381 Y105.573 E1.2558
G1 X134.746 Y105.650 E1.2770
G1 X134.145 Y105.694 E1.2971
G1 X133.505 Y105.708 E1.3184
G1 X132.939 Y105.694 E1.3372
G1 X132.301 Y105.647 E1.3585
G1 X131.702 Y105.573 E1.3786
G1 X131.108 Y105.469 E1.3986
G1 X130.485 Y105.329 E1.4199
G1 X129.903 Y105.168 E1.4399
G1 X129.330 Y104.978 E1.4600
G1 X128.766 Y104.761 E1.4801
G1 X128.185 Y104.503 E1.5013
G1 X127.645 Y104.230 E1.5214
G1 X127.118 Y103.932 E1.5415
G1 X126.606 Y103.608 E1.5617
G1 X126.089 Y103.244 E1.5827
G1 X125.611 Y102.871 E1.6029
G1 X125.152 Y102.475 E1.6230
G1 X124.695 Y102.040 E1.6440
G1 X124.277 Y101.600 E1.6642
G1 X123.867 Y101.124 E1.6851
G1 X123.507 Y100.662 E1.7046
G1 X123.145 Y100.148 E1.7255
G1 X122.820 Y99.634 E1.7457
G1 X122.520 Y99.105 E1.7659
G1 X122.238 Y98.546 E1.7868
G1 X121.992 Y97.989 E1.8070
G1 X121.768 Y97.406 E1.8278
G1 X121.577 Y96.828 E1.8480
G1 X121.415 Y96.241 E1.8683
G1 X121.282 Y95.647 E1.8886
G1 X121.178 Y95.046 E1.9088
G1 X121.101 Y94.428 E1.9295
G1 X121.057 Y93.820 E1.9498
G1 X121.042 Y93.198 E1.9705
G1 X121.058 Y92.588 E1.9908
G1 X121.103 Y91.980 E2.0111
G1 X121.176 Y91.386 E2.0310
G1 X121.284 Y90.762 E2.0521
G1 X121.418 Y90.166 E2.0724
G1 X121.581 Y89.578 E2.0926
G1 X121.769 Y89.009 E2.1126
G1 X121.996 Y88.420 E2.1336
G1 X122.244 Y87.861 E2.1539
G1 X122.518 Y87.316 E2.1742
G1 X122.824 Y86.776 E2.1949
G1 X123.151 Y86.261 E2.2152
G1 X123.503 Y85.761 E2.2355
G1 X123.873 Y85.287 E2.2555
G1 X124.284 Y84.810 E2.2764
G1 X124.705 Y84.368 E2.2967
G1 X125.148 Y83.947 E2.3171
G1 X125.618 Y83.542 E2.3377
G1 X126.101 Y83.165 E2.3581
G1 X126.602 Y82.813 E2.3784
G1 X127.119 Y82.486 E2.3988
G1 X127.652 Y82.184 E2.4192
G1 X128.199 Y81.909 E2.4395
G1 X128.768 Y81.657 E2.4602
G1 X129.330 Y81.440 E2.4802
G1 X129.911 Y81.248 E2.5006
G1 X130.501 Y81.085 E2.5210
G1 X131.108 Y80.949 E2.5417
G1 X131.711 Y80.844 E2.5620
G1 X132.319 Y80.770 E2.5824
G1 X132.929 Y80.724 E2.6027
G1 X133.541 Y80.710 E2.6231
G1 X134.153 Y80.724 E2.6435
G1 X134.774 Y80.771 E2.6641
G1 X135.381 Y80.846 E2.6845
G1 X135.984 Y80.951 E2.7049
G1 X136.582 Y81.085 E2.7252
G1 X137.172 Y81.248 E2.7456
G1 X137.753 Y81.440 E2.7660
G1 X138.324 Y81.661 E2.7863
G1 X138.893 Y81.913 E2.8070
G1 X139.431 Y82.184 E2.8271
G1 X139.972 Y82.491 E2.8477
G1 X140.489 Y82.818 E2.8681
G1 X140.990 Y83.171 E2.8885
G1 X141.465 Y83.542 E2.9085
G1 X141.941 Y83.953 E2.9294
G1 X142.384 Y84.374 E2.9498
G1 X142.805 Y84.817 E2.9701
G1 X143.210 Y85.287 E2.9907
G1 X143.585 Y85.769 E3.0110
G1 X143.937 Y86.268 E3.0314
G1 X144.259 Y86.776 E3.0514
G1 X144.569 Y87.325 E3.0723
G1 X144.843 Y87.871 E3.0926
G1 X145.091 Y88.429 E3.1129
G1 X145.314 Y89.009 E3.1336
G1 X145.505 Y89.589 E3.1539
G1 X145.668 Y90.177 E3.1742
G1 X145.801 Y90.773 E3.1945
G1 X145.907 Y91.386 E3.2152
G1 X145.981 Y91.992 E3.2355
G1 X146.026 Y92.600 E3.2558
G1 X146.041 Y93.223 E3.2765
G1 X146.026 Y93.820 E3.2964
G1 X145.980 Y94.441 E3.3171
G1 X145.905 Y95.046 E3.3374
G1 X145.798 Y95.661 E3.3582
G1 X145.664 Y96.256 E3.3784
G1 X145.501 Y96.843 E3.3987
G1 X145.304 Y97.437 E3.4195
G1 X145.084 Y98.005 E3.4398
G1 X144.845 Y98.546 E3.4594
G1 X144.563 Y99.105 E3.4803
G1 X144.263 Y99.634 E3.5005
G1 X143.938 Y100.148 E3.5207
G1 X143.611 Y100.612 E3.5396
G0 X142.971 Y101.093 F7200
;segType:Loop
G0 X142.578 Y101.252
G1 X142.509 Y101.332 E3.5431 F3600
G1 X142.105 Y101.757 E3.5626
G1 X141.662 Y102.178 E3.5830
G1 X141.218 Y102.562 E3.6025
G1 X140.756 Y102.922 E3.6220
G1 X140.255 Y103.275 E3.6424
G1 X139.734 Y103.603 E3.6628
G1 X139.223 Y103.891 E3.6823
G1 X138.699 Y104.154 E3.7018
G1 X138.165 Y104.390 E3.7213
G1 X137.587 Y104.612 E3.7418
G1 X137.063 Y104.785 E3.7602
G1 X136.468 Y104.949 E3.7807
G1 X135.863 Y105.083 E3.8013
G1 X135.322 Y105.177 E3.8196
G1 X134.707 Y105.252 E3.8402
G1 X134.126 Y105.294 E3.8596
G1 X133.506 Y105.308 E3.8802
G1 X132.958 Y105.294 E3.8984
G1 X132.340 Y105.249 E3.9190
G1 X131.761 Y105.177 E3.9385
G1 X131.186 Y105.077 E3.9579
G1 X130.583 Y104.941 E3.9784
G1 X130.020 Y104.785 E3.9979
G1 X129.465 Y104.601 E4.0173
G1 X128.919 Y104.391 E4.0368
G1 X128.356 Y104.141 E4.0573
G1 X127.834 Y103.877 E4.0767
G1 X127.324 Y103.589 E4.0962
G1 X126.829 Y103.276 E4.1157
G1 X126.327 Y102.922 E4.1361
G1 X125.865 Y102.562 E4.1556
G1 X125.421 Y102.178 E4.1751
G1 X124.978 Y101.757 E4.1954
G1 X124.574 Y101.332 E4.2149
G1 X124.177 Y100.870 E4.2352
G1 X123.828 Y100.423 E4.2540
G1 X123.477 Y99.926 E4.2743
G1 X123.163 Y99.429 E4.2939
G1 X122.873 Y98.917 E4.3134
G1 X122.600 Y98.375 E4.3336
G1 X122.362 Y97.837 E4.3532
G1 X122.145 Y97.272 E4.3733
G1 X121.960 Y96.712 E4.3929
G1 X121.804 Y96.144 E4.4125
G1 X121.674 Y95.568 E4.4321
G1 X121.573 Y94.988 E4.4517
G1 X121.500 Y94.388 E4.4718
G1 X121.456 Y93.800 E4.4914
G1 X121.442 Y93.198 E4.5115
G1 X121.457 Y92.608 E4.5311
G1 X121.501 Y92.019 E4.5507
G1 X121.572 Y91.445 E4.5700
G1 X121.676 Y90.840 E4.5904
G1 X121.806 Y90.264 E4.6100
G1 X121.964 Y89.695 E4.6297
G1 X122.146 Y89.143 E4.6490
G1 X122.366 Y88.573 E4.6693
G1 X122.605 Y88.033 E4.6890
G1 X122.871 Y87.505 E4.7086
G1 X123.168 Y86.982 E4.7286
G1 X123.484 Y86.483 E4.7483
G1 X123.825 Y86.000 E4.7679
G1 X124.183 Y85.541 E4.7873
G1 X124.581 Y85.079 E4.8076
G1 X124.988 Y84.651 E4.8272
G1 X125.417 Y84.243 E4.8469
G1 X125.872 Y83.851 E4.8669
G1 X126.339 Y83.487 E4.8866
G1 X126.824 Y83.146 E4.9063
G1 X127.325 Y82.829 E4.9260
G1 X127.840 Y82.537 E4.9457
G1 X128.370 Y82.271 E4.9654
G1 X128.921 Y82.027 E4.9855
G1 X129.465 Y81.817 E5.0049
G1 X130.027 Y81.631 E5.0246
G1 X130.598 Y81.473 E5.0443
G1 X131.186 Y81.341 E5.0643
G1 X131.770 Y81.240 E5.0840
G1 X132.358 Y81.168 E5.1037
G1 X132.949 Y81.124 E5.1235
G1 X133.541 Y81.110 E5.1432
G1 X134.134 Y81.124 E5.1629
G1 X134.734 Y81.169 E5.1829
G1 X135.322 Y81.242 E5.2026
G1 X135.906 Y81.343 E5.2223
G1 X136.484 Y81.473 E5.2420
G1 X137.056 Y81.631 E5.2617
G1 X137.618 Y81.817 E5.2814
G1 X138.171 Y82.030 E5.3012
G1 X138.721 Y82.275 E5.3212
G1 X139.242 Y82.537 E5.3406
G1 X139.766 Y82.834 E5.3606
G1 X140.267 Y83.151 E5.3803
G1 X140.751 Y83.493 E5.4000
G1 X141.211 Y83.851 E5.4194
G1 X141.673 Y84.249 E5.4397
G1 X142.101 Y84.657 E5.4594
G1 X142.508 Y85.085 E5.4790
G1 X142.900 Y85.540 E5.4990
G1 X143.264 Y86.007 E5.5187
G1 X143.604 Y86.490 E5.5383
G1 X143.915 Y86.982 E5.5577
G1 X144.216 Y87.513 E5.5780
G1 X144.482 Y88.042 E5.5977
G1 X144.721 Y88.582 E5.6173
G1 X144.937 Y89.143 E5.6373
G1 X145.122 Y89.705 E5.6570
G1 X145.280 Y90.274 E5.6766
G1 X145.409 Y90.851 E5.6963
G1 X145.511 Y91.444 E5.7163
G1 X145.583 Y92.031 E5.7360
G1 X145.626 Y92.619 E5.7556
G1 X145.641 Y93.223 E5.7757
G1 X145.626 Y93.800 E5.7949
G1 X145.582 Y94.402 E5.8150
G1 X145.510 Y94.987 E5.8346
G1 X145.405 Y95.583 E5.8547
G1 X145.276 Y96.158 E5.8743
G1 X145.118 Y96.726 E5.8939
G1 X144.927 Y97.302 E5.9141
G1 X144.714 Y97.852 E5.9337
G1 X144.483 Y98.375 E5.9527
G1 X144.210 Y98.917 E5.9729
G1 X143.920 Y99.429 E5.9925
G1 X143.605 Y99.926 E6.0120
G1 X143.255 Y100.423 E6.0323
G1 X142.879 Y100.903 E6.0526
G1 X142.709 Y101.100 E6.0612
;segType:Infill
G0 X141.716 Y101.630 F7200
G1 X125.120 Y85.035 E6.9979 F4500
G0 X123.205 Y87.646 F7200
G1 X139.104 Y103.545 E7.8953 F4500
G0 X135.767 Y104.733 F7200
G1 X122.017 Y90.983 E8.6714 F4500
G0 X122.035 Y95.526 F7200
G1 X131.225 Y104.716 E9.1901 F4500
G0 X145.154 Y91.492 F7200
G1 X135.258 Y81.597 E9.7487 F4500
G0 X130.909 Y81.773 F7200
G1 X144.978 Y95.842 E10.5428 F4500
; ------------------------------------
; Layer #5
; ------------------------------------
G92 E0 ;reset extr
;segType:Loop
G0 F3000 E-1.0000
G0 F1200 Z2.600
G0 X142.577 Y101.254 F7200
G0 F3000 E0.0000
G1 X142.510 Y101.331 E0.0034 F3600
G1 X142.086 Y101.776 E0.0238
G1 X141.662 Y102.179 E0.0433
G1 X141.193 Y102.581 E0.0638
G1 X140.757 Y102.921 E0.0822
G1 X140.252 Y103.277 E0.1028
G1 X139.759 Y103.589 E0.1222
G1 X139.218 Y103.894 E0.1428
G1 X138.696 Y104.156 E0.1623
G1 X138.162 Y104.391 E0.1817
G1 X137.619 Y104.601 E0.2010
G1 X137.026 Y104.796 E0.2218
G1 X136.465 Y104.950 E0.2412
G1 X135.897 Y105.077 E0.2605
G1 X135.324 Y105.177 E0.2799
G1 X134.703 Y105.253 E0.3007
G1 X134.123 Y105.295 E0.3200
G1 X133.542 Y105.308 E0.3393
G1 X132.917 Y105.292 E0.3601
G1 X132.337 Y105.248 E0.3795
G1 X131.760 Y105.177 E0.3988
G1 X131.187 Y105.077 E0.4182
G1 X130.578 Y104.940 E0.4389
G1 X130.018 Y104.784 E0.4583
G1 X129.465 Y104.601 E0.4776
G1 X128.921 Y104.392 E0.4970
G1 X128.353 Y104.140 E0.5177
G1 X127.833 Y103.877 E0.5371
G1 X127.325 Y103.589 E0.5565
G1 X126.803 Y103.258 E0.5770
G1 X126.326 Y102.922 E0.5964
G1 X125.842 Y102.542 E0.6169
G1 X125.422 Y102.179 E0.6354
G1 X124.977 Y101.755 E0.6558
G1 X124.573 Y101.331 E0.6753
G1 X124.190 Y100.887 E0.6948
G1 X123.829 Y100.425 E0.7143
G1 X123.477 Y99.925 E0.7347
G1 X123.163 Y99.428 E0.7542
G1 X122.873 Y98.917 E0.7737
G1 X122.608 Y98.392 E0.7933
G1 X122.361 Y97.835 E0.8135
G1 X122.150 Y97.287 E0.8331
G1 X121.965 Y96.728 E0.8527
G1 X121.803 Y96.143 E0.8729
G1 X121.671 Y95.551 E0.8930
G1 X121.573 Y94.988 E0.9120
G1 X121.501 Y94.403 E0.9316
G1 X121.456 Y93.799 E0.9518
G1 X121.442 Y93.195 E0.9719
G1 X121.457 Y92.606 E0.9915
G1 X121.501 Y92.018 E1.0111
G1 X121.576 Y91.419 E1.0312
G1 X121.677 Y90.838 E1.0508
G1 X121.806 Y90.263 E1.0704
G1 X121.964 Y89.694 E1.0900
G1 X122.153 Y89.122 E1.1101
G1 X122.366 Y88.571 E1.1297
G1 X122.606 Y88.032 E1.1493
G1 X122.871 Y87.505 E1.1690
G1 X123.168 Y86.981 E1.1890
G1 X123.484 Y86.482 E1.2086
G1 X123.825 Y86.000 E1.2283
G1 X124.195 Y85.526 E1.2483
G1 X124.581 Y85.078 E1.2679
G1 X124.989 Y84.651 E1.2876
G1 X125.417 Y84.243 E1.3072
G1 X125.873 Y83.850 E1.3273
G1 X126.341 Y83.486 E1.3470
G1 X126.825 Y83.145 E1.3667
G1 X127.326 Y82.829 E1.3864
G1 X127.841 Y82.537 E1.4061
G1 X128.370 Y82.270 E1.4258
G1 X128.901 Y82.035 E1.4451
G1 X129.476 Y81.813 E1.4656
G1 X130.038 Y81.628 E1.4853
G1 X130.609 Y81.471 E1.5050
G1 X131.187 Y81.341 E1.5247
G1 X131.771 Y81.240 E1.5444
G1 X132.359 Y81.168 E1.5641
G1 X132.949 Y81.124 E1.5838
G1 X133.553 Y81.110 E1.6039
G1 X134.134 Y81.124 E1.6232
G1 X134.724 Y81.168 E1.6429
G1 X135.324 Y81.242 E1.6630
G1 X135.907 Y81.343 E1.6827
G1 X136.485 Y81.473 E1.7024
G1 X137.056 Y81.631 E1.7221
G1 X137.618 Y81.817 E1.7418
G1 X138.182 Y82.035 E1.7619
G1 X138.723 Y82.275 E1.7816
G1 X139.252 Y82.542 E1.8013
G1 X139.767 Y82.834 E1.8210
G1 X140.267 Y83.152 E1.8407
G1 X140.751 Y83.493 E1.8604
G1 X141.226 Y83.864 E1.8804
G1 X141.674 Y84.250 E1.9001
G1 X142.102 Y84.658 E1.9197
G1 X142.508 Y85.086 E1.9394
G1 X142.901 Y85.542 E1.9594
G1 X143.258 Y86.000 E1.9787
G1 X143.605 Y86.492 E1.9987
G1 X143.914 Y86.981 E2.0180
G1 X144.212 Y87.504 E2.0380
G1 X144.482 Y88.043 E2.0580
G1 X144.721 Y88.583 E2.0777
G1 X144.929 Y89.122 E2.0969
G1 X145.123 Y89.707 E2.1174
G1 X145.280 Y90.275 E2.1370
G1 X145.409 Y90.851 E2.1566
G1 X145.510 Y91.433 E2.1762
G1 X145.583 Y92.032 E2.1963
G1 X145.626 Y92.620 E2.2160
G1 X145.641 Y93.226 E2.2361
G1 X145.626 Y93.799 E2.2552
G1 X145.582 Y94.403 E2.2753
G1 X145.510 Y94.988 E2.2949
G1 X145.405 Y95.586 E2.3151
G1 X145.280 Y96.143 E2.3341
G1 X145.118 Y96.728 E2.3543
G1 X144.933 Y97.287 E2.3739
G1 X144.722 Y97.835 E2.3934
G1 X144.474 Y98.392 E2.4137
G1 X144.210 Y98.917 E2.4332
G1 X143.920 Y99.428 E2.4528
G1 X143.606 Y99.925 E2.4723
G1 X143.254 Y100.425 E2.4927
G1 X142.893 Y100.887 E2.5122
G1 X142.707 Y101.102 E2.5216
;segType:Perimeter
G0 X143.814 Y99.959 F7200
G1 X143.538 Y100.710 E2.5482 F2160
G1 X143.202 Y101.141 E2.5664
G1 X142.806 Y101.599 E2.5865
G1 X142.369 Y102.059 E2.6076
G1 X141.930 Y102.476 E2.6278
G1 X141.447 Y102.891 E2.6490
G1 X140.996 Y103.243 E2.6680
G1 X140.474 Y103.610 E2.6892
G1 X139.964 Y103.932 E2.7093
G1 X139.406 Y104.247 E2.7306
G1 X138.867 Y104.517 E2.7506
G1 X138.315 Y104.761 E2.7707
G1 X137.753 Y104.978 E2.7907
G1 X137.142 Y105.179 E2.8121
G1 X136.562 Y105.338 E2.8321
G1 X135.974 Y105.470 E2.8522
G1 X135.382 Y105.572 E2.8721
G1 X134.742 Y105.651 E2.8936
G1 X134.142 Y105.694 E2.9136
G1 X133.542 Y105.709 E2.9336
G1 X132.897 Y105.692 E2.9550
G1 X132.297 Y105.647 E2.9750
G1 X131.701 Y105.572 E2.9950
G1 X131.109 Y105.470 E3.0150
G1 X130.481 Y105.328 E3.0364
G1 X129.901 Y105.167 E3.0564
G1 X129.330 Y104.978 E3.0764
G1 X128.768 Y104.761 E3.0965
G1 X128.182 Y104.501 E3.1178
G1 X127.644 Y104.230 E3.1378
G1 X127.119 Y103.932 E3.1579
G1 X126.581 Y103.591 E3.1791
G1 X126.087 Y103.243 E3.1992
G1 X125.588 Y102.851 E3.2203
G1 X125.153 Y102.476 E3.2394
G1 X124.694 Y102.038 E3.2605
G1 X124.277 Y101.600 E3.2806
G1 X123.881 Y101.141 E3.3008
G1 X123.508 Y100.663 E3.3210
G1 X123.144 Y100.147 E3.3420
G1 X122.820 Y99.634 E3.3621
G1 X122.520 Y99.106 E3.3823
G1 X122.247 Y98.564 E3.4025
G1 X121.992 Y97.988 E3.4235
G1 X121.773 Y97.422 E3.4437
G1 X121.582 Y96.844 E3.4639
G1 X121.415 Y96.240 E3.4847
G1 X121.279 Y95.629 E3.5056
G1 X121.178 Y95.047 E3.5252
G1 X121.103 Y94.443 E3.5455
G1 X121.057 Y93.819 E3.5663
G1 X121.042 Y93.195 E3.5870
G1 X121.058 Y92.586 E3.6073
G1 X121.103 Y91.979 E3.6275
G1 X121.180 Y91.360 E3.6483
G1 X121.284 Y90.760 E3.6685
G1 X121.418 Y90.165 E3.6888
G1 X121.581 Y89.578 E3.7091
G1 X121.777 Y88.987 E3.7298
G1 X121.997 Y88.418 E3.7501
G1 X122.244 Y87.861 E3.7704
G1 X122.518 Y87.316 E3.7906
G1 X122.825 Y86.775 E3.8113
G1 X123.152 Y86.260 E3.8316
G1 X123.503 Y85.761 E3.8519
G1 X123.886 Y85.272 E3.8726
G1 X124.285 Y84.810 E3.8929
G1 X124.706 Y84.368 E3.9132
G1 X125.148 Y83.947 E3.9335
G1 X125.620 Y83.541 E3.9542
G1 X126.102 Y83.164 E3.9745
G1 X126.603 Y82.812 E3.9949
G1 X127.120 Y82.485 E4.0152
G1 X127.653 Y82.184 E4.0356
G1 X128.199 Y81.909 E4.0560
G1 X128.748 Y81.666 E4.0759
G1 X129.341 Y81.437 E4.0970
G1 X129.922 Y81.245 E4.1174
G1 X130.512 Y81.082 E4.1378
G1 X131.109 Y80.949 E4.1581
G1 X131.712 Y80.844 E4.1785
G1 X132.320 Y80.769 E4.1988
G1 X132.929 Y80.724 E4.2192
G1 X133.553 Y80.710 E4.2399
G1 X134.153 Y80.724 E4.2599
G1 X134.763 Y80.769 E4.2802
G1 X135.383 Y80.846 E4.3010
G1 X135.985 Y80.951 E4.3213
G1 X136.582 Y81.085 E4.3417
G1 X137.172 Y81.249 E4.3620
G1 X137.753 Y81.440 E4.3824
G1 X138.335 Y81.665 E4.4031
G1 X138.894 Y81.914 E4.4235
G1 X139.441 Y82.189 E4.4438
G1 X139.973 Y82.491 E4.4642
G1 X140.490 Y82.819 E4.4845
G1 X140.990 Y83.171 E4.5049
G1 X141.480 Y83.555 E4.5256
G1 X141.942 Y83.954 E4.5459
G1 X142.385 Y84.375 E4.5662
G1 X142.805 Y84.817 E4.5865
G1 X143.211 Y85.289 E4.6072
G1 X143.580 Y85.761 E4.6271
G1 X143.937 Y86.269 E4.6478
G1 X144.258 Y86.775 E4.6677
G1 X144.564 Y87.316 E4.6884
G1 X144.844 Y87.872 E4.7091
G1 X145.091 Y88.429 E4.7294
G1 X145.306 Y88.987 E4.7493
G1 X145.506 Y89.590 E4.7704
G1 X145.668 Y90.178 E4.7907
G1 X145.801 Y90.773 E4.8110
G1 X145.905 Y91.374 E4.8312
G1 X145.982 Y91.993 E4.8520
G1 X146.026 Y92.601 E4.8723
G1 X146.041 Y93.226 E4.8931
G1 X146.026 Y93.819 E4.9128
G1 X145.980 Y94.443 E4.9336
G1 X145.905 Y95.047 E4.9538
G1 X145.797 Y95.664 E4.9747
G1 X145.668 Y96.240 E4.9943
G1 X145.501 Y96.844 E5.0152
G1 X145.310 Y97.422 E5.0354
G1 X145.091 Y97.988 E5.0556
G1 X144.836 Y98.564 E5.0765
G1 X144.563 Y99.106 E5.0967
G1 X144.263 Y99.634 E5.1169
G1 X143.939 Y100.147 E5.1371
G1 X143.610 Y100.614 E5.1561
G0 X142.971 Y101.096 F7200
;segType:Infill
G0 X135.558 Y104.769
G1 X145.102 Y95.225 E5.6948 F4500
G0 X145.023 Y90.778 F7200
G1 X131.111 Y104.691 E6.4801 F4500
G0 X127.820 Y103.456 F7200
G1 X143.788 Y87.488 E7.3814 F4500
G0 X141.842 Y84.908 F7200
G1 X125.241 Y101.510 E8.3184 F4500
G0 X123.295 Y98.930 F7200
G1 X139.263 Y82.963 E9.2197 F4500
G0 X135.972 Y81.727 F7200
G1 X122.060 Y95.639 E10.0050 F4500
G0 X121.981 Y91.194 F7200
G1 X131.526 Y81.648 E10.5438 F4500
; ------------------------------------
; Layer #6
; ------------------------------------
G92 E0 ;reset extr
;segType:Infill
G0 F3000 E-1.0000
G0 F1200 Z2.800
G0 X127.663 Y83.052 F7200
G0 F3000 E0.0000
G1 X143.698 Y99.087 E0.9051 F4500
;segType:Perimeter
G0 X143.814 Y99.961 F7200
G1 X143.537 Y100.711 E0.9317 F2160
G1 X143.181 Y101.166 E0.9509
G1 X142.807 Y101.599 E0.9700
G1 X142.367 Y102.061 E0.9912
G1 X141.929 Y102.476 E1.0113
G1 X141.442 Y102.894 E1.0326
G1 X140.966 Y103.265 E1.0527
G1 X140.472 Y103.611 E1.0727
G1 X139.963 Y103.933 E1.0927
G1 X139.440 Y104.229 E1.1127
G1 X138.863 Y104.519 E1.1342
G1 X138.314 Y104.762 E1.1542
G1 X137.754 Y104.978 E1.1742
G1 X137.137 Y105.180 E1.1958
G1 X136.558 Y105.339 E1.2157
G1 X136.023 Y105.459 E1.2340
G1 X135.383 Y105.572 E1.2556
G1 X134.737 Y105.651 E1.2772
G1 X134.140 Y105.694 E1.2971
G1 X133.542 Y105.709 E1.3170
G1 X132.891 Y105.691 E1.3387
G1 X132.294 Y105.646 E1.3586
G1 X131.700 Y105.572 E1.3785
G1 X131.061 Y105.459 E1.4001
G1 X130.477 Y105.327 E1.4200
G1 X129.899 Y105.166 E1.4400
G1 X129.330 Y104.978 E1.4599
G1 X128.728 Y104.744 E1.4814
G1 X128.179 Y104.500 E1.5013
G1 X127.643 Y104.229 E1.5213
G1 X127.120 Y103.933 E1.5413
G1 X126.578 Y103.589 E1.5627
G1 X126.086 Y103.242 E1.5827
G1 X125.584 Y102.847 E1.6039
G1 X125.128 Y102.453 E1.6240
G1 X124.692 Y102.036 E1.6440
G1 X124.276 Y101.599 E1.6641
G1 X123.881 Y101.141 E1.6842
G1 X123.509 Y100.665 E1.7043
G1 X123.143 Y100.145 E1.7255
G1 X122.819 Y99.634 E1.7456
G1 X122.521 Y99.107 E1.7657
G1 X122.237 Y98.542 E1.7868
G1 X121.991 Y97.988 E1.8069
G1 X121.773 Y97.422 E1.8271
G1 X121.583 Y96.846 E1.8473
G1 X121.415 Y96.239 E1.8682
G1 X121.282 Y95.646 E1.8884
G1 X121.178 Y95.047 E1.9086
G1 X121.103 Y94.444 E1.9289
G1 X121.057 Y93.818 E1.9497
G1 X121.042 Y93.192 E1.9706
G1 X121.058 Y92.584 E1.9908
G1 X121.103 Y91.978 E2.0110
G1 X121.180 Y91.358 E2.0318
G1 X121.282 Y90.774 E2.0515
G1 X121.415 Y90.179 E2.0718
G1 X121.581 Y89.577 E2.0926
G1 X121.778 Y88.985 E2.1133
G1 X121.997 Y88.417 E2.1336
G1 X122.244 Y87.860 E2.1538
G1 X122.518 Y87.316 E2.1741
G1 X122.826 Y86.774 E2.1948
G1 X123.153 Y86.259 E2.2151
G1 X123.504 Y85.760 E2.2354
G1 X123.887 Y85.270 E2.2561
G1 X124.286 Y84.809 E2.2764
G1 X124.707 Y84.367 E2.2967
G1 X125.148 Y83.947 E2.3169
G1 X125.621 Y83.540 E2.3377
G1 X126.104 Y83.164 E2.3580
G1 X126.604 Y82.812 E2.3784
G1 X127.121 Y82.485 E2.3987
G1 X127.653 Y82.184 E2.4191
G1 X128.200 Y81.909 E2.4394
G1 X128.746 Y81.666 E2.4593
G1 X129.343 Y81.436 E2.4806
G1 X129.910 Y81.249 E2.5004
G1 X130.513 Y81.082 E2.5213
G1 X131.110 Y80.948 E2.5416
G1 X131.713 Y80.844 E2.5619
G1 X132.320 Y80.769 E2.5823
G1 X132.930 Y80.724 E2.6026
G1 X133.556 Y80.710 E2.6234
G1 X134.153 Y80.724 E2.6433
G1 X134.763 Y80.769 E2.6637
G1 X135.384 Y80.846 E2.6845
G1 X135.986 Y80.951 E2.7048
G1 X136.583 Y81.085 E2.7252
G1 X137.173 Y81.249 E2.7455
G1 X137.753 Y81.441 E2.7658
G1 X138.337 Y81.666 E2.7867
G1 X138.883 Y81.909 E2.8065
G1 X139.442 Y82.190 E2.8273
G1 X139.974 Y82.492 E2.8477
G1 X140.490 Y82.819 E2.8680
G1 X140.990 Y83.172 E2.8884
G1 X141.482 Y83.556 E2.9091
G1 X141.944 Y83.955 E2.9294
G1 X142.385 Y84.376 E2.9497
G1 X142.806 Y84.818 E2.9700
G1 X143.212 Y85.290 E2.9907
G1 X143.579 Y85.760 E3.0106
G1 X143.938 Y86.270 E3.0313
G1 X144.264 Y86.785 E3.0516
G1 X144.565 Y87.316 E3.0718
G1 X144.845 Y87.873 E3.0926
G1 X145.091 Y88.430 E3.1129
G1 X145.316 Y89.013 E3.1336
G1 X145.502 Y89.577 E3.1534
G1 X145.668 Y90.179 E3.1742
G1 X145.801 Y90.774 E3.1944
G1 X145.908 Y91.391 E3.2152
G1 X145.980 Y91.978 E3.2349
G1 X146.026 Y92.602 E3.2557
G1 X146.041 Y93.229 E3.2766
G1 X146.026 Y93.818 E3.2962
G1 X145.980 Y94.444 E3.3171
G1 X145.905 Y95.047 E3.3373
G1 X145.801 Y95.646 E3.3575
G1 X145.668 Y96.239 E3.3777
G1 X145.500 Y96.845 E3.3986
G1 X145.301 Y97.445 E3.4197
G1 X145.091 Y97.988 E3.4390
G1 X144.835 Y98.565 E3.4600
G1 X144.562 Y99.107 E3.4802
G1 X144.264 Y99.634 E3.5003
G1 X143.923 Y100.170 E3.5215
G1 X143.609 Y100.615 E3.5396
G0 X142.969 Y101.095 F7200
;segType:Loop
G0 X142.576 Y101.255
G1 X142.511 Y101.330 E3.5429 F3600
G1 X142.084 Y101.777 E3.5635
G1 X141.661 Y102.179 E3.5829
G1 X141.189 Y102.584 E3.6036
G1 X140.728 Y102.943 E3.6230
G1 X140.250 Y103.278 E3.6424
G1 X139.758 Y103.590 E3.6618
G1 X139.252 Y103.876 E3.6811
G1 X138.692 Y104.157 E3.7019
G1 X138.161 Y104.392 E3.7213
G1 X137.619 Y104.601 E3.7406
G1 X137.021 Y104.797 E3.7615
G1 X136.462 Y104.951 E3.7808
G1 X135.944 Y105.067 E3.7985
G1 X135.324 Y105.176 E3.8194
G1 X134.698 Y105.253 E3.8404
G1 X134.121 Y105.295 E3.8596
G1 X133.542 Y105.308 E3.8789
G1 X132.911 Y105.292 E3.8999
G1 X132.334 Y105.248 E3.9191
G1 X131.760 Y105.177 E3.9384
G1 X131.140 Y105.067 E3.9593
G1 X130.575 Y104.939 E3.9786
G1 X130.016 Y104.783 E3.9979
G1 X129.465 Y104.601 E4.0172
G1 X128.881 Y104.375 E4.0380
G1 X128.351 Y104.138 E4.0573
G1 X127.832 Y103.877 E4.0766
G1 X127.326 Y103.590 E4.0960
G1 X126.800 Y103.256 E4.1167
G1 X126.325 Y102.921 E4.1360
G1 X125.838 Y102.539 E4.1566
G1 X125.397 Y102.157 E4.1760
G1 X124.975 Y101.754 E4.1954
G1 X124.572 Y101.330 E4.2149
G1 X124.190 Y100.887 E4.2343
G1 X123.830 Y100.426 E4.2538
G1 X123.476 Y99.923 E4.2743
G1 X123.163 Y99.428 E4.2937
G1 X122.874 Y98.918 E4.3132
G1 X122.599 Y98.371 E4.3336
G1 X122.361 Y97.835 E4.3531
G1 X122.150 Y97.287 E4.3726
G1 X121.965 Y96.729 E4.3922
G1 X121.803 Y96.142 E4.4124
G1 X121.674 Y95.568 E4.4320
G1 X121.574 Y94.989 E4.4516
G1 X121.501 Y94.405 E4.4711
G1 X121.456 Y93.799 E4.4913
G1 X121.442 Y93.193 E4.5115
G1 X121.457 Y92.604 E4.5311
G1 X121.501 Y92.017 E4.5507
G1 X121.576 Y91.417 E4.5708
G1 X121.674 Y90.852 E4.5899
G1 X121.803 Y90.276 E4.6095
G1 X121.964 Y89.693 E4.6296
G1 X122.154 Y89.120 E4.6497
G1 X122.367 Y88.570 E4.6693
G1 X122.606 Y88.031 E4.6889
G1 X122.871 Y87.504 E4.7085
G1 X123.169 Y86.980 E4.7286
G1 X123.485 Y86.481 E4.7482
G1 X123.825 Y85.999 E4.7678
G1 X124.196 Y85.524 E4.7879
G1 X124.582 Y85.077 E4.8075
G1 X124.990 Y84.650 E4.8272
G1 X125.417 Y84.243 E4.8468
G1 X125.875 Y83.849 E4.8669
G1 X126.342 Y83.485 E4.8866
G1 X126.826 Y83.144 E4.9063
G1 X127.327 Y82.828 E4.9260
G1 X127.842 Y82.536 E4.9456
G1 X128.371 Y82.270 E4.9653
G1 X128.899 Y82.036 E4.9846
G1 X129.478 Y81.813 E5.0052
G1 X130.026 Y81.632 E5.0244
G1 X130.611 Y81.470 E5.0446
G1 X131.188 Y81.341 E5.0642
G1 X131.771 Y81.240 E5.0839
G1 X132.359 Y81.168 E5.1036
G1 X132.949 Y81.124 E5.1233
G1 X133.555 Y81.110 E5.1435
G1 X134.133 Y81.124 E5.1627
G1 X134.724 Y81.168 E5.1824
G1 X135.325 Y81.242 E5.2025
G1 X135.908 Y81.344 E5.2222
G1 X136.486 Y81.474 E5.2419
G1 X137.056 Y81.631 E5.2616
G1 X137.618 Y81.817 E5.2813
G1 X138.184 Y82.036 E5.3015
G1 X138.712 Y82.270 E5.3207
G1 X139.253 Y82.543 E5.3408
G1 X139.768 Y82.835 E5.3605
G1 X140.268 Y83.152 E5.3802
G1 X140.752 Y83.493 E5.3999
G1 X141.228 Y83.865 E5.4200
G1 X141.675 Y84.251 E5.4397
G1 X142.102 Y84.659 E5.4593
G1 X142.509 Y85.086 E5.4789
G1 X142.903 Y85.544 E5.4990
G1 X143.258 Y85.999 E5.5182
G1 X143.605 Y86.492 E5.5383
G1 X143.921 Y86.991 E5.5579
G1 X144.212 Y87.504 E5.5775
G1 X144.483 Y88.044 E5.5976
G1 X144.722 Y88.583 E5.6172
G1 X144.939 Y89.148 E5.6373
G1 X145.119 Y89.693 E5.6564
G1 X145.280 Y90.276 E5.6766
G1 X145.409 Y90.851 E5.6962
G1 X145.512 Y91.449 E5.7163
G1 X145.582 Y92.017 E5.7354
G1 X145.626 Y92.621 E5.7555
G1 X145.641 Y93.229 E5.7757
G1 X145.626 Y93.799 E5.7947
G1 X145.582 Y94.405 E5.8149
G1 X145.509 Y94.989 E5.8345
G1 X145.409 Y95.568 E5.8540
G1 X145.280 Y96.142 E5.8736
G1 X145.118 Y96.729 E5.8939
G1 X144.924 Y97.310 E5.9142
G1 X144.722 Y97.835 E5.9329
G1 X144.474 Y98.394 E5.9533
G1 X144.209 Y98.918 E5.9728
G1 X143.920 Y99.428 E5.9923
G1 X143.591 Y99.947 E6.0127
G1 X143.253 Y100.425 E6.0322
G1 X142.872 Y100.912 E6.0528
G1 X142.706 Y101.103 E6.0612
;segType:Infill
G0 X141.716 Y101.630 F7200
G1 X125.120 Y85.035 E6.9979 F4500
G0 X123.205 Y87.646 F7200
G1 X139.104 Y103.544 E7.8953 F4500
G0 X135.767 Y104.733 F7200
G1 X122.017 Y90.983 E8.6714 F4500
G0 X122.035 Y95.526 F7200
G1 X131.225 Y104.716 E9.1901 F4500
G0 X145.154 Y91.492 F7200
G1 X135.258 Y81.597 E9.7486 F4500
G0 X130.909 Y81.773 F7200
G1 X144.978 Y95.842 E10.5427 F4500
; ------------------------------------
; Layer #7
; ------------------------------------
G92 E0 ;reset extr
;segType:Loop
G0 F3000 E-1.0000
G0 F1200 Z3.000
G0 X142.574 Y101.254 F7200
G0 F3000 E0.0000
G1 X142.486 Y101.357 E0.0045 F3600
G1 X142.082 Y101.779 E0.0239
G1 X141.660 Y102.181 E0.0433
G1 X141.219 Y102.561 E0.0627
G1 X140.725 Y102.945 E0.0835
G1 X140.248 Y103.279 E0.1029
G1 X139.757 Y103.590 E0.1222
G1 X139.253 Y103.876 E0.1415
G1 X138.689 Y104.159 E0.1624
G1 X138.159 Y104.393 E0.1817
G1 X137.619 Y104.601 E0.2010
G1 X137.016 Y104.798 E0.2221
G1 X136.459 Y104.951 E0.2413
G1 X135.895 Y105.077 E0.2605
G1 X135.267 Y105.184 E0.2817
G1 X134.694 Y105.253 E0.3009
G1 X134.119 Y105.295 E0.3201
G1 X133.542 Y105.308 E0.3392
G1 X132.905 Y105.291 E0.3604
G1 X132.330 Y105.248 E0.3796
G1 X131.759 Y105.176 E0.3988
G1 X131.133 Y105.066 E0.4199
G1 X130.570 Y104.938 E0.4391
G1 X130.014 Y104.783 E0.4583
G1 X129.465 Y104.601 E0.4775
G1 X128.877 Y104.373 E0.4985
G1 X128.348 Y104.137 E0.5178
G1 X127.831 Y103.876 E0.5371
G1 X127.326 Y103.590 E0.5563
G1 X126.797 Y103.254 E0.5772
G1 X126.323 Y102.919 E0.5965
G1 X125.865 Y102.561 E0.6158
G1 X125.424 Y102.181 E0.6352
G1 X124.973 Y101.752 E0.6559
G1 X124.572 Y101.330 E0.6753
G1 X124.169 Y100.861 E0.6958
G1 X123.811 Y100.400 E0.7152
G1 X123.476 Y99.923 E0.7346
G1 X123.147 Y99.402 E0.7551
G1 X122.874 Y98.919 E0.7736
G1 X122.598 Y98.370 E0.7940
G1 X122.361 Y97.834 E0.8135
G1 X122.150 Y97.288 E0.8330
G1 X121.958 Y96.706 E0.8534
G1 X121.803 Y96.141 E0.8728
G1 X121.670 Y95.545 E0.8932
G1 X121.574 Y94.990 E0.9119
G1 X121.499 Y94.384 E0.9322
G1 X121.456 Y93.798 E0.9517
G1 X121.442 Y93.210 E0.9713
G1 X121.456 Y92.623 E0.9908
G1 X121.501 Y92.016 E1.0111
G1 X121.576 Y91.414 E1.0313
G1 X121.674 Y90.852 E1.0502
G1 X121.807 Y90.260 E1.0704
G1 X121.964 Y89.693 E1.0900
G1 X122.155 Y89.118 E1.1101
G1 X122.361 Y88.584 E1.1292
G1 X122.606 Y88.030 E1.1493
G1 X122.872 Y87.504 E1.1689
G1 X123.162 Y86.991 E1.1885
G1 X123.486 Y86.480 E1.2086
G1 X123.825 Y85.999 E1.2282
G1 X124.198 Y85.523 E1.2483
G1 X124.583 Y85.077 E1.2679
G1 X124.990 Y84.650 E1.2876
G1 X125.417 Y84.243 E1.3072
G1 X125.876 Y83.848 E1.3273
G1 X126.330 Y83.493 E1.3465
G1 X126.814 Y83.152 E1.3662
G1 X127.327 Y82.827 E1.3864
G1 X127.842 Y82.536 E1.4060
G1 X128.371 Y82.270 E1.4257
G1 X128.927 Y82.025 E1.4459
G1 X129.464 Y81.817 E1.4651
G1 X130.026 Y81.632 E1.4848
G1 X130.612 Y81.470 E1.5050
G1 X131.189 Y81.341 E1.5247
G1 X131.772 Y81.240 E1.5444
G1 X132.360 Y81.168 E1.5640
G1 X132.950 Y81.124 E1.5837
G1 X133.557 Y81.110 E1.6039
G1 X134.133 Y81.124 E1.6231
G1 X134.739 Y81.169 E1.6433
G1 X135.310 Y81.240 E1.6624
G1 X135.894 Y81.341 E1.6821
G1 X136.471 Y81.470 E1.7018
G1 X137.057 Y81.632 E1.7220
G1 X137.618 Y81.817 E1.7417
G1 X138.185 Y82.037 E1.7619
G1 X138.712 Y82.270 E1.7811
G1 X139.240 Y82.536 E1.8007
G1 X139.769 Y82.836 E1.8210
G1 X140.269 Y83.152 E1.8406
G1 X140.752 Y83.493 E1.8603
G1 X141.230 Y83.867 E1.8805
G1 X141.666 Y84.243 E1.8996
G1 X142.093 Y84.649 E1.9192
G1 X142.510 Y85.087 E1.9393
G1 X142.904 Y85.545 E1.9594
G1 X143.266 Y86.011 E1.9791
G1 X143.597 Y86.480 E1.9982
G1 X143.929 Y87.006 E2.0188
G1 X144.211 Y87.504 E2.0379
G1 X144.483 Y88.045 E2.0580
G1 X144.722 Y88.584 E2.0776
G1 X144.939 Y89.150 E2.0978
G1 X145.124 Y89.710 E2.1174
G1 X145.280 Y90.278 E2.1370
G1 X145.409 Y90.852 E2.1566
G1 X145.510 Y91.432 E2.1762
G1 X145.582 Y92.016 E2.1957
G1 X145.627 Y92.622 E2.2159
G1 X145.640 Y93.232 E2.2362
G1 X145.626 Y93.798 E2.2551
G1 X145.584 Y94.384 E2.2746
G1 X145.509 Y94.989 E2.2949
G1 X145.404 Y95.592 E2.3152
G1 X145.280 Y96.140 E2.3339
G1 X145.117 Y96.730 E2.3543
G1 X144.923 Y97.314 E2.3747
G1 X144.722 Y97.834 E2.3933
G1 X144.473 Y98.396 E2.4137
G1 X144.209 Y98.918 E2.4332
G1 X143.903 Y99.455 E2.4537
G1 X143.589 Y99.949 E2.4732
G1 X143.252 Y100.427 E2.4926
G1 X142.869 Y100.915 E2.5133
G1 X142.705 Y101.103 E2.5216
;segType:Perimeter
G0 X143.813 Y99.962 F7200
G1 X143.536 Y100.713 E2.5482 F2160
G1 X143.177 Y101.170 E2.5675
G1 X142.781 Y101.626 E2.5876
G1 X142.365 Y102.063 E2.6077
G1 X141.928 Y102.478 E2.6277
G1 X141.472 Y102.870 E2.6477
G1 X140.962 Y103.267 E2.6692
G1 X140.470 Y103.612 E2.6892
G1 X139.963 Y103.933 E2.7092
G1 X139.441 Y104.229 E2.7291
G1 X138.860 Y104.521 E2.7508
G1 X138.312 Y104.763 E2.7707
G1 X137.754 Y104.978 E2.7906
G1 X137.132 Y105.181 E2.8124
G1 X136.555 Y105.340 E2.8322
G1 X135.973 Y105.470 E2.8521
G1 X135.325 Y105.580 E2.8739
G1 X134.733 Y105.651 E2.8938
G1 X134.138 Y105.694 E2.9136
G1 X133.542 Y105.709 E2.9335
G1 X132.885 Y105.691 E2.9553
G1 X132.290 Y105.646 E2.9751
G1 X131.699 Y105.572 E2.9950
G1 X131.054 Y105.458 E3.0167
G1 X130.472 Y105.326 E3.0366
G1 X129.897 Y105.165 E3.0565
G1 X129.330 Y104.978 E3.0763
G1 X128.723 Y104.742 E3.0980
G1 X128.177 Y104.499 E3.1179
G1 X127.642 Y104.229 E3.1378
G1 X127.120 Y103.933 E3.1577
G1 X126.575 Y103.587 E3.1792
G1 X126.084 Y103.241 E3.1992
G1 X125.611 Y102.870 E3.2192
G1 X125.155 Y102.478 E3.2392
G1 X124.690 Y102.035 E3.2605
G1 X124.276 Y101.598 E3.2806
G1 X123.860 Y101.114 E3.3018
G1 X123.490 Y100.638 E3.3219
G1 X123.143 Y100.144 E3.3419
G1 X122.804 Y99.607 E3.3631
G1 X122.521 Y99.108 E3.3821
G1 X122.236 Y98.541 E3.4033
G1 X121.991 Y97.987 E3.4234
G1 X121.773 Y97.422 E3.4435
G1 X121.575 Y96.822 E3.4645
G1 X121.414 Y96.238 E3.4847
G1 X121.278 Y95.623 E3.5057
G1 X121.178 Y95.048 E3.5250
G1 X121.101 Y94.423 E3.5460
G1 X121.057 Y93.818 E3.5662
G1 X121.042 Y93.211 E3.5864
G1 X121.057 Y92.603 E3.6066
G1 X121.103 Y91.977 E3.6275
G1 X121.181 Y91.355 E3.6483
G1 X121.281 Y90.774 E3.6679
G1 X121.419 Y90.163 E3.6888
G1 X121.581 Y89.577 E3.7090
G1 X121.778 Y88.983 E3.7298
G1 X121.991 Y88.431 E3.7495
G1 X122.245 Y87.859 E3.7703
G1 X122.519 Y87.315 E3.7905
G1 X122.819 Y86.786 E3.8108
G1 X123.153 Y86.258 E3.8316
G1 X123.504 Y85.760 E3.8518
G1 X123.889 Y85.269 E3.8726
G1 X124.287 Y84.808 E3.8928
G1 X124.707 Y84.367 E3.9131
G1 X125.149 Y83.946 E3.9334
G1 X125.623 Y83.538 E3.9542
G1 X126.092 Y83.172 E3.9740
G1 X126.592 Y82.820 E3.9943
G1 X127.122 Y82.484 E4.0152
G1 X127.654 Y82.183 E4.0355
G1 X128.200 Y81.908 E4.0558
G1 X128.774 Y81.655 E4.0767
G1 X129.329 Y81.441 E4.0965
G1 X129.910 Y81.249 E4.1169
G1 X130.515 Y81.082 E4.1377
G1 X131.111 Y80.948 E4.1581
G1 X131.714 Y80.844 E4.1784
G1 X132.321 Y80.769 E4.1987
G1 X132.930 Y80.724 E4.2191
G1 X133.558 Y80.710 E4.2399
G1 X134.153 Y80.724 E4.2597
G1 X134.778 Y80.771 E4.2806
G1 X135.369 Y80.844 E4.3004
G1 X135.972 Y80.948 E4.3207
G1 X136.568 Y81.082 E4.3411
G1 X137.173 Y81.249 E4.3619
G1 X137.753 Y81.441 E4.3823
G1 X138.339 Y81.667 E4.4031
G1 X138.883 Y81.908 E4.4229
G1 X139.429 Y82.183 E4.4433
G1 X139.975 Y82.493 E4.4641
G1 X140.491 Y82.820 E4.4845
G1 X140.991 Y83.172 E4.5048
G1 X141.484 Y83.558 E4.5256
G1 X141.934 Y83.946 E4.5454
G1 X142.376 Y84.366 E4.5657
G1 X142.806 Y84.819 E4.5864
G1 X143.213 Y85.292 E4.6072
G1 X143.588 Y85.772 E4.6275
G1 X143.930 Y86.258 E4.6472
G1 X144.272 Y86.800 E4.6686
G1 X144.564 Y87.315 E4.6882
G1 X144.845 Y87.874 E4.7091
G1 X145.092 Y88.431 E4.7293
G1 X145.316 Y89.016 E4.7501
G1 X145.507 Y89.594 E4.7704
G1 X145.668 Y90.181 E4.7906
G1 X145.802 Y90.774 E4.8109
G1 X145.906 Y91.374 E4.8311
G1 X145.980 Y91.977 E4.8513
G1 X146.026 Y92.603 E4.8722
G1 X146.040 Y93.232 E4.8931
G1 X146.026 Y93.818 E4.9126
G1 X145.982 Y94.423 E4.9328
G1 X145.905 Y95.048 E4.9537
G1 X145.796 Y95.671 E4.9748
G1 X145.668 Y96.238 E4.9941
G1 X145.500 Y96.847 E5.0151
G1 X145.299 Y97.449 E5.0362
G1 X145.092 Y97.987 E5.0554
G1 X144.834 Y98.567 E5.0765
G1 X144.562 Y99.107 E5.0966
G1 X144.246 Y99.662 E5.1179
G1 X143.922 Y100.172 E5.1380
G1 X143.608 Y100.617 E5.1561
G0 X142.968 Y101.096 F7200
;segType:Infill
G0 X145.102 Y95.225
G1 X135.558 Y104.769 E5.6948 F4500
G0 X131.111 Y104.691 F7200
G1 X145.023 Y90.778 E6.4801 F4500
G0 X143.788 Y87.488 F7200
G1 X127.821 Y103.455 E7.3813 F4500
G0 X125.241 Y101.509 F7200
G1 X141.842 Y84.909 E8.3184 F4500
G0 X139.263 Y82.963 F7200
G1 X123.295 Y98.930 E9.2196 F4500
G0 X122.060 Y95.639 F7200
G1 X135.972 Y81.727 E10.0049 F4500
G0 X131.526 Y81.648 F7200
G1 X121.981 Y91.194 E10.5437 F4500
; ------------------------------------
; Layer #8
; ------------------------------------
G92 E0 ;reset extr
;segType:Infill
G0 F3000 E-1.0000
G0 F1200 Z3.200
G0 X127.663 Y83.052 F7200
G0 F3000 E0.0000
G1 X143.698 Y99.087 E0.9051 F4500
;segType:Perimeter
G0 X143.812 Y99.964 F7200
G1 X143.535 Y100.715 E0.9317 F2160
G1 X143.201 Y101.142 E0.9497
G1 X142.779 Y101.629 E0.9712
G1 X142.363 Y102.065 E0.9912
G1 X141.927 Y102.479 E1.0112
G1 X141.473 Y102.870 E1.0312
G1 X140.959 Y103.269 E1.0528
G1 X140.468 Y103.614 E1.0728
G1 X140.007 Y103.906 E1.0909
G1 X139.442 Y104.228 E1.1126
G1 X138.856 Y104.522 E1.1344
G1 X138.310 Y104.763 E1.1542
G1 X137.754 Y104.977 E1.1740
G1 X137.127 Y105.183 E1.1960
G1 X136.552 Y105.340 E1.2158
G1 X135.971 Y105.470 E1.2356
G1 X135.386 Y105.572 E1.2554
G1 X134.728 Y105.652 E1.2774
G1 X134.135 Y105.694 E1.2972
G1 X133.542 Y105.709 E1.3169
G1 X132.879 Y105.690 E1.3389
G1 X132.287 Y105.645 E1.3587
G1 X131.698 Y105.572 E1.3784
G1 X131.047 Y105.456 E1.4004
G1 X130.468 Y105.325 E1.4202
G1 X129.895 Y105.165 E1.4400
G1 X129.330 Y104.978 E1.4598
G1 X128.718 Y104.740 E1.4816
G1 X128.174 Y104.497 E1.5014
G1 X127.641 Y104.229 E1.5213
G1 X127.076 Y103.906 E1.5429
G1 X126.572 Y103.585 E1.5628
G1 X126.083 Y103.239 E1.5827
G1 X125.610 Y102.870 E1.6026
G1 X125.156 Y102.479 E1.6226
G1 X124.688 Y102.033 E1.6441
G1 X124.275 Y101.597 E1.6641
G1 X123.882 Y101.142 E1.6841
G1 X123.488 Y100.636 E1.7054
G1 X123.142 Y100.143 E1.7254
G1 X122.802 Y99.603 E1.7466
G1 X122.522 Y99.109 E1.7655
G1 X122.235 Y98.539 E1.7868
G1 X121.991 Y97.987 E1.8068
G1 X121.764 Y97.394 E1.8280
G1 X121.583 Y96.848 E1.8471
G1 X121.414 Y96.237 E1.8682
G1 X121.277 Y95.619 E1.8892
G1 X121.178 Y95.049 E1.9085
G1 X121.101 Y94.422 E1.9295
G1 X121.057 Y93.817 E1.9496
G1 X121.042 Y93.187 E1.9706
G1 X121.057 Y92.604 E1.9900
G1 X121.103 Y91.976 E2.0110
G1 X121.177 Y91.373 E2.0312
G1 X121.281 Y90.775 E2.0514
G1 X121.419 Y90.162 E2.0723
G1 X121.582 Y89.576 E2.0925
G1 X121.772 Y88.999 E2.1127
G1 X121.998 Y88.414 E2.1335
G1 X122.245 Y87.858 E2.1538
G1 X122.519 Y87.315 E2.1740
G1 X122.828 Y86.771 E2.1948
G1 X123.144 Y86.272 E2.2145
G1 X123.504 Y85.760 E2.2353
G1 X123.890 Y85.267 E2.2561
G1 X124.276 Y84.819 E2.2758
G1 X124.708 Y84.366 E2.2966
G1 X125.149 Y83.946 E2.3168
G1 X125.610 Y83.549 E2.3371
G1 X126.106 Y83.162 E2.3580
G1 X126.591 Y82.820 E2.3777
G1 X127.107 Y82.493 E2.3981
G1 X127.655 Y82.183 E2.4190
G1 X128.200 Y81.908 E2.4393
G1 X128.759 Y81.661 E2.4596
G1 X129.329 Y81.441 E2.4800
G1 X129.910 Y81.249 E2.5003
G1 X130.498 Y81.086 E2.5206
G1 X131.112 Y80.948 E2.5415
G1 X131.714 Y80.844 E2.5619
G1 X132.321 Y80.769 E2.5822
G1 X132.930 Y80.724 E2.6025
G1 X133.560 Y80.710 E2.6235
G1 X134.152 Y80.724 E2.6432
G1 X134.762 Y80.769 E2.6635
G1 X135.387 Y80.847 E2.6844
G1 X135.988 Y80.952 E2.7047
G1 X136.585 Y81.086 E2.7251
G1 X137.173 Y81.249 E2.7454
G1 X137.754 Y81.441 E2.7657
G1 X138.324 Y81.661 E2.7860
G1 X138.883 Y81.908 E2.8064
G1 X139.428 Y82.183 E2.8267
G1 X139.976 Y82.493 E2.8476
G1 X140.492 Y82.820 E2.8679
G1 X140.991 Y83.173 E2.8883
G1 X141.473 Y83.548 E2.9086
G1 X141.934 Y83.946 E2.9289
G1 X142.387 Y84.378 E2.9497
G1 X142.806 Y84.819 E2.9699
G1 X143.215 Y85.294 E2.9907
G1 X143.589 Y85.774 E3.0110
G1 X143.939 Y86.272 E3.0312
G1 X144.274 Y86.802 E3.0521
G1 X144.564 Y87.315 E3.0717
G1 X144.838 Y87.858 E3.0919
G1 X145.092 Y88.432 E3.1128
G1 X145.317 Y89.018 E3.1337
G1 X145.501 Y89.576 E3.1532
G1 X145.664 Y90.162 E3.1734
G1 X145.802 Y90.775 E3.1943
G1 X145.908 Y91.396 E3.2153
G1 X145.980 Y91.976 E3.2347
G1 X146.026 Y92.604 E3.2557
G1 X146.040 Y93.235 E3.2767
G1 X146.026 Y93.817 E3.2960
G1 X145.979 Y94.447 E3.3171
G1 X145.905 Y95.049 E3.3372
G1 X145.795 Y95.673 E3.3583
G1 X145.662 Y96.265 E3.3785
G1 X145.500 Y96.848 E3.3986
G1 X145.298 Y97.452 E3.4198
G1 X145.092 Y97.986 E3.4388
G1 X144.833 Y98.569 E3.4600
G1 X144.561 Y99.108 E3.4801
G1 X144.244 Y99.665 E3.5014
G1 X143.920 Y100.175 E3.5215
G1 X143.607 Y100.618 E3.5396
G0 X142.968 Y101.100 F7200
;segType:Loop
G0 X142.573 Y101.256
G1 X142.483 Y101.360 E3.5442 F3600
G1 X142.080 Y101.781 E3.5635
G1 X141.658 Y102.182 E3.5829
G1 X141.219 Y102.560 E3.6022
G1 X140.721 Y102.948 E3.6232
G1 X140.246 Y103.281 E3.6425
G1 X139.801 Y103.563 E3.6600
G1 X139.253 Y103.876 E3.6810
G1 X138.686 Y104.160 E3.7021
G1 X138.157 Y104.394 E3.7213
G1 X137.620 Y104.600 E3.7405
G1 X137.011 Y104.800 E3.7617
G1 X136.456 Y104.952 E3.7809
G1 X135.893 Y105.078 E3.8001
G1 X135.327 Y105.176 E3.8192
G1 X134.689 Y105.254 E3.8406
G1 X134.116 Y105.295 E3.8597
G1 X133.543 Y105.308 E3.8788
G1 X132.900 Y105.291 E3.9001
G1 X132.327 Y105.247 E3.9192
G1 X131.758 Y105.176 E3.9383
G1 X131.127 Y105.064 E3.9596
G1 X130.566 Y104.937 E3.9788
G1 X130.012 Y104.782 E3.9979
G1 X129.465 Y104.601 E4.0171
G1 X128.872 Y104.371 E4.0382
G1 X128.346 Y104.136 E4.0574
G1 X127.831 Y103.876 E4.0766
G1 X127.282 Y103.563 E4.0976
G1 X126.795 Y103.253 E4.1168
G1 X126.322 Y102.918 E4.1361
G1 X125.864 Y102.561 E4.1554
G1 X125.425 Y102.182 E4.1747
G1 X124.972 Y101.750 E4.1955
G1 X124.571 Y101.329 E4.2148
G1 X124.191 Y100.888 E4.2342
G1 X123.809 Y100.398 E4.2548
G1 X123.475 Y99.922 E4.2742
