; GCode generated by CraftWare

G28 X0 Y0
G28 Z0


M104 S215 ;set head temp (no wait)
M190 S60 ;set bed temp (wait)
M109 S215 ;set head temp (wait)
; ------------------------------------
; Layer #0
; ------------------------------------
M106 S0 ;turn off fan
G21 ; mm
G90 ; abs
G92 E0 ;reset extr
G0 F1200 Z0.200
;segType:Skirt
G0 F3000 E-1.0000
G0 X123.709 Y107.644 F5400
G0 F3000 E0.0000
G1 X119.584 Y103.519 E0.1940 F2400
G1 X118.782 Y102.488 E0.2375
G1 X118.439 Y101.915 E0.2597
G1 X117.980 Y100.998 E0.2938
G1 X117.923 Y100.597 E0.3073
G1 X117.751 Y100.311 E0.3184
G1 X117.464 Y99.222 E0.3558
G1 X117.464 Y95.555 E0.4778
G1 X117.579 Y94.753 E0.5047
G1 X118.037 Y93.378 E0.5529
G1 X118.610 Y92.118 E0.5990
G1 X119.814 Y90.570 E0.6642
G1 X122.564 Y87.820 E0.7935
G1 X123.079 Y87.420 E0.8152
G1 X123.537 Y86.961 E0.8368
G1 X124.569 Y86.159 E0.8802
G1 X126.287 Y85.128 E0.9469
G1 X126.918 Y84.841 E0.9699
G1 X127.605 Y84.612 E0.9940
G1 X128.235 Y84.326 E1.0171
G1 X128.923 Y84.097 E1.0412
G1 X130.012 Y83.810 E1.0786
G1 X131.387 Y83.810 E1.1243
G1 X131.959 Y83.466 E1.1466
G1 X132.418 Y83.466 E1.1618
G1 X132.762 Y83.352 E1.1739
G1 X134.137 Y83.352 E1.2196
G1 X134.480 Y83.237 E1.2316
G1 X136.314 Y83.237 E1.2926
G1 X136.657 Y83.352 E1.3047
G1 X137.574 Y83.352 E1.3352
G1 X137.975 Y83.409 E1.3486
G1 X140.725 Y86.159 E1.4780
G1 X140.840 Y86.503 E1.4901
G1 X140.840 Y101.170 E1.9779
G1 X140.840 Y108.045 E2.2065
G1 X140.439 Y108.561 E2.2283
G1 X137.918 Y111.081 E2.3468
G1 X132.876 Y111.081 E2.5145
G1 X132.532 Y110.967 E2.5266
G1 X132.074 Y110.967 E2.5418
G1 X131.730 Y110.852 E2.5539
G1 X131.501 Y110.623 E2.5647
G1 X130.126 Y110.623 E2.6104
G1 X129.439 Y110.394 E2.6345
G1 X129.095 Y110.394 E2.6459
G1 X128.866 Y110.279 E2.6544
G1 X127.491 Y109.821 E2.7027
G1 X126.230 Y109.248 E2.7487
G1 X125.657 Y108.904 E2.7709
G1 X125.314 Y108.790 E2.7830
G1 X124.282 Y107.988 E2.8264
G1 X123.709 Y107.644 E2.8486
G0 X123.709 Y107.988 F5400
G1 X119.126 Y103.404 E3.0642 F2400
G1 X118.725 Y102.888 E3.0860
G1 X118.381 Y102.315 E3.1082
G1 X118.152 Y102.086 E3.1190
G1 X117.579 Y100.826 E3.1650
G1 X117.350 Y100.138 E3.1891
G1 X117.235 Y99.336 E3.2161
G1 X117.121 Y98.993 E3.2281
G1 X117.121 Y95.326 E3.3501
G1 X117.464 Y93.836 E3.4009
G1 X118.037 Y92.576 E3.4470
G1 X118.381 Y92.003 E3.4692
G1 X119.584 Y90.456 E3.5344
G1 X122.793 Y87.248 E3.6853
G1 X123.308 Y86.847 E3.7070
G1 X123.767 Y86.388 E3.7286
G1 X124.282 Y85.987 E3.7503
G1 X126.574 Y84.612 E3.8392
G1 X127.262 Y84.383 E3.8633
G1 X127.892 Y84.097 E3.8863
G1 X129.267 Y83.638 E3.9345
G1 X130.012 Y83.466 E3.9600
G1 X131.387 Y83.466 E4.0057
G1 X131.959 Y83.123 E4.0279
G1 X132.418 Y83.123 E4.0431
G1 X132.762 Y83.008 E4.0552
G1 X134.137 Y83.008 E4.1009
G1 X134.480 Y82.893 E4.1130
G1 X136.314 Y82.893 E4.1740
G1 X136.657 Y83.008 E4.1860
G1 X137.574 Y83.008 E4.2165
G1 X137.975 Y83.065 E4.2300
G1 X141.184 Y86.274 E4.3809
G1 X141.184 Y100.940 E4.8687
G1 X141.184 Y107.357 E5.0821
G1 X141.126 Y108.217 E5.1108
G1 X137.918 Y111.425 E5.2617
G1 X132.876 Y111.425 E5.4294
G1 X132.532 Y111.311 E5.4414
G1 X132.074 Y111.311 E5.4567
G1 X131.730 Y111.196 E5.4687
G1 X131.501 Y110.967 E5.4795
G1 X130.126 Y110.967 E5.5252
G1 X129.439 Y110.738 E5.5493
G1 X129.095 Y110.738 E5.5608
G1 X128.866 Y110.623 E5.5693
G1 X127.491 Y110.165 E5.6175
G1 X126.230 Y109.592 E5.6636
G1 X125.657 Y109.248 E5.6858
G1 X125.314 Y109.133 E5.6978
G1 X124.282 Y108.331 E5.7413
G1 X123.709 Y107.988 E5.7635
G0 X123.595 Y108.217 F5400
G1 X119.012 Y103.633 E5.9791 F2400
G1 X117.808 Y102.086 E6.0443
G1 X117.235 Y100.826 E6.0903
G1 X117.006 Y100.138 E6.1144
G1 X116.892 Y99.336 E6.1414
G1 X116.777 Y98.993 E6.1534
G1 X116.777 Y95.326 E6.2754
G1 X117.121 Y93.836 E6.3262
G1 X117.694 Y92.576 E6.3723
G1 X118.037 Y92.003 E6.3945
G1 X119.241 Y90.456 E6.4597
G1 X122.449 Y87.248 E6.6106
G1 X122.964 Y86.847 E6.6323
G1 X123.423 Y86.388 E6.6539
G1 X124.970 Y85.185 E6.7191
G1 X126.116 Y84.498 E6.7635
G1 X126.803 Y84.268 E6.7876
G1 X127.376 Y83.925 E6.8098
G1 X129.439 Y83.237 E6.8821
G1 X130.241 Y83.123 E6.9091
G1 X131.157 Y83.123 E6.9396
G1 X131.558 Y83.065 E6.9530
G1 X131.787 Y82.836 E6.9638
G1 X132.589 Y82.722 E6.9908
G1 X133.449 Y82.664 E7.0194
G1 X134.366 Y82.664 E7.0499
G1 X134.709 Y82.550 E7.0620
G1 X136.543 Y82.550 E7.1229
G1 X136.887 Y82.664 E7.1350
G1 X137.803 Y82.664 E7.1655
G1 X137.985 Y82.805 E7.1731
G0 F3000 E6.1731
G0 X137.026 Y86.807 F5400
G0 X136.546 Y88.807
G0 X136.067 Y90.808
G0 F3000 E7.1731
;segType:HShell
G1 X133.817 Y88.558 E7.2790 F2400
G0 X134.017 Y88.192 F5400
G1 X136.067 Y90.242 E7.3754 F2400
G0 X136.067 Y89.676 F5400
G1 X134.547 Y88.157 E7.4468 F2400
G0 X135.094 Y88.138 F5400
G1 X136.067 Y89.111 E7.4926 F2400
G0 X135.643 Y88.121 F5400
G1 X136.067 Y88.545 E7.5125 F2400
;segType:Perimeter
G0 X136.047 Y87.642 F5400
G1 X136.827 Y87.461 E7.5391 F1440
G1 X136.827 Y106.918 E8.1862
G1 X135.616 Y106.959 E8.2265
G1 X134.220 Y106.911 E8.2730
G1 X133.057 Y106.791 E8.3119
G1 X133.057 Y87.527 E8.9526
G1 X134.220 Y87.407 E8.9915
G1 X135.616 Y87.360 E9.0380
G1 X136.767 Y87.399 E9.0763
G0 X136.560 Y88.172 F5400
;segType:Loop
G0 X136.427 Y88.501
G1 X136.427 Y106.531 E9.6759 F2400
G1 X135.616 Y106.559 E9.7029
G1 X134.247 Y106.512 E9.7485
G1 X133.457 Y106.430 E9.7749
G1 X133.457 Y87.888 E10.3916
G1 X134.247 Y87.807 E10.4180
G1 X135.616 Y87.760 E10.4636
G1 X136.427 Y87.788 E10.4906
G1 X136.427 Y88.301 E10.5077
;segType:HShell
G0 X133.817 Y105.529 F5400
G1 X134.447 Y106.158 E10.5373 F2400
G0 X135.032 Y106.178 F5400
G1 X133.817 Y104.963 E10.5945 F2400
G0 X133.817 Y104.397 F5400
G1 X135.618 Y106.198 E10.6792 F2400
G0 X136.067 Y106.081 F5400
G1 X133.817 Y103.831 E10.7850 F2400
G0 X133.817 Y103.266 F5400
G1 X136.067 Y105.515 E10.8908 F2400
G0 X136.067 Y104.950 F5400
G1 X133.817 Y102.700 E10.9966 F2400
G0 X133.817 Y102.134 F5400
G1 X136.067 Y104.384 E11.1024 F2400
G0 X136.067 Y103.818 F5400
G1 X133.817 Y101.569 E11.2082 F2400
G0 X133.817 Y101.003 F5400
G1 X136.067 Y103.253 E11.3141 F2400
G0 X136.067 Y102.687 F5400
G1 X133.817 Y100.437 E11.4199 F2400
G0 X133.817 Y99.872 F5400
G1 X136.067 Y102.121 E11.5257 F2400
G0 X136.067 Y101.556 F5400
G1 X133.817 Y99.306 E11.6315 F2400
G0 X133.817 Y98.740 F5400
G1 X136.067 Y100.990 E11.7373 F2400
G0 X136.067 Y100.424 F5400
G1 X133.817 Y98.175 E11.8431 F2400
G0 X133.817 Y97.609 F5400
G1 X136.067 Y99.859 E11.9490 F2400
G0 X136.067 Y99.293 F5400
G1 X133.817 Y97.043 E12.0548 F2400
G0 X133.817 Y96.478 F5400
G1 X136.067 Y98.727 E12.1606 F2400
G0 X136.067 Y98.161 F5400
G1 X133.817 Y95.912 E12.2664 F2400
G0 X133.817 Y95.346 F5400
G1 X136.067 Y97.596 E12.3722 F2400
G0 X136.067 Y97.030 F5400
G1 X133.817 Y94.780 E12.4780 F2400
G0 X133.817 Y94.215 F5400
G1 X136.067 Y96.464 E12.5838 F2400
G0 X136.067 Y95.899 F5400
G1 X133.817 Y93.649 E12.6897 F2400
G0 X133.817 Y93.083 F5400
G1 X136.067 Y95.333 E12.7955 F2400
G0 X136.067 Y94.767 F5400
G1 X133.817 Y92.518 E12.9013 F2400
G0 X133.817 Y91.952 F5400
G1 X136.067 Y94.202 E13.0071 F2400
G0 X136.067 Y93.636 F5400
G1 X133.817 Y91.386 E13.1129 F2400
G0 X133.817 Y90.821 F5400
G1 X136.067 Y93.070 E13.2187 F2400
G0 X136.067 Y92.505 F5400
G1 X133.817 Y90.255 E13.3246 F2400
G0 X133.817 Y89.689 F5400
G1 X136.067 Y91.939 E13.4304 F2400
G0 X136.067 Y91.373 F5400
G1 X133.817 Y89.124 E13.5362 F2400
G0 F3000 E12.5362
G0 X127.781 Y89.876 F5400
G0 F3000 E13.5362
G1 X130.231 Y92.326 E13.6514 F2400
G0 X130.231 Y91.760 F5400
G1 X128.157 Y89.686 E13.7489 F2400
G0 X128.554 Y89.518 F5400
G1 X130.231 Y91.194 E13.8278 F2400
G0 X130.231 Y90.629 F5400
G1 X128.951 Y89.349 E13.8880 F2400
G0 X129.358 Y89.190 F5400
G1 X130.231 Y90.063 E13.9290 F2400
G0 X130.231 Y89.497 F5400
G1 X129.782 Y89.048 E13.9501 F2400
;segType:Perimeter
G0 X130.991 Y87.944 F5400
G1 X130.991 Y106.410 E14.5643 F1440
G1 X130.182 Y106.206 E14.5921
G1 X128.942 Y105.791 E14.6356
G1 X127.767 Y105.293 E14.6780
G1 X126.666 Y104.716 E14.7194
G1 X125.653 Y104.067 E14.7594
G1 X124.736 Y103.351 E14.7981
G1 X123.925 Y102.578 E14.8353
G1 X123.225 Y101.752 E14.8713
G1 X122.644 Y100.885 E14.9060
G1 X122.188 Y99.983 E14.9397
G1 X121.860 Y99.056 E14.9724
G1 X121.662 Y98.112 E15.0045
G1 X121.596 Y97.159 E15.0362
G1 X121.662 Y96.207 E15.0680
G1 X121.860 Y95.262 E15.1001
G1 X122.188 Y94.335 E15.1328
G1 X122.644 Y93.434 E15.1664
G1 X123.225 Y92.566 E15.2011
G1 X123.925 Y91.741 E15.2371
G1 X124.736 Y90.967 E15.2744
G1 X125.653 Y90.252 E15.3131
G1 X126.666 Y89.603 E15.3531
G1 X127.767 Y89.026 E15.3944
G1 X128.942 Y88.528 E15.4369
G1 X130.182 Y88.113 E15.4803
G1 X130.956 Y87.917 E15.5069
;segType:Loop
G0 X130.591 Y88.984 F5400
G1 X130.591 Y105.897 E16.0694 F2400
G1 X130.671 Y105.917 E16.0722
G1 X130.294 Y105.822 E16.0851
G1 X129.084 Y105.416 E16.1276
G1 X127.938 Y104.931 E16.1690
G1 X126.867 Y104.370 E16.2092
G1 X125.885 Y103.740 E16.2480
G1 X124.998 Y103.048 E16.2854
G1 X124.217 Y102.303 E16.3213
G1 X123.545 Y101.511 E16.3558
G1 X122.990 Y100.682 E16.3890
G1 X122.557 Y99.826 E16.4209
G1 X122.246 Y98.948 E16.4519
G1 X122.059 Y98.056 E16.4822
G1 X121.997 Y97.159 E16.5121
G1 X122.059 Y96.262 E16.5420
G1 X122.246 Y95.371 E16.5723
G1 X122.557 Y94.493 E16.6033
G1 X122.990 Y93.636 E16.6352
G1 X123.545 Y92.808 E16.6684
G1 X124.217 Y92.016 E16.7029
G1 X124.998 Y91.270 E16.7388
G1 X125.885 Y90.579 E16.7762
G1 X126.867 Y89.949 E16.8151
G1 X127.938 Y89.388 E16.8553
G1 X129.084 Y88.902 E16.8967
G1 X130.294 Y88.497 E16.9391
G1 X130.591 Y88.422 E16.9493
G1 X130.591 Y88.784 E16.9613
;segType:HShell
G0 X130.231 Y92.891 F5400
G1 X127.410 Y90.071 E17.0940 F2400
G0 X127.040 Y90.266 F5400
G1 X130.231 Y93.457 E17.2441 F2400
G0 X130.231 Y94.023 F5400
G1 X126.695 Y90.487 E17.4104 F2400
G0 X126.350 Y90.708 F5400
G1 X130.231 Y94.588 E17.5929 F2400
G0 X130.231 Y95.154 F5400
G1 X126.012 Y90.936 E17.7913 F2400
G0 X125.695 Y91.184 F5400
G1 X130.231 Y95.720 E18.0047 F2400
G0 X130.231 Y96.285 F5400
G1 X125.377 Y91.432 E18.2330 F2400
G0 X125.075 Y91.695 F5400
G1 X130.231 Y96.851 E18.4755 F2400
G0 X130.231 Y97.417 F5400
G1 X124.785 Y91.971 E18.7317 F2400
G0 X124.496 Y92.247 F5400
G1 X130.231 Y97.982 E19.0014 F2400
G0 X130.231 Y98.548 F5400
G1 X124.234 Y92.552 E19.2835 F2400
G0 X123.975 Y92.858 F5400
G1 X130.231 Y99.114 E19.5778 F2400
G0 X130.231 Y99.679 F5400
G1 X123.730 Y93.179 E19.8835 F2400
G0 X123.503 Y93.518 F5400
G1 X130.231 Y100.245 E20.2000 F2400
G0 X130.231 Y100.811 F5400
G1 X123.280 Y93.861 E20.5269 F2400
G0 X123.090 Y94.236 F5400
G1 X130.231 Y101.377 E20.8628 F2400
G0 X130.231 Y101.942 F5400
G1 X122.900 Y94.612 E21.2076 F2400
G0 X122.750 Y95.027 F5400
G1 X130.231 Y102.508 E21.5594 F2400
G0 X130.231 Y103.074 F5400
G1 X122.602 Y95.445 E21.9183 F2400
G0 X122.501 Y95.910 F5400
G1 X130.231 Y103.639 E22.2818 F2400
G0 X130.231 Y104.205 F5400
G1 X122.412 Y96.386 E22.6496 F2400
G0 X122.375 Y96.915 F5400
G1 X130.231 Y104.771 E23.0191 F2400
G0 X130.231 Y105.336 F5400
G1 X122.381 Y97.486 E23.3884 F2400
G0 X122.439 Y98.110 F5400
G1 X129.507 Y105.178 E23.7208 F2400
G0 X128.571 Y104.808 F5400
G1 X122.589 Y98.826 E24.0022 F2400
G0 X123.646 Y101.015 F5400
G1 X126.021 Y103.390 E24.1139 F2400
G0 X127.483 Y104.286 F5400
G1 X122.896 Y99.699 E24.3297 F2400
; ------------------------------------
; Layer #1
; ------------------------------------
M106 S0 ;turn off fan
G92 E0 ;reset extr
G0 F3000 E-1.0000
G0 F1200 Z0.400
G0 X130.312 Y93.871 F7200
G0 X132.166 Y92.414
G0 X135.873 Y89.500
G0 F3000 E0.0000
;segType:HShell
G1 X133.624 Y91.750 E0.1058 F3600
G0 X133.624 Y91.184 F7200
G1 X135.873 Y88.934 E0.2116 F3600
G0 X135.873 Y88.369 F7200
G1 X133.624 Y90.618 E0.3174 F3600
G0 X133.624 Y90.053 F7200
G1 X135.547 Y88.130 E0.4079 F3600
;segType:Perimeter
G0 X135.854 Y87.628 F7200
G1 X136.634 Y87.447 E0.4345 F2160
G1 X136.634 Y106.931 E1.0825
G1 X135.823 Y106.959 E1.1095
G1 X134.427 Y106.911 E1.1560
G1 X133.043 Y106.769 E1.2023
G1 X132.864 Y106.737 E1.2083
G1 X132.864 Y87.581 E1.8454
G1 X133.043 Y87.550 E1.8515
G1 X134.427 Y87.407 E1.8978
G1 X135.823 Y87.360 E1.9442
G1 X136.574 Y87.385 E1.9692
G0 X136.367 Y88.158 F7200
;segType:Loop
G0 X136.234 Y88.487
G1 X136.234 Y106.545 E2.5698 F3600
G1 X135.823 Y106.559 E2.5835
G1 X134.454 Y106.512 E2.6290
G1 X133.300 Y106.393 E2.6676
G1 X133.264 Y106.331 E2.6700
G1 X133.264 Y88.045 E3.2782
G1 X133.300 Y87.925 E3.2823
G1 X134.454 Y87.807 E3.3209
G1 X135.823 Y87.760 E3.3665
G1 X136.234 Y87.774 E3.3802
G1 X136.234 Y88.287 E3.3972
;segType:HShell
G0 X134.961 Y88.150 F7200
G1 X133.624 Y89.487 E3.4601 F3600
G0 X133.624 Y88.921 F7200
G1 X134.368 Y88.178 E3.4951 F3600
G0 X135.588 Y106.190 F7200
G1 X135.873 Y105.905 E3.5085 F3600
G0 X135.873 Y105.339 F7200
G1 X135.041 Y106.172 E3.5477 F3600
G0 X134.494 Y106.153 F7200
G1 X135.873 Y104.774 E3.6126 F3600
G0 X135.873 Y104.208 F7200
G1 X133.980 Y106.101 E3.7016 F3600
G0 X133.624 Y105.892 F7200
G1 X135.873 Y103.642 E3.8074 F3600
G0 X135.873 Y103.077 F7200
G1 X133.624 Y105.326 E3.9132 F3600
G0 X133.624 Y104.761 F7200
G1 X135.873 Y102.511 E4.0191 F3600
G0 X135.873 Y101.945 F7200
G1 X133.624 Y104.195 E4.1249 F3600
G0 X133.624 Y103.629 F7200
G1 X135.873 Y101.380 E4.2307 F3600
G0 X135.873 Y100.814 F7200
G1 X133.624 Y103.064 E4.3365 F3600
G0 X133.624 Y102.498 F7200
G1 X135.873 Y100.248 E4.4423 F3600
G0 X135.873 Y99.683 F7200
G1 X133.624 Y101.932 E4.5481 F3600
G0 X133.624 Y101.366 F7200
G1 X135.873 Y99.117 E4.6539 F3600
G0 X135.873 Y98.551 F7200
G1 X133.624 Y100.801 E4.7598 F3600
G0 X133.624 Y100.235 F7200
G1 X135.873 Y97.985 E4.8656 F3600
G0 X135.873 Y97.420 F7200
G1 X133.624 Y99.669 E4.9714 F3600
G0 X133.624 Y99.104 F7200
G1 X135.873 Y96.854 E5.0772 F3600
G0 X135.873 Y96.288 F7200
G1 X133.624 Y98.538 E5.1830 F3600
G0 X133.624 Y97.972 F7200
G1 X135.873 Y95.723 E5.2888 F3600
G0 X135.873 Y95.157 F7200
G1 X133.624 Y97.407 E5.3946 F3600
G0 X133.624 Y96.841 F7200
G1 X135.873 Y94.591 E5.5005 F3600
G0 X135.873 Y94.026 F7200
G1 X133.624 Y96.275 E5.6063 F3600
G0 X133.624 Y95.710 F7200
G1 X135.873 Y93.460 E5.7121 F3600
G0 X135.873 Y92.894 F7200
G1 X133.624 Y95.144 E5.8179 F3600
G0 X133.624 Y94.578 F7200
G1 X135.873 Y92.329 E5.9237 F3600
G0 X135.873 Y91.763 F7200
G1 X133.624 Y94.013 E6.0295 F3600
G0 X133.624 Y93.447 F7200
G1 X135.873 Y91.197 E6.1354 F3600
G0 X135.873 Y90.632 F7200
G1 X133.624 Y92.881 E6.2412 F3600
G0 X133.624 Y92.315 F7200
G1 X135.873 Y90.066 E6.3470 F3600
G0 F3000 E5.3470
G0 X122.600 Y96.551 F7200
G0 F3000 E6.3470
G1 X130.031 Y89.120 E6.6965 F3600
;segType:Perimeter
G0 X130.092 Y88.459 F7200
G1 X130.791 Y88.069 E6.7231 F2160
G1 X130.791 Y106.309 E7.3298
G1 X130.382 Y106.206 E7.3438
G1 X129.142 Y105.791 E7.3873
G1 X127.967 Y105.293 E7.4297
G1 X126.866 Y104.716 E7.4711
G1 X125.853 Y104.067 E7.5111
G1 X124.936 Y103.351 E7.5497
G1 X124.125 Y102.577 E7.5870
G1 X123.425 Y101.752 E7.6230
G1 X122.845 Y100.885 E7.6577
G1 X122.388 Y99.983 E7.6913
G1 X122.061 Y99.056 E7.7241
G1 X121.862 Y98.112 E7.7562
G1 X121.796 Y97.159 E7.7879
G1 X121.862 Y96.207 E7.8197
G1 X122.061 Y95.262 E7.8518
G1 X122.388 Y94.335 E7.8845
G1 X122.845 Y93.434 E7.9181
G1 X123.425 Y92.566 E7.9528
G1 X124.125 Y91.741 E7.9888
G1 X124.936 Y90.967 E8.0261
G1 X125.853 Y90.252 E8.0647
G1 X126.866 Y89.603 E8.1048
G1 X127.967 Y89.026 E8.1461
G1 X129.142 Y88.528 E8.1886
G1 X130.381 Y88.113 E8.2320
G1 X130.733 Y88.024 E8.2441
G0 X130.525 Y88.797 F7200
;segType:Loop
G0 X130.397 Y88.521
G1 X130.391 Y88.523 E8.2443 F3600
G1 X130.391 Y105.796 E8.8188
G1 X130.494 Y105.822 E8.8223
G1 X129.284 Y105.416 E8.8648
G1 X128.138 Y104.931 E8.9062
G1 X127.067 Y104.370 E8.9464
G1 X126.085 Y103.740 E8.9852
G1 X125.198 Y103.048 E9.0226
G1 X124.417 Y102.303 E9.0585
G1 X123.745 Y101.511 E9.0930
G1 X123.190 Y100.682 E9.1262
G1 X122.757 Y99.826 E9.1581
G1 X122.447 Y98.948 E9.1891
G1 X122.259 Y98.056 E9.2194
G1 X122.197 Y97.159 E9.2493
G1 X122.259 Y96.262 E9.2792
G1 X122.447 Y95.371 E9.3095
G1 X122.757 Y94.493 E9.3405
G1 X123.190 Y93.636 E9.3724
G1 X123.745 Y92.808 E9.4056
G1 X124.417 Y92.016 E9.4401
G1 X125.198 Y91.270 E9.4760
G1 X126.085 Y90.579 E9.5134
G1 X127.067 Y89.949 E9.5523
G1 X128.138 Y89.388 E9.5925
G1 X129.284 Y88.902 E9.6339
G1 X130.399 Y88.529 E9.6730
;segType:HShell
G0 X130.031 Y89.686 F7200
G1 X122.558 Y97.159 E10.0245 F3600
G0 X122.595 Y97.688 F7200
G1 X130.031 Y90.252 E10.3742 F3600
G0 X130.031 Y90.818 F7200
G1 X122.656 Y98.192 E10.7211 F3600
G0 X122.754 Y98.660 F7200
G1 X130.031 Y91.383 E11.0634 F3600
G0 X130.031 Y91.949 F7200
G1 X122.882 Y99.098 E11.3997 F3600
G0 X123.029 Y99.516 F7200
G1 X130.031 Y92.515 E11.7290 F3600
G0 X130.031 Y93.080 F7200
G1 X123.202 Y99.909 E12.0502 F3600
G0 X123.392 Y100.284 F7200
G1 X130.031 Y93.646 E12.3624 F3600
G0 X130.031 Y94.212 F7200
G1 X123.598 Y100.644 E12.6650 F3600
G0 X123.825 Y100.983 F7200
G1 X130.031 Y94.777 E12.9569 F3600
G0 X130.031 Y95.343 F7200
G1 X124.055 Y101.319 E13.2380 F3600
G0 X124.314 Y101.625 F7200
G1 X130.031 Y95.909 E13.5068 F3600
G0 X130.031 Y96.474 F7200
G1 X124.574 Y101.931 E13.7635 F3600
G0 X124.851 Y102.220 F7200
G1 X130.031 Y97.040 E14.0071 F3600
G0 X130.031 Y97.606 F7200
G1 X125.141 Y102.496 E14.2371 F3600
G0 X125.430 Y102.772 F7200
G1 X130.031 Y98.171 E14.4535 F3600
G0 X130.031 Y98.737 F7200
G1 X125.748 Y103.020 E14.6550 F3600
G0 X126.065 Y103.268 F7200
G1 X130.031 Y99.303 E14.8415 F3600
G0 X130.031 Y99.869 F7200
G1 X126.391 Y103.508 E15.0127 F3600
G0 X126.736 Y103.729 F7200
G1 X130.031 Y100.434 E15.1677 F3600
G0 X130.031 Y101.000 F7200
G1 X127.080 Y103.950 E15.3065 F3600
G0 X127.438 Y104.158 F7200
G1 X130.031 Y101.566 E15.4284 F3600
G0 X130.031 Y102.131 F7200
G1 X127.810 Y104.352 E15.5329 F3600
G0 X128.181 Y104.547 F7200
G1 X130.031 Y102.697 E15.6199 F3600
G0 X130.031 Y103.263 F7200
G1 X128.570 Y104.723 E15.6886 F3600
G0 X128.968 Y104.891 F7200
G1 X130.031 Y103.828 E15.7386 F3600
G0 X130.031 Y104.394 F7200
G1 X129.365 Y105.060 E15.7699 F3600
G0 X122.708 Y95.877 F7200
G1 X129.298 Y89.287 E16.0799 F3600
G0 X128.317 Y89.703 F7200
G1 X122.926 Y95.093 E16.3334 F3600
G0 X123.365 Y94.089 F7200
G1 X127.096 Y90.358 E16.5089 F3600
; ------------------------------------
; Layer #2
; ------------------------------------
M106 S0 ;turn off fan
G92 E0 ;reset extr
;segType:HShell
G0 X127.548 Y90.208 F7200
G0 F1200 Z0.600
G1 X129.831 Y92.491 E0.1074 F3600
G0 X129.831 Y91.926 F7200
G1 X127.919 Y90.014 E0.1973 F3600
G0 X128.290 Y89.819 F7200
G1 X129.831 Y91.360 E0.2698 F3600
G0 X129.831 Y90.794 F7200
G1 X128.673 Y89.637 E0.3242 F3600
G0 X129.070 Y89.468 F7200
G1 X129.831 Y90.229 E0.3600 F3600
G0 X129.468 Y89.300 F7200
G1 X129.831 Y89.663 E0.3771 F3600
G0 X130.591 Y88.149 F7200
G0 X130.591 Y88.110
G0 X130.671 Y88.090
G0 X130.613 Y88.105
G0 X130.613 Y88.105
G0 X130.613 Y88.105
G0 X130.613 Y88.105
G0 X130.618 Y88.094
;segType:Perimeter
G0 X130.613 Y88.105
G1 X130.591 Y88.110 E0.3778 F2160
G1 X130.591 Y106.208 E0.9798
G1 X130.671 Y106.228 E0.9825
G1 X130.582 Y106.206 E0.9856
G1 X129.342 Y105.791 E1.0291
G1 X128.167 Y105.293 E1.0715
G1 X127.066 Y104.716 E1.1129
G1 X126.053 Y104.067 E1.1529
G1 X125.136 Y103.351 E1.1916
G1 X124.325 Y102.577 E1.2288
G1 X123.625 Y101.752 E1.2648
G1 X123.044 Y100.885 E1.2996
G1 X122.588 Y99.983 E1.3332
G1 X122.261 Y99.056 E1.3659
G1 X122.062 Y98.112 E1.3980
G1 X121.996 Y97.159 E1.4297
G1 X122.062 Y96.207 E1.4615
G1 X122.261 Y95.262 E1.4936
G1 X122.588 Y94.335 E1.5263
G1 X123.044 Y93.434 E1.5599
G1 X123.625 Y92.566 E1.5946
G1 X124.325 Y91.741 E1.6306
G1 X125.136 Y90.967 E1.6679
G1 X126.053 Y90.252 E1.7066
G1 X127.066 Y89.603 E1.7466
G1 X128.167 Y89.026 E1.7879
G1 X129.342 Y88.528 E1.8304
G1 X130.582 Y88.113 E1.8738
G1 X130.613 Y88.105 E1.8749
G0 X130.613 Y88.105 F7200
G0 X130.671 Y88.090
G0 X130.613 Y88.105
G0 X130.613 Y88.105
G0 X130.671 Y88.090
G0 X130.591 Y88.110
G0 X130.591 Y88.138
G0 X130.591 Y88.138
G0 X130.184 Y88.750
;segType:Loop
G0 X130.191 Y88.741
G1 X130.191 Y105.653 E2.4374 F3600
G1 X130.214 Y105.661 E2.4382
G1 X129.484 Y105.416 E2.4639
G1 X128.338 Y104.931 E2.5053
G1 X127.267 Y104.370 E2.5455
G1 X126.284 Y103.740 E2.5843
G1 X125.398 Y103.048 E2.6217
G1 X124.617 Y102.303 E2.6576
G1 X123.945 Y101.511 E2.6921
G1 X123.390 Y100.682 E2.7253
G1 X122.957 Y99.826 E2.7572
G1 X122.647 Y98.948 E2.7882
G1 X122.459 Y98.056 E2.8185
G1 X122.397 Y97.159 E2.8484
G1 X122.459 Y96.262 E2.8783
G1 X122.647 Y95.371 E2.9086
G1 X122.957 Y94.493 E2.9396
G1 X123.390 Y93.636 E2.9715
G1 X123.945 Y92.808 E3.0047
G1 X124.617 Y92.016 E3.0392
G1 X125.398 Y91.270 E3.0751
G1 X126.284 Y90.579 E3.1125
G1 X127.267 Y89.949 E3.1513
G1 X128.338 Y89.388 E3.1916
G1 X129.484 Y88.902 E3.2330
G1 X130.119 Y88.689 E3.2552
;segType:HShell
G0 X129.831 Y93.057 F7200
G1 X127.196 Y90.422 E3.3792 F3600
G0 X126.851 Y90.643 F7200
G1 X129.831 Y93.623 E3.5193 F3600
G0 X129.831 Y94.188 F7200
G1 X126.506 Y90.864 E3.6757 F3600
G0 X126.188 Y91.111 F7200
G1 X129.831 Y94.754 E3.8470 F3600
G0 X129.831 Y95.320 F7200
G1 X125.870 Y91.359 E4.0333 F3600
G0 X125.559 Y91.614 F7200
G1 X129.831 Y95.885 E4.2343 F3600
G0 X129.831 Y96.451 F7200
G1 X125.270 Y91.890 E4.4488 F3600
G0 X124.980 Y92.166 F7200
G1 X129.831 Y97.017 E4.6769 F3600
G0 X129.831 Y97.583 F7200
G1 X124.710 Y92.462 E4.9178 F3600
G0 X124.451 Y92.768 F7200
G1 X129.831 Y98.148 E5.1708 F3600
G0 X129.831 Y98.714 F7200
G1 X124.196 Y93.079 E5.4359 F3600
G0 X123.969 Y93.418 F7200
G1 X129.831 Y99.280 E5.7116 F3600
G0 X129.831 Y99.845 F7200
G1 X123.743 Y93.757 E5.9979 F3600
G0 X123.546 Y94.126 F7200
G1 X129.831 Y100.411 E6.2935 F3600
G0 X129.831 Y100.977 F7200
G1 X123.356 Y94.502 E6.5981 F3600
G0 X123.193 Y94.905 F7200
G1 X129.831 Y101.542 E6.9103 F3600
G0 X129.831 Y102.108 F7200
G1 X123.045 Y95.323 E7.2295 F3600
G0 X122.930 Y95.773 F7200
G1 X129.831 Y102.674 E7.5541 F3600
G0 X129.831 Y103.239 F7200
G1 X122.832 Y96.240 E7.8833 F3600
G0 X122.786 Y96.760 F7200
G1 X129.831 Y103.805 E8.2147 F3600
G0 X129.831 Y104.371 F7200
G1 X122.768 Y97.308 E8.5469 F3600
G0 X122.810 Y97.916 F7200
G1 X129.831 Y104.936 E8.8771 F3600
G0 X129.258 Y104.929 F7200
G1 X122.945 Y98.616 E9.1740 F3600
G0 X123.202 Y99.439 F7200
G1 X128.231 Y104.468 E9.4106 F3600
G0 X126.910 Y103.713 F7200
G1 X123.710 Y100.513 E9.5611 F3600
G0 F3000 E8.5611
G0 X135.680 Y90.987 F7200
G0 F3000 E9.5611
G1 X133.431 Y88.738 E9.6669 F3600
G0 X133.543 Y88.284 F7200
G1 X135.680 Y90.421 E9.7675 F3600
G0 X135.680 Y89.856 F7200
G1 X134.056 Y88.231 E9.8439 F3600
G0 X134.569 Y88.178 F7200
G1 X135.680 Y89.290 E9.8962 F3600
G0 X135.680 Y88.724 F7200
G1 X135.108 Y88.152 E9.9231 F3600
;segType:Perimeter
G0 X135.661 Y87.614 F7200
G1 X136.440 Y87.434 E9.9497 F2160
G1 X136.440 Y106.945 E10.5987
G1 X136.030 Y106.959 E10.6123
G1 X134.634 Y106.911 E10.6588
G1 X133.250 Y106.769 E10.7051
G1 X132.671 Y106.668 E10.7246
G1 X132.671 Y87.651 E11.3571
G1 X133.250 Y87.550 E11.3767
G1 X134.634 Y87.407 E11.4229
G1 X136.030 Y87.360 E11.4694
G1 X136.380 Y87.372 E11.4811
G0 X136.173 Y88.144 F7200
;segType:Loop
G0 X136.040 Y88.474
G1 X136.040 Y106.445 E12.0788 F3600
G1 X135.928 Y106.555 E12.0840
G1 X134.661 Y106.512 E12.1262
G1 X133.305 Y106.372 E12.1715
G1 X133.071 Y106.331 E12.1794
G1 X133.071 Y87.987 E12.7896
G1 X133.305 Y87.946 E12.7975
G1 X134.661 Y87.807 E12.8428
G1 X135.928 Y87.763 E12.8850
G1 X136.040 Y87.816 E12.8891
G1 X136.040 Y88.274 E12.9043
;segType:HShell
G0 X133.431 Y89.303 F7200
G1 X135.680 Y91.553 E13.0101 F3600
G0 X135.680 Y92.118 F7200
G1 X133.431 Y89.869 E13.1159 F3600
G0 X133.431 Y90.435 F7200
G1 X135.680 Y92.684 E13.2217 F3600
G0 X135.680 Y93.250 F7200
G1 X133.431 Y91.000 E13.3276 F3600
G0 X133.431 Y91.566 F7200
G1 X135.680 Y93.815 E13.4334 F3600
G0 X135.680 Y94.381 F7200
G1 X133.431 Y92.132 E13.5392 F3600
G0 X133.431 Y92.697 F7200
G1 X135.680 Y94.947 E13.6450 F3600
G0 X135.680 Y95.512 F7200
G1 X133.431 Y93.263 E13.7508 F3600
G0 X133.431 Y93.829 F7200
G1 X135.680 Y96.078 E13.8566 F3600
G0 X135.680 Y96.644 F7200
G1 X133.431 Y94.394 E13.9624 F3600
G0 X133.431 Y94.960 F7200
G1 X135.680 Y97.210 E14.0682 F3600
G0 X135.680 Y97.775 F7200
G1 X133.431 Y95.526 E14.1740 F3600
G0 X133.431 Y96.092 F7200
G1 X135.680 Y98.341 E14.2798 F3600
G0 X135.680 Y98.907 F7200
G1 X133.431 Y96.657 E14.3856 F3600
G0 X133.431 Y97.223 F7200
G1 X135.680 Y99.472 E14.4914 F3600
G0 X135.680 Y100.038 F7200
G1 X133.431 Y97.789 E14.5972 F3600
G0 X133.431 Y98.354 F7200
G1 X135.680 Y100.604 E14.7030 F3600
G0 X135.680 Y101.169 F7200
G1 X133.431 Y98.920 E14.8088 F3600
G0 X133.431 Y99.486 F7200
G1 X135.680 Y101.735 E14.9146 F3600
G0 X135.680 Y102.301 F7200
G1 X133.431 Y100.051 E15.0204 F3600
G0 X133.431 Y100.617 F7200
G1 X135.680 Y102.866 E15.1262 F3600
G0 X135.680 Y103.432 F7200
G1 X133.431 Y101.183 E15.2321 F3600
G0 X133.431 Y101.748 F7200
G1 X135.680 Y103.998 E15.3379 F3600
G0 X135.680 Y104.563 F7200
G1 X133.431 Y102.314 E15.4437 F3600
G0 X133.431 Y102.880 F7200
G1 X135.680 Y105.129 E15.5495 F3600
G0 X135.680 Y105.695 F7200
G1 X133.431 Y103.445 E15.6553 F3600
G0 X133.431 Y104.011 F7200
G1 X135.595 Y106.175 E15.7571 F3600
G0 X135.018 Y106.164 F7200
G1 X133.431 Y104.577 E15.8317 F3600
G0 X133.431 Y105.142 F7200
G1 X134.413 Y106.124 E15.8779 F3600
G0 X133.782 Y106.059 F7200
G1 X133.431 Y105.708 E15.8944 F3600
; ------------------------------------
; Layer #3
; ------------------------------------
M106 S255 ;set fan speed
G92 E0 ;reset extr
G0 F3000 E-1.0000
G0 F1200 Z0.800
G0 X131.259 Y96.458 F7200
G0 X130.716 Y94.145
G0 X130.174 Y91.833
G0 X129.631 Y89.520
G0 F3000 E0.0000
;segType:HShell
G1 X123.064 Y96.087 E0.3089 F3600
G0 X122.988 Y96.729 F7200
G1 X129.631 Y90.086 E0.6213 F3600
G0 X130.391 Y88.249 F7200
G0 X130.391 Y88.243
G0 X130.443 Y88.226
G0 X130.393 Y88.243
G0 X130.393 Y88.243
G0 X130.443 Y88.226
G0 X130.393 Y88.243
G0 X130.393 Y88.243
G0 X130.395 Y88.238
;segType:Perimeter
G0 X130.391 Y88.249
G1 X130.391 Y106.075 E1.2142 F2160
G1 X130.443 Y106.092 E1.2161
G1 X129.542 Y105.791 E1.2477
G1 X128.367 Y105.293 E1.2901
G1 X127.266 Y104.716 E1.3314
G1 X126.253 Y104.067 E1.3715
G1 X125.336 Y103.351 E1.4101
G1 X124.525 Y102.578 E1.4474
G1 X123.825 Y101.752 E1.4834
G1 X123.244 Y100.885 E1.5181
G1 X122.788 Y99.983 E1.5517
G1 X122.460 Y99.056 E1.5844
G1 X122.262 Y98.112 E1.6165
G1 X122.196 Y97.159 E1.6483
G1 X122.262 Y96.207 E1.6800
G1 X122.460 Y95.262 E1.7121
G1 X122.788 Y94.335 E1.7449
G1 X123.244 Y93.434 E1.7785
G1 X123.825 Y92.566 E1.8132
G1 X124.525 Y91.741 E1.8492
G1 X125.336 Y90.967 E1.8865
G1 X126.253 Y90.252 E1.9251
G1 X127.266 Y89.603 E1.9651
G1 X128.367 Y89.026 E2.0065
G1 X129.542 Y88.528 E2.0489
G1 X130.386 Y88.245 E2.0785
;segType:Loop
G0 X129.991 Y89.289 F7200
G1 X129.991 Y105.416 E2.6149 F3600
G1 X129.980 Y105.531 E2.6190
G1 X130.081 Y105.645 E2.6217
G1 X129.871 Y105.479 E2.6306
G1 X129.684 Y105.416 E2.6372
G1 X128.538 Y104.931 E2.6786
G1 X127.467 Y104.370 E2.7188
G1 X126.485 Y103.740 E2.7576
G1 X125.598 Y103.048 E2.7950
G1 X124.817 Y102.303 E2.8310
G1 X124.145 Y101.511 E2.8655
G1 X123.590 Y100.682 E2.8986
G1 X123.157 Y99.826 E2.9306
G1 X122.846 Y98.948 E2.9615
G1 X122.659 Y98.056 E2.9918
G1 X122.597 Y97.159 E3.0218
G1 X122.659 Y96.262 E3.0517
G1 X122.846 Y95.371 E3.0820
G1 X123.157 Y94.493 E3.1129
G1 X123.590 Y93.636 E3.1449
G1 X124.145 Y92.808 E3.1780
G1 X124.817 Y92.016 E3.2126
G1 X125.598 Y91.270 E3.2485
G1 X126.485 Y90.579 E3.2859
G1 X127.467 Y89.949 E3.3247
G1 X128.538 Y89.388 E3.3649
G1 X129.684 Y88.902 E3.4063
G1 X129.991 Y88.799 E3.4171
G1 X129.991 Y89.089 E3.4267
;segType:InnerHair
G0 X129.701 Y89.210 F7200
G1 X129.636 Y89.307 E3.4297 F3600
G1 X129.572 Y89.404 E3.4339
G1 X129.701 Y89.210 E3.4374
;segType:HShell
G0 X129.004 Y89.581 F7200
G1 X123.236 Y95.350 E3.7087 F3600
G0 X123.594 Y94.425 F7200
G1 X127.881 Y90.138 E3.9104 F3600
G0 X126.185 Y91.269 F7200
G1 X124.454 Y93.000 E3.9918 F3600
;segType:InnerHair
G0 X129.580 Y104.926 F7200
G1 X129.644 Y105.023 E3.9946 F3600
G1 X129.708 Y105.120 E3.9962
G1 X129.580 Y104.926 E4.0044
;segType:HShell
G0 X129.087 Y104.772 F7200
G1 X129.631 Y104.228 E4.0300 F3600
G0 X129.631 Y103.663 F7200
G1 X128.689 Y104.604 E4.0742 F3600
G0 X128.318 Y104.409 F7200
G1 X129.631 Y103.097 E4.1360 F3600
G0 X129.631 Y102.531 F7200
G1 X127.947 Y104.215 E4.2152 F3600
G0 X127.581 Y104.015 F7200
G1 X129.631 Y101.965 E4.3116 F3600
G0 X129.631 Y101.400 F7200
G1 X127.236 Y103.794 E4.4242 F3600
G0 X126.892 Y103.573 F7200
G1 X129.631 Y100.834 E4.5530 F3600
G0 X129.631 Y100.268 F7200
G1 X126.558 Y103.341 E4.6975 F3600
G0 X126.241 Y103.093 F7200
G1 X129.631 Y99.703 E4.8570 F3600
G0 X129.631 Y99.137 F7200
G1 X125.923 Y102.845 E5.0314 F3600
G0 X125.625 Y102.577 F7200
G1 X129.631 Y98.571 E5.2198 F3600
G0 X129.631 Y98.006 F7200
G1 X125.336 Y102.300 E5.4218 F3600
G0 X125.050 Y102.021 F7200
G1 X129.631 Y97.440 E5.6373 F3600
G0 X129.631 Y96.874 F7200
G1 X124.790 Y101.715 E5.8649 F3600
G0 X124.531 Y101.409 F7200
G1 X129.631 Y96.309 E6.1048 F3600
G0 X129.631 Y95.743 F7200
G1 X124.291 Y101.082 E6.3560 F3600
G0 X124.065 Y100.743 F7200
G1 X129.631 Y95.177 E6.6178 F3600
G0 X129.631 Y94.612 F7200
G1 X123.848 Y100.394 E6.8898 F3600
G0 X123.658 Y100.019 F7200
G1 X129.631 Y94.046 E7.1707 F3600
G0 X129.631 Y93.480 F7200
G1 X123.472 Y99.638 E7.4604 F3600
G0 X123.325 Y99.220 F7200
G1 X129.631 Y92.915 E7.7570 F3600
G0 X129.631 Y92.349 F7200
G1 X123.183 Y98.797 E8.0603 F3600
G0 X123.085 Y98.329 F7200
G1 X129.631 Y91.783 E8.3682 F3600
G0 X129.631 Y91.217 F7200
G1 X123.005 Y97.843 E8.6798 F3600
G0 X122.969 Y97.314 F7200
G1 X129.631 Y90.652 E8.9932 F3600
G0 F3000 E7.9932
G0 X133.238 Y91.004 F7200
G0 F3000 E8.9932
G1 X135.487 Y88.755 E9.0990 F3600
G0 X133.689 Y88.290 F7200
G1 X133.238 Y88.742 E9.1202 F3600
G0 X133.238 Y89.307 F7200
G1 X134.320 Y88.225 E9.1711 F3600
G0 X134.947 Y88.164 F7200
G1 X133.238 Y89.873 E9.2515 F3600
G0 X133.238 Y90.439 F7200
G1 X135.487 Y88.189 E9.3573 F3600
;segType:Perimeter
G0 X135.430 Y87.642 F7200
G1 X136.195 Y87.409 E9.3839 F2160
G1 X136.247 Y87.474 E9.3867
G1 X136.247 Y106.902 E10.0329
G1 X136.157 Y106.956 E10.0364
G1 X134.841 Y106.911 E10.0802
G1 X133.457 Y106.769 E10.1265
G1 X132.478 Y106.598 E10.1595
G1 X132.478 Y87.721 E10.7874
G1 X133.457 Y87.550 E10.8205
G1 X134.841 Y87.407 E10.8667
G1 X136.097 Y87.364 E10.9085
G0 X136.166 Y87.518 F7200
;segType:Loop
G0 X135.847 Y88.430
G1 X135.847 Y106.445 E11.5077 F3600
G1 X135.814 Y106.544 E11.5112
G1 X134.868 Y106.512 E11.5426
G1 X133.512 Y106.372 E11.5880
G1 X132.878 Y106.262 E11.6094
G1 X132.878 Y88.057 E12.2149
G1 X133.512 Y87.946 E12.2363
G1 X134.868 Y87.807 E12.2817
G1 X135.814 Y87.774 E12.3132
G1 X135.847 Y87.816 E12.3149
G1 X135.847 Y88.230 E12.3287
;segType:HShell
G0 X135.055 Y106.158 F7200
G1 X135.487 Y105.726 E12.3490 F3600
G0 X135.487 Y105.160 F7200
G1 X134.532 Y106.115 E12.3940 F3600
G0 X134.019 Y106.062 F7200
G1 X135.487 Y104.594 E12.4630 F3600
G0 X135.487 Y104.029 F7200
G1 X133.509 Y106.006 E12.5560 F3600
G0 X133.238 Y105.712 F7200
G1 X135.487 Y103.463 E12.6619 F3600
G0 X135.487 Y102.897 F7200
G1 X133.238 Y105.147 E12.7677 F3600
G0 X133.238 Y104.581 F7200
G1 X135.487 Y102.332 E12.8735 F3600
G0 X135.487 Y101.766 F7200
G1 X133.238 Y104.015 E12.9793 F3600
G0 X133.238 Y103.450 F7200
G1 X135.487 Y101.200 E13.0851 F3600
G0 X135.487 Y100.634 F7200
G1 X133.238 Y102.884 E13.1909 F3600
G0 X133.238 Y102.318 F7200
G1 X135.487 Y100.069 E13.2967 F3600
G0 X135.487 Y99.503 F7200
G1 X133.238 Y101.752 E13.4025 F3600
G0 X133.238 Y101.187 F7200
G1 X135.487 Y98.937 E13.5083 F3600
G0 X135.487 Y98.372 F7200
G1 X133.238 Y100.621 E13.6141 F3600
G0 X133.238 Y100.055 F7200
G1 X135.487 Y97.806 E13.7199 F3600
G0 X135.487 Y97.240 F7200
G1 X133.238 Y99.490 E13.8257 F3600
G0 X133.238 Y98.924 F7200
G1 X135.487 Y96.675 E13.9315 F3600
G0 X135.487 Y96.109 F7200
G1 X133.238 Y98.358 E14.0373 F3600
G0 X133.238 Y97.793 F7200
G1 X135.487 Y95.543 E14.1431 F3600
G0 X135.487 Y94.978 F7200
G1 X133.238 Y97.227 E14.2489 F3600
G0 X133.238 Y96.661 F7200
G1 X135.487 Y94.412 E14.3547 F3600
G0 X135.487 Y93.846 F7200
G1 X133.238 Y96.096 E14.4605 F3600
G0 X133.238 Y95.530 F7200
G1 X135.487 Y93.281 E14.5664 F3600
G0 X135.487 Y92.715 F7200
G1 X133.238 Y94.964 E14.6722 F3600
G0 X133.238 Y94.399 F7200
G1 X135.487 Y92.149 E14.7780 F3600
G0 X135.487 Y91.584 F7200
G1 X133.238 Y93.833 E14.8838 F3600
G0 X133.238 Y93.267 F7200
G1 X135.487 Y91.018 E14.9896 F3600
G0 X135.487 Y90.452 F7200
G1 X133.238 Y92.702 E15.0954 F3600
G0 X133.238 Y92.136 F7200
G1 X135.487 Y89.886 E15.2012 F3600
G0 X135.487 Y89.321 F7200
G1 X133.238 Y91.570 E15.3070 F3600
; ------------------------------------
; Layer #4
; ------------------------------------
G92 E0 ;reset extr
;segType:HShell
G0 F3000 E-1.0000
G0 F1200 Z1.000
G0 X133.817 Y103.831 F7200
G0 F3000 E0.0000
G1 X133.127 Y103.142 E0.0324 F3600
G0 X133.130 Y103.711 F7200
G1 X133.817 Y104.397 E0.0647 F3600
G0 X133.817 Y104.963 F7200
G1 X133.133 Y104.279 E0.0969 F3600
G0 X133.137 Y104.848 F7200
G1 X133.817 Y105.529 E0.1289 F3600
G0 X134.522 Y105.102 F7200
G1 X135.294 Y105.874 E0.1652 F3600
G0 X134.996 Y106.142 F7200
G1 X134.522 Y105.668 E0.1875 F3600
;segType:Infill
G0 X134.522 Y104.536 F7200
G1 X133.817 Y103.831 E0.2273 F4500
G0 X134.522 Y100.011 F7200
G1 X133.817 Y99.306 E0.2671 F4500
G0 X134.522 Y95.485 F7200
G1 X133.817 Y94.780 E0.3069 F4500
G0 X134.522 Y90.960 F7200
G1 X133.817 Y90.255 E0.3467 F4500
;segType:Perimeter
G0 X135.289 Y87.666 F7200
G1 X136.054 Y87.433 E0.3733 F2160
G1 X136.054 Y106.945 E1.0223
G1 X135.048 Y106.911 E1.0557
G1 X133.664 Y106.769 E1.1020
G1 X132.386 Y106.546 E1.1452
G1 X132.284 Y106.445 E1.1499
G1 X132.284 Y87.931 E1.7657
G1 X132.386 Y87.773 E1.7719
G1 X133.664 Y87.550 E1.8151
G1 X135.048 Y87.407 E1.8614
G1 X135.994 Y87.375 E1.8929
G0 X135.787 Y88.148 F7200
;segType:Loop
G0 X135.654 Y88.473
G1 X135.654 Y106.532 E2.4935 F3600
G1 X135.075 Y106.512 E2.5128
G1 X133.719 Y106.372 E2.5581
G1 X132.784 Y106.209 E2.5897
G1 X132.686 Y88.159 E3.1900
G1 X132.728 Y88.119 E3.1920
G1 X133.719 Y87.946 E3.2254
G1 X135.076 Y87.807 E3.2708
G1 X135.654 Y87.787 E3.2900
G1 X135.654 Y88.273 E3.3062
;segType:HShell
G0 X134.607 Y88.217 F7200
G1 X135.294 Y88.904 E3.3385 F3600
G0 X135.294 Y89.469 F7200
G1 X134.522 Y88.697 E3.3748 F3600
G0 X134.522 Y89.263 F7200
G1 X135.294 Y90.035 E3.4111 F3600
G0 X135.294 Y90.601 F7200
G1 X134.522 Y89.829 E3.4475 F3600
G0 X134.522 Y90.394 F7200
G1 X135.294 Y91.166 E3.4838 F3600
G0 X135.294 Y91.732 F7200
G1 X134.522 Y90.960 E3.5201 F3600
G0 X134.522 Y91.526 F7200
G1 X135.294 Y92.298 E3.5564 F3600
G0 X135.294 Y92.863 F7200
G1 X134.522 Y92.091 E3.5927 F3600
G0 X134.522 Y92.657 F7200
G1 X135.294 Y93.429 E3.6290 F3600
G0 X135.294 Y93.995 F7200
G1 X134.522 Y93.223 E3.6654 F3600
G0 X134.522 Y93.788 F7200
G1 X135.294 Y94.561 E3.7017 F3600
G0 X135.294 Y95.126 F7200
G1 X134.522 Y94.354 E3.7380 F3600
G0 X134.522 Y94.920 F7200
G1 X135.294 Y95.692 E3.7743 F3600
G0 X135.294 Y96.258 F7200
G1 X134.522 Y95.485 E3.8106 F3600
G0 X134.522 Y96.051 F7200
G1 X135.294 Y96.823 E3.8469 F3600
G0 X135.294 Y97.389 F7200
G1 X134.522 Y96.617 E3.8833 F3600
G0 X134.522 Y97.183 F7200
G1 X135.294 Y97.955 E3.9196 F3600
G0 X135.294 Y98.520 F7200
G1 X134.522 Y97.748 E3.9559 F3600
G0 X134.522 Y98.314 F7200
G1 X135.294 Y99.086 E3.9922 F3600
G0 X135.294 Y99.652 F7200
G1 X134.522 Y98.880 E4.0285 F3600
G0 X134.522 Y99.445 F7200
G1 X135.294 Y100.217 E4.0648 F3600
G0 X135.294 Y100.783 F7200
G1 X134.522 Y100.011 E4.1012 F3600
G0 X134.522 Y100.577 F7200
G1 X135.294 Y101.349 E4.1375 F3600
G0 X135.294 Y101.914 F7200
G1 X134.522 Y101.142 E4.1738 F3600
G0 X134.522 Y101.708 F7200
G1 X135.294 Y102.480 E4.2101 F3600
G0 X135.294 Y103.046 F7200
G1 X134.522 Y102.274 E4.2464 F3600
G0 X134.522 Y102.839 F7200
G1 X135.294 Y103.611 E4.2828 F3600
G0 X135.294 Y104.177 F7200
G1 X134.522 Y103.405 E4.3191 F3600
G0 X134.522 Y103.971 F7200
G1 X135.294 Y104.743 E4.3554 F3600
G0 X135.294 Y105.309 F7200
G1 X134.522 Y104.536 E4.3917 F3600
G0 X133.732 Y106.009 F7200
G1 X133.140 Y105.417 E4.4195 F3600
G0 X133.817 Y103.266 F7200
G1 X133.124 Y102.573 E4.4521 F3600
G0 X133.121 Y102.004 F7200
G1 X133.817 Y102.700 E4.4849 F3600
G0 X133.817 Y102.134 F7200
G1 X133.118 Y101.435 E4.5177 F3600
G0 X133.115 Y100.867 F7200
G1 X133.817 Y101.569 E4.5508 F3600
G0 X133.817 Y101.003 F7200
G1 X133.112 Y100.298 E4.5839 F3600
G0 X133.109 Y99.729 F7200
G1 X133.817 Y100.437 E4.6172 F3600
G0 X133.817 Y99.872 F7200
G1 X133.106 Y99.160 E4.6507 F3600
G0 X133.103 Y98.592 F7200
G1 X133.817 Y99.306 E4.6843 F3600
G0 X133.817 Y98.740 F7200
G1 X133.099 Y98.023 E4.7180 F3600
G0 X133.096 Y97.454 F7200
G1 X133.817 Y98.175 E4.7519 F3600
G0 X133.817 Y97.609 F7200
G1 X133.093 Y96.885 E4.7860 F3600
G0 X133.090 Y96.317 F7200
G1 X133.817 Y97.043 E4.8201 F3600
G0 X133.817 Y96.478 F7200
G1 X133.087 Y95.748 E4.8545 F3600
G0 X133.084 Y95.179 F7200
G1 X133.817 Y95.912 E4.8890 F3600
G0 X133.817 Y95.346 F7200
G1 X133.081 Y94.610 E4.9236 F3600
G0 X133.078 Y94.041 F7200
G1 X133.817 Y94.780 E4.9583 F3600
G0 X133.817 Y94.215 F7200
G1 X133.075 Y93.473 E4.9932 F3600
G0 X133.072 Y92.904 F7200
G1 X133.817 Y93.649 E5.0283 F3600
G0 X133.817 Y93.083 F7200
G1 X133.069 Y92.335 E5.0635 F3600
G0 X133.065 Y91.766 F7200
G1 X133.817 Y92.518 E5.0988 F3600
G0 X133.817 Y91.952 F7200
G1 X133.062 Y91.198 E5.1343 F3600
G0 X133.059 Y90.629 F7200
G1 X133.817 Y91.386 E5.1700 F3600
G0 X133.817 Y90.821 F7200
G1 X133.056 Y90.060 E5.2057 F3600
G0 X133.053 Y89.491 F7200
G1 X133.817 Y90.255 E5.2417 F3600
G0 X133.817 Y89.689 F7200
G1 X133.050 Y88.922 E5.2777 F3600
G0 X133.111 Y88.418 F7200
G1 X133.817 Y89.124 E5.3109 F3600
G0 F3000 E4.3109
G0 X124.723 Y94.172 F7200
G0 F3000 E5.3109
G1 X124.209 Y93.658 E5.3351 F3600
G0 X124.436 Y93.319 F7200
G1 X124.915 Y93.798 E5.3576 F3600
G0 X125.142 Y93.459 F7200
G1 X124.667 Y92.985 E5.3800 F3600
G0 X124.927 Y92.679 F7200
G1 X125.369 Y93.121 E5.4008 F3600
G0 X125.619 Y92.805 F7200
G1 X125.186 Y92.372 E5.4211 F3600
G0 X125.879 Y92.499 F7200
G1 X125.465 Y92.086 E5.4406 F3600
G0 X125.755 Y91.809 F7200
G1 X126.145 Y92.200 E5.4590 F3600
G0 X126.435 Y91.924 F7200
G1 X126.045 Y91.534 E5.4773 F3600
G0 X126.363 Y91.286 F7200
G1 X126.724 Y91.648 E5.4943 F3600
G0 X127.031 Y91.389 F7200
G1 X126.681 Y91.038 E5.5108 F3600
G0 X127.007 Y90.799 F7200
G1 X127.349 Y91.141 E5.5268 F3600
G0 X127.667 Y90.893 F7200
G1 X127.352 Y90.579 E5.5416 F3600
G0 X127.697 Y90.358 F7200
G1 X128.009 Y90.670 E5.5563 F3600
G0 X128.354 Y90.449 F7200
G1 X128.056 Y90.151 E5.5703 F3600
G0 X128.428 Y89.957 F7200
G1 X129.431 Y90.960 E5.6175 F3600
G0 X129.431 Y90.394 F7200
G1 X128.799 Y89.762 E5.6472 F3600
;segType:Perimeter
G0 X130.191 Y88.413 F7200
G1 X130.191 Y105.941 E6.2302 F2160
G1 X130.214 Y105.949 E6.2310
G1 X129.742 Y105.791 E6.2476
G1 X128.567 Y105.293 E6.2901
G1 X127.466 Y104.716 E6.3314
G1 X126.453 Y104.067 E6.3714
G1 X125.536 Y103.351 E6.4101
G1 X124.725 Y102.577 E6.4474
G1 X124.025 Y101.752 E6.4834
G1 X123.445 Y100.885 E6.5181
G1 X122.988 Y99.983 E6.5517
G1 X122.661 Y99.056 E6.5844
G1 X122.462 Y98.112 E6.6165
G1 X122.396 Y97.159 E6.6482
G1 X122.462 Y96.207 E6.6800
G1 X122.661 Y95.262 E6.7121
G1 X122.988 Y94.335 E6.7448
G1 X123.445 Y93.434 E6.7784
G1 X124.025 Y92.566 E6.8131
G1 X124.725 Y91.741 E6.8491
G1 X125.536 Y90.967 E6.8864
G1 X126.453 Y90.252 E6.9251
G1 X127.466 Y89.603 E6.9651
G1 X128.567 Y89.026 E7.0064
G1 X129.742 Y88.528 E7.0489
G1 X130.157 Y88.389 E7.0635
;segType:Loop
G0 X129.791 Y89.174 F7200
G1 X129.791 Y105.385 E7.6026 F3600
G1 X129.871 Y105.412 E7.6055
G1 X129.849 Y105.465 E7.6074
G1 X129.784 Y105.367 E7.6101
G1 X129.720 Y105.270 E7.6141
G1 X129.553 Y105.276 E7.6217
G1 X128.738 Y104.931 E7.6511
G1 X127.667 Y104.370 E7.6913
G1 X126.685 Y103.740 E7.7301
G1 X125.798 Y103.048 E7.7675
G1 X125.017 Y102.303 E7.8034
G1 X124.345 Y101.511 E7.8380
G1 X123.790 Y100.682 E7.8711
G1 X123.357 Y99.826 E7.9031
G1 X123.047 Y98.948 E7.9340
G1 X122.859 Y98.056 E7.9643
G1 X122.797 Y97.159 E7.9942
G1 X122.859 Y96.262 E8.0242
G1 X123.047 Y95.371 E8.0545
G1 X123.357 Y94.493 E8.0854
G1 X123.790 Y93.636 E8.1174
G1 X124.345 Y92.808 E8.1505
G1 X125.017 Y92.016 E8.1850
G1 X125.798 Y91.270 E8.2210
G1 X126.685 Y90.579 E8.2584
G1 X127.667 Y89.949 E8.2972
G1 X128.738 Y89.388 E8.3374
G1 X129.539 Y89.048 E8.3663
G1 X129.712 Y89.060 E8.3721
G1 X129.777 Y88.962 E8.3775
G1 X129.841 Y88.865 E8.3817
G1 X129.855 Y88.845 E8.3823
;segType:Infill
G0 X126.435 Y91.924 F7200
G1 X128.631 Y94.120 E8.5062 F4500
G0 X124.163 Y98.703 F7200
G1 X128.631 Y103.171 E8.7584 F4500
G0 X128.631 Y98.645 F7200
G1 X124.533 Y94.547 E8.9897 F4500
;segType:HShell
G0 X124.354 Y94.086 F7200
G1 X124.093 Y94.674 E9.0147 F3600
G0 X123.636 Y94.782 F7200
G1 X124.228 Y95.373 E9.0425 F3600
G0 X124.118 Y95.830 F7200
G1 X123.489 Y95.200 E9.0721 F3600
G0 X123.359 Y95.636 F7200
G1 X124.020 Y96.297 E9.1032 F3600
G0 X123.981 Y96.824 F7200
G1 X123.260 Y96.103 E9.1371 F3600
G0 X123.196 Y96.605 F7200
G1 X123.973 Y97.382 E9.1736 F3600
G0 X124.016 Y97.990 F7200
G1 X123.160 Y97.134 E9.2139 F3600
G0 X123.198 Y97.738 F7200
G1 X124.163 Y98.703 E9.2593 F3600
G0 X124.439 Y99.545 F7200
G1 X123.301 Y98.406 E9.3128 F3600
G0 X129.431 Y91.526 F7200
G1 X128.631 Y90.726 E9.3505 F3600
G0 X128.631 Y91.291 F7200
G1 X129.431 Y92.091 E9.3881 F3600
G0 X129.431 Y92.657 F7200
G1 X128.631 Y91.857 E9.4257 F3600
G0 X128.631 Y92.423 F7200
G1 X129.431 Y93.223 E9.4633 F3600
G0 X129.431 Y93.788 F7200
G1 X128.631 Y92.988 E9.5009 F3600
G0 X128.631 Y93.554 F7200
G1 X129.431 Y94.354 E9.5386 F3600
G0 X129.431 Y94.920 F7200
G1 X128.631 Y94.120 E9.5762 F3600
G0 X128.631 Y94.685 F7200
G1 X129.431 Y95.485 E9.6138 F3600
G0 X129.431 Y96.051 F7200
G1 X128.631 Y95.251 E9.6514 F3600
G0 X128.631 Y95.817 F7200
G1 X129.431 Y96.617 E9.6891 F3600
G0 X129.431 Y97.182 F7200
G1 X128.631 Y96.383 E9.7267 F3600
G0 X128.631 Y96.948 F7200
G1 X129.431 Y97.748 E9.7643 F3600
G0 X129.431 Y98.314 F7200
G1 X128.631 Y97.514 E9.8019 F3600
G0 X128.631 Y98.080 F7200
G1 X129.431 Y98.879 E9.8395 F3600
G0 X129.431 Y99.445 F7200
G1 X128.631 Y98.645 E9.8772 F3600
G0 X128.631 Y99.211 F7200
G1 X129.431 Y100.011 E9.9148 F3600
G0 X129.431 Y100.576 F7200
G1 X128.631 Y99.777 E9.9524 F3600
G0 X128.631 Y100.342 F7200
G1 X129.431 Y101.142 E9.9900 F3600
G0 X129.431 Y101.708 F7200
G1 X128.631 Y100.908 E10.0277 F3600
G0 X128.631 Y101.474 F7200
G1 X129.431 Y102.274 E10.0653 F3600
G0 X129.431 Y102.839 F7200
G1 X128.631 Y102.039 E10.1029 F3600
G0 X128.631 Y102.605 F7200
G1 X129.431 Y103.405 E10.1405 F3600
G0 X129.431 Y103.971 F7200
G1 X128.631 Y103.171 E10.1782 F3600
G0 X128.631 Y103.736 F7200
G1 X129.431 Y104.536 E10.2158 F3600
G0 X128.965 Y104.636 F7200
G1 X127.919 Y103.591 E10.2649 F3600
G0 X127.772 Y104.009 F7200
G1 X123.936 Y100.173 E10.4453 F3600
G0 X125.049 Y100.721 F7200
G1 X123.512 Y99.183 E10.5177 F3600
; ------------------------------------
; Layer #5
; ------------------------------------
G92 E0 ;reset extr
G0 F3000 E-1.0000
G0 F1200 Z1.200
G0 X129.258 Y103.190 F7200
G0 X131.174 Y104.525
G0 X133.089 Y105.861
G0 F3000 E0.0000
;segType:HShell
G1 X133.624 Y105.326 E0.0251 F3600
G0 X133.624 Y104.761 F7200
G1 X132.851 Y105.533 E0.0615 F3600
G0 X132.851 Y104.967 F7200
G1 X133.624 Y104.195 E0.0978 F3600
G0 X133.624 Y103.629 F7200
G1 X132.851 Y104.402 E0.1342 F3600
G0 X132.851 Y103.836 F7200
G1 X133.624 Y103.063 E0.1705 F3600
;segType:Infill
G0 X133.624 Y103.629 F7200
G1 X134.329 Y102.924 E0.2103 F4500
G0 X133.624 Y99.104 F7200
G1 X134.329 Y98.399 E0.2501 F4500
G0 X133.624 Y94.578 F7200
G1 X134.329 Y93.873 E0.2898 F4500
G0 X133.624 Y90.053 F7200
G1 X134.329 Y89.348 E0.3296 F4500
;segType:Perimeter
G0 X135.096 Y87.680 F7200
G1 X135.861 Y87.447 E0.3562 F2160
G1 X135.861 Y106.932 E1.0043
G1 X135.255 Y106.911 E1.0245
G1 X133.871 Y106.769 E1.0707
G1 X132.515 Y106.532 E1.1165
G1 X132.091 Y106.427 E1.1311
G1 X132.091 Y87.892 E1.7475
G1 X132.515 Y87.786 E1.7621
G1 X133.871 Y87.550 E1.8079
G1 X135.255 Y87.407 E1.8541
G1 X135.801 Y87.389 E1.8723
G0 X135.594 Y88.161 F7200
;segType:Loop
G0 X135.461 Y88.487
G1 X135.461 Y106.518 E2.4720 F3600
G1 X135.283 Y106.512 E2.4780
G1 X133.926 Y106.372 E2.5233
G1 X132.598 Y106.140 E2.5682
G1 X132.491 Y106.114 E2.5718
G1 X132.491 Y88.204 E3.1675
G1 X132.598 Y88.178 E3.1712
G1 X133.926 Y87.946 E3.2160
G1 X135.283 Y87.807 E3.2614
G1 X135.461 Y87.801 E3.2673
G1 X135.461 Y88.287 E3.2835
;segType:HShell
G0 X134.903 Y88.208 F7200
G1 X134.329 Y88.782 E3.3105 F3600
G0 X134.329 Y89.348 F7200
G1 X135.101 Y88.575 E3.3468 F3600
G0 X135.101 Y89.141 F7200
G1 X134.329 Y89.914 E3.3832 F3600
G0 X134.329 Y90.479 F7200
G1 X135.101 Y89.707 E3.4195 F3600
G0 X135.101 Y90.272 F7200
G1 X134.329 Y91.045 E3.4559 F3600
G0 X134.329 Y91.611 F7200
G1 X135.101 Y90.838 E3.4922 F3600
G0 X135.101 Y91.404 F7200
G1 X134.329 Y92.176 E3.5285 F3600
G0 X134.329 Y92.742 F7200
G1 X135.101 Y91.970 E3.5649 F3600
G0 X135.101 Y92.535 F7200
G1 X134.329 Y93.308 E3.6012 F3600
G0 X134.329 Y93.873 F7200
G1 X135.101 Y93.101 E3.6375 F3600
G0 X135.101 Y93.667 F7200
G1 X134.329 Y94.439 E3.6739 F3600
G0 X134.329 Y95.005 F7200
G1 X135.101 Y94.232 E3.7102 F3600
G0 X135.101 Y94.798 F7200
G1 X134.329 Y95.570 E3.7466 F3600
G0 X134.329 Y96.136 F7200
G1 X135.101 Y95.364 E3.7829 F3600
G0 X135.101 Y95.929 F7200
G1 X134.329 Y96.702 E3.8192 F3600
G0 X134.329 Y97.268 F7200
G1 X135.101 Y96.495 E3.8556 F3600
G0 X135.101 Y97.061 F7200
G1 X134.329 Y97.833 E3.8919 F3600
G0 X134.329 Y98.399 F7200
G1 X135.101 Y97.626 E3.9283 F3600
G0 X135.101 Y98.192 F7200
G1 X134.329 Y98.965 E3.9646 F3600
G0 X134.329 Y99.530 F7200
G1 X135.101 Y98.758 E4.0009 F3600
G0 X135.101 Y99.323 F7200
G1 X134.329 Y100.096 E4.0373 F3600
G0 X134.329 Y100.662 F7200
G1 X135.101 Y99.889 E4.0736 F3600
G0 X135.101 Y100.455 F7200
G1 X134.329 Y101.227 E4.1099 F3600
G0 X134.329 Y101.793 F7200
G1 X135.101 Y101.020 E4.1463 F3600
G0 X135.101 Y101.586 F7200
G1 X134.329 Y102.359 E4.1826 F3600
G0 X134.329 Y102.924 F7200
G1 X135.101 Y102.152 E4.2190 F3600
G0 X135.101 Y102.718 F7200
G1 X134.329 Y103.490 E4.2553 F3600
G0 X134.329 Y104.056 F7200
G1 X135.101 Y103.283 E4.2916 F3600
G0 X135.101 Y103.849 F7200
G1 X134.329 Y104.621 E4.3280 F3600
G0 X134.329 Y105.187 F7200
G1 X135.101 Y104.415 E4.3643 F3600
G0 X135.101 Y104.980 F7200
G1 X134.329 Y105.753 E4.4006 F3600
G0 X134.571 Y106.077 F7200
G1 X135.101 Y105.546 E4.4256 F3600
G0 X133.624 Y102.498 F7200
G1 X132.851 Y103.270 E4.4619 F3600
G0 X132.851 Y102.705 F7200
G1 X133.624 Y101.932 E4.4983 F3600
G0 X133.624 Y101.366 F7200
G1 X132.851 Y102.139 E4.5346 F3600
G0 X132.851 Y101.573 F7200
G1 X133.624 Y100.801 E4.5710 F3600
G0 X133.624 Y100.235 F7200
G1 X132.851 Y101.008 E4.6073 F3600
G0 X132.851 Y100.442 F7200
G1 X133.624 Y99.669 E4.6436 F3600
G0 X133.624 Y99.104 F7200
G1 X132.851 Y99.876 E4.6800 F3600
G0 X132.851 Y99.311 F7200
G1 X133.624 Y98.538 E4.7163 F3600
G0 X133.624 Y97.972 F7200
G1 X132.851 Y98.745 E4.7526 F3600
G0 X132.851 Y98.179 F7200
G1 X133.624 Y97.407 E4.7890 F3600
G0 X133.624 Y96.841 F7200
G1 X132.851 Y97.613 E4.8253 F3600
G0 X132.851 Y97.048 F7200
G1 X133.624 Y96.275 E4.8617 F3600
G0 X133.624 Y95.710 F7200
G1 X132.851 Y96.482 E4.8980 F3600
G0 X132.851 Y95.916 F7200
G1 X133.624 Y95.144 E4.9343 F3600
G0 X133.624 Y94.578 F7200
G1 X132.851 Y95.351 E4.9707 F3600
G0 X132.851 Y94.785 F7200
G1 X133.624 Y94.013 E5.0070 F3600
G0 X133.624 Y93.447 F7200
G1 X132.851 Y94.219 E5.0433 F3600
G0 X132.851 Y93.654 F7200
G1 X133.624 Y92.881 E5.0797 F3600
G0 X133.624 Y92.315 F7200
G1 X132.851 Y93.088 E5.1160 F3600
G0 X132.851 Y92.522 F7200
G1 X133.624 Y91.750 E5.1524 F3600
G0 X133.624 Y91.184 F7200
G1 X132.851 Y91.957 E5.1887 F3600
G0 X132.851 Y91.391 F7200
G1 X133.624 Y90.618 E5.2250 F3600
G0 X133.624 Y90.053 F7200
G1 X132.851 Y90.825 E5.2614 F3600
G0 X132.851 Y90.260 F7200
G1 X133.624 Y89.487 E5.2977 F3600
G0 X133.624 Y88.921 F7200
G1 X132.851 Y89.694 E5.3340 F3600
G0 X132.851 Y89.128 F7200
G1 X133.613 Y88.366 E5.3699 F3600
;segType:Infill
G0 F3000 E4.3699
G0 X128.431 Y90.720 F7200
G0 F3000 E5.3699
G1 X124.865 Y94.286 E5.5712 F4500
G0 X128.431 Y95.246 F7200
G1 X124.507 Y99.170 E5.7926 F4500
;segType:Perimeter
G0 X122.860 Y97.856 F7200
G1 X122.600 Y97.099 E5.8192 F2160
G1 X122.662 Y96.207 E5.8490
G1 X122.861 Y95.262 E5.8811
G1 X123.188 Y94.335 E5.9138
G1 X123.644 Y93.434 E5.9474
G1 X124.225 Y92.566 E5.9821
G1 X124.925 Y91.741 E6.0181
G1 X125.736 Y90.967 E6.0554
G1 X126.653 Y90.252 E6.0941
G1 X127.666 Y89.603 E6.1341
G1 X128.767 Y89.026 E6.1754
G1 X129.748 Y88.610 E6.2109
G1 X129.917 Y88.618 E6.2186
G1 X129.982 Y88.521 E6.2226
G1 X129.986 Y88.513 E6.2229
G0 X130.070 Y88.388 F7200
G0 X129.994 Y88.502
G1 X129.991 Y88.616 E6.2267 F2160
G1 X129.991 Y105.807 E6.7985
G1 X129.989 Y105.809 E6.7986
G1 X129.925 Y105.712 E6.8037
G1 X129.761 Y105.714 E6.8092
G1 X128.767 Y105.293 E6.8451
G1 X127.666 Y104.716 E6.8864
G1 X126.653 Y104.067 E6.9265
G1 X125.736 Y103.351 E6.9651
G1 X124.925 Y102.577 E7.0024
G1 X124.225 Y101.752 E7.0384
G1 X123.644 Y100.885 E7.0731
G1 X123.188 Y99.983 E7.1067
G1 X122.861 Y99.056 E7.1394
G1 X122.662 Y98.112 E7.1715
G1 X122.600 Y97.219 E7.2013
G0 X122.860 Y96.463 F7200
;segType:Loop
G0 X123.080 Y96.164
G1 X123.247 Y95.371 E7.2283 F3600
G1 X123.557 Y94.493 E7.2592
G1 X123.990 Y93.636 E7.2912
G1 X124.545 Y92.808 E7.3243
G1 X125.217 Y92.016 E7.3589
G1 X125.998 Y91.270 E7.3948
G1 X126.885 Y90.579 E7.4322
G1 X127.867 Y89.949 E7.4710
G1 X128.937 Y89.388 E7.5112
G1 X129.373 Y89.205 E7.5269
G1 X129.532 Y89.202 E7.5338
G1 X129.596 Y89.105 E7.5375
G1 X129.661 Y89.008 E7.5401
G1 X129.617 Y89.074 E7.5423
G1 X129.591 Y89.188 E7.5462
G1 X129.591 Y105.074 E8.0746
G1 X129.579 Y105.188 E8.0786
G1 X129.655 Y105.302 E8.0817
G1 X129.668 Y105.322 E8.0822
G1 X129.604 Y105.225 E8.0858
G1 X129.539 Y105.128 E8.0907
G1 X129.386 Y105.119 E8.0958
G1 X128.937 Y104.931 E8.1120
G1 X127.867 Y104.370 E8.1522
G1 X126.884 Y103.740 E8.1910
G1 X125.998 Y103.048 E8.2284
G1 X125.217 Y102.303 E8.2643
G1 X124.545 Y101.511 E8.2988
G1 X123.990 Y100.682 E8.3320
G1 X123.557 Y99.826 E8.3639
G1 X123.247 Y98.948 E8.3949
G1 X123.059 Y98.056 E8.4252
G1 X122.997 Y97.159 E8.4551
G1 X123.052 Y96.362 E8.4817
;segType:Infill
G0 X128.431 Y99.771 F7200
G1 X126.218 Y101.984 E8.6066 F4500
;segType:HShell
G0 X128.062 Y103.817 F7200
G1 X127.556 Y103.474 E8.6213 F3600
G1 X127.227 Y103.238 E8.6367
G1 X126.909 Y102.990 E8.6532
G1 X126.603 Y102.730 E8.6696
G1 X126.306 Y102.462 E8.6873
G1 X126.020 Y102.183 E8.7056
G1 X125.745 Y101.891 E8.7243
G1 X125.483 Y101.588 E8.7444
G1 X125.235 Y101.270 E8.7648
G1 X124.997 Y100.942 E8.7863
G1 X124.778 Y100.596 E8.8088
G1 X124.569 Y100.238 E8.8321
G1 X124.384 Y99.858 E8.8570
G0 X124.507 Y99.170 F7200
G1 X123.923 Y99.753 E8.8845 F3600
G0 X123.768 Y99.343 F7200
G1 X124.371 Y98.740 E8.9128 F3600
G0 X124.273 Y98.273 F7200
G1 X123.620 Y98.925 E8.9435 F3600
G0 X123.513 Y98.466 F7200
G1 X124.201 Y97.778 E8.9759 F3600
G0 X124.164 Y97.250 F7200
G1 X123.416 Y97.998 E9.0111 F3600
G0 X123.379 Y97.469 F7200
G1 X124.193 Y96.655 E9.0493 F3600
G0 X124.282 Y96.000 F7200
G1 X123.375 Y96.907 E9.0920 F3600
G0 X123.420 Y96.297 F7200
G1 X124.473 Y95.243 E9.1415 F3600
G0 X124.865 Y94.286 F7200
G1 X123.570 Y95.581 E9.2024 F3600
G0 X123.854 Y94.731 F7200
G1 X126.038 Y92.547 E9.3051 F3600
G0 X124.505 Y93.515 F7200
G1 X127.243 Y90.777 E9.4339 F3600
G0 X128.629 Y89.956 F7200
G1 X127.073 Y91.513 E9.5072 F3600
;segType:InnerHair
G0 X129.209 Y89.688 F7200
G1 X129.274 Y89.591 E9.5094 F3600
G1 X129.228 Y89.645 E9.5113
G1 X129.209 Y89.688 E9.5128
;segType:HShell
G0 X129.231 Y89.920 F7200
G1 X128.431 Y90.720 E9.5504 F3600
G0 X128.431 Y91.286 F7200
G1 X129.231 Y90.486 E9.5880 F3600
G0 X129.231 Y91.052 F7200
G1 X128.431 Y91.852 E9.6257 F3600
G0 X128.431 Y92.417 F7200
G1 X129.231 Y91.617 E9.6633 F3600
G0 X129.231 Y92.183 F7200
G1 X128.431 Y92.983 E9.7009 F3600
G0 X128.431 Y93.549 F7200
G1 X129.231 Y92.749 E9.7386 F3600
G0 X129.231 Y93.314 F7200
G1 X128.431 Y94.115 E9.7762 F3600
G0 X128.431 Y94.680 F7200
G1 X129.231 Y93.880 E9.8138 F3600
G0 X129.231 Y94.446 F7200
G1 X128.431 Y95.246 E9.8515 F3600
G0 X128.431 Y95.812 F7200
G1 X129.231 Y95.011 E9.8891 F3600
G0 X129.231 Y95.577 F7200
G1 X128.431 Y96.377 E9.9267 F3600
G0 X128.431 Y96.943 F7200
G1 X129.231 Y96.143 E9.9644 F3600
G0 X129.231 Y96.709 F7200
G1 X128.431 Y97.509 E10.0020 F3600
G0 X128.431 Y98.074 F7200
G1 X129.231 Y97.274 E10.0396 F3600
G0 X129.231 Y97.840 F7200
G1 X128.431 Y98.640 E10.0773 F3600
G0 X128.431 Y99.206 F7200
G1 X129.231 Y98.406 E10.1149 F3600
G0 X129.231 Y98.971 F7200
G1 X128.431 Y99.771 E10.1525 F3600
G0 X128.431 Y100.337 F7200
G1 X129.231 Y99.537 E10.1902 F3600
G0 X129.231 Y100.103 F7200
G1 X128.431 Y100.903 E10.2278 F3600
G0 X128.431 Y101.468 F7200
G1 X129.231 Y100.668 E10.2654 F3600
G0 X129.231 Y101.234 F7200
G1 X128.431 Y102.034 E10.3031 F3600
G0 X128.431 Y102.600 F7200
G1 X129.231 Y101.800 E10.3407 F3600
G0 X129.231 Y102.365 F7200
G1 X128.431 Y103.165 E10.3783 F3600
G0 X128.085 Y104.077 F7200
G1 X129.231 Y102.931 E10.4322 F3600
G0 X129.231 Y103.497 F7200
G1 X128.456 Y104.272 E10.4687 F3600
G0 X128.827 Y104.466 F7200
G1 X129.231 Y104.062 E10.4877 F3600
;segType:InnerHair
G0 X129.194 Y104.616 F7200
G1 X129.263 Y104.731 E10.4905 F3600
G1 X129.281 Y104.739 E10.4909
G1 X129.217 Y104.642 E10.4942
G1 X129.151 Y104.546 E10.4989
G1 X129.194 Y104.616 E10.5016
; ------------------------------------
; Layer #6
; ------------------------------------
G92 E0 ;reset extr
G0 F3000 E-1.0000
G0 F1200 Z1.400
G0 X131.664 Y104.949 F7200
G0 X134.135 Y105.281
G0 F3000 E0.0000
;segType:HShell
G1 X134.903 Y106.049 E0.0361 F3600
G0 X134.908 Y105.488 F7200
G1 X134.135 Y104.715 E0.0725 F3600
G0 X134.135 Y104.150 F7200
G1 X134.908 Y104.923 E0.1089 F3600
G0 X134.908 Y104.357 F7200
G1 X134.135 Y103.584 E0.1452 F3600
;segType:Infill
G0 X134.135 Y104.150 F7200
G1 X133.431 Y103.445 E0.1850 F4500
G0 X134.135 Y99.624 F7200
G1 X133.431 Y98.920 E0.2247 F4500
G0 X134.135 Y95.099 F7200
G1 X133.431 Y94.394 E0.2645 F4500
G0 X134.135 Y90.573 F7200
G1 X133.431 Y89.869 E0.3042 F4500
;segType:Perimeter
G0 X134.903 Y87.694 F7200
G1 X135.668 Y87.460 E0.3308 F2160
G1 X135.668 Y106.918 E0.9780
G1 X135.462 Y106.911 E0.9848
G1 X134.078 Y106.769 E1.0311
G1 X132.722 Y106.532 E1.0769
G1 X131.898 Y106.327 E1.1052
G1 X131.898 Y87.991 E1.7150
G1 X132.722 Y87.786 E1.7433
G1 X134.078 Y87.550 E1.7891
G1 X135.462 Y87.407 E1.8353
G1 X135.608 Y87.402 E1.8402
G0 X135.401 Y88.175 F7200
;segType:Loop
G0 X135.268 Y88.500
G1 X135.268 Y106.445 E2.4370 F3600
G1 X135.243 Y106.486 E2.4387
G1 X134.133 Y106.372 E2.4758
G1 X132.805 Y106.140 E2.5206
G1 X132.298 Y106.015 E2.5380
G1 X132.298 Y88.304 E3.1271
G1 X132.805 Y88.178 E3.1444
G1 X134.133 Y87.946 E3.1893
G1 X135.243 Y87.832 E3.2264
G1 X135.268 Y87.931 E3.2298
G1 X135.268 Y88.300 E3.2421
;segType:HShell
G0 X134.908 Y89.084 F7200
G1 X134.136 Y88.311 E3.2784 F3600
G0 X134.135 Y88.876 F7200
G1 X134.908 Y89.649 E3.3147 F3600
G0 X134.908 Y90.215 F7200
G1 X134.135 Y89.442 E3.3511 F3600
G0 X134.135 Y90.007 F7200
G1 X134.908 Y90.781 E3.3875 F3600
G0 X134.908 Y91.346 F7200
G1 X134.135 Y90.573 E3.4239 F3600
G0 X134.135 Y91.139 F7200
G1 X134.908 Y91.912 E3.4602 F3600
G0 X134.908 Y92.478 F7200
G1 X134.135 Y91.704 E3.4966 F3600
G0 X134.135 Y92.270 F7200
G1 X134.908 Y93.043 E3.5330 F3600
G0 X134.908 Y93.609 F7200
G1 X134.135 Y92.836 E3.5693 F3600
G0 X134.135 Y93.401 F7200
G1 X134.908 Y94.175 E3.6057 F3600
G0 X134.908 Y94.740 F7200
G1 X134.135 Y93.967 E3.6421 F3600
G0 X134.135 Y94.533 F7200
G1 X134.908 Y95.306 E3.6784 F3600
G0 X134.908 Y95.872 F7200
G1 X134.135 Y95.099 E3.7148 F3600
G0 X134.135 Y95.664 F7200
G1 X134.908 Y96.437 E3.7512 F3600
G0 X134.908 Y97.003 F7200
G1 X134.135 Y96.230 E3.7876 F3600
G0 X134.135 Y96.796 F7200
G1 X134.908 Y97.569 E3.8239 F3600
G0 X134.908 Y98.135 F7200
G1 X134.135 Y97.361 E3.8603 F3600
G0 X134.135 Y97.927 F7200
G1 X134.908 Y98.700 E3.8967 F3600
G0 X134.908 Y99.266 F7200
G1 X134.135 Y98.493 E3.9330 F3600
G0 X134.135 Y99.058 F7200
G1 X134.908 Y99.832 E3.9694 F3600
G0 X134.908 Y100.397 F7200
G1 X134.135 Y99.624 E4.0058 F3600
G0 X134.135 Y100.190 F7200
G1 X134.908 Y100.963 E4.0421 F3600
G0 X134.908 Y101.529 F7200
G1 X134.135 Y100.755 E4.0785 F3600
G0 X134.135 Y101.321 F7200
G1 X134.908 Y102.094 E4.1149 F3600
G0 X134.908 Y102.660 F7200
G1 X134.135 Y101.887 E4.1512 F3600
G0 X134.135 Y102.452 F7200
G1 X134.908 Y103.226 E4.1876 F3600
G0 X134.908 Y103.791 F7200
G1 X134.135 Y103.018 E4.2240 F3600
G0 X132.658 Y105.501 F7200
G1 X132.959 Y105.802 E4.2381 F3600
G0 X133.431 Y105.708 F7200
G1 X132.658 Y104.935 E4.2745 F3600
G0 X132.658 Y104.369 F7200
G1 X133.431 Y105.142 E4.3109 F3600
G0 X133.431 Y104.577 F7200
G1 X132.658 Y103.804 E4.3472 F3600
G0 X132.658 Y103.238 F7200
G1 X133.431 Y104.011 E4.3836 F3600
G0 X133.431 Y103.445 F7200
G1 X132.658 Y102.672 E4.4199 F3600
G0 X132.658 Y102.107 F7200
G1 X133.431 Y102.880 E4.4563 F3600
G0 X133.431 Y102.314 F7200
G1 X132.658 Y101.541 E4.4927 F3600
G0 X132.658 Y100.975 F7200
G1 X133.431 Y101.748 E4.5290 F3600
G0 X133.431 Y101.183 F7200
G1 X132.658 Y100.410 E4.5654 F3600
G0 X132.658 Y99.844 F7200
G1 X133.431 Y100.617 E4.6017 F3600
G0 X133.431 Y100.051 F7200
G1 X132.658 Y99.278 E4.6381 F3600
G0 X132.658 Y98.713 F7200
G1 X133.431 Y99.486 E4.6745 F3600
G0 X133.431 Y98.920 F7200
G1 X132.658 Y98.147 E4.7108 F3600
G0 X132.658 Y97.581 F7200
G1 X133.431 Y98.354 E4.7472 F3600
G0 X133.431 Y97.789 F7200
G1 X132.658 Y97.016 E4.7835 F3600
G0 X132.658 Y96.450 F7200
G1 X133.431 Y97.223 E4.8199 F3600
G0 X133.431 Y96.657 F7200
G1 X132.658 Y95.884 E4.8563 F3600
G0 X132.658 Y95.319 F7200
G1 X133.431 Y96.092 E4.8926 F3600
G0 X133.431 Y95.526 F7200
G1 X132.658 Y94.753 E4.9290 F3600
G0 X132.658 Y94.187 F7200
G1 X133.431 Y94.960 E4.9653 F3600
G0 X133.431 Y94.394 F7200
G1 X132.658 Y93.621 E5.0017 F3600
G0 X132.658 Y93.056 F7200
G1 X133.431 Y93.829 E5.0381 F3600
G0 X133.431 Y93.263 F7200
G1 X132.658 Y92.490 E5.0744 F3600
G0 X132.658 Y91.924 F7200
G1 X133.431 Y92.697 E5.1108 F3600
G0 X133.431 Y92.132 F7200
G1 X132.658 Y91.359 E5.1471 F3600
G0 X132.658 Y90.793 F7200
G1 X133.431 Y91.566 E5.1835 F3600
G0 X133.431 Y91.000 F7200
G1 X132.658 Y90.227 E5.2198 F3600
G0 X132.658 Y89.662 F7200
G1 X133.431 Y90.435 E5.2562 F3600
G0 X133.431 Y89.869 F7200
G1 X132.658 Y89.096 E5.2926 F3600
G0 X132.702 Y88.575 F7200
G1 X133.431 Y89.303 E5.3268 F3600
G0 F3000 E4.3268
G0 X124.166 Y99.838 F7200
G0 F3000 E5.3268
G1 X128.539 Y104.210 E5.5325 F3600
G0 X129.031 Y104.136 F7200
G1 X128.231 Y103.336 E5.5702 F3600
G0 X128.231 Y102.771 F7200
G1 X129.031 Y103.571 E5.6078 F3600
G0 X129.031 Y103.005 F7200
G1 X128.231 Y102.205 E5.6454 F3600
;segType:Infill
G0 X128.231 Y102.771 F7200
G1 X124.749 Y99.289 E5.8419 F4500
;segType:Perimeter
G0 X123.060 Y97.856 F7200
G1 X122.800 Y97.099 E5.8685 F2160
G1 X122.862 Y96.207 E5.8983
G1 X123.060 Y95.262 E5.9304
G1 X123.388 Y94.335 E5.9631
G1 X123.844 Y93.434 E5.9967
G1 X124.425 Y92.566 E6.0314
G1 X125.125 Y91.741 E6.0674
G1 X125.936 Y90.967 E6.1047
G1 X126.853 Y90.252 E6.1434
G1 X127.866 Y89.603 E6.1834
G1 X128.967 Y89.026 E6.2247
G1 X129.580 Y88.766 E6.2469
G1 X129.736 Y88.760 E6.2535
G1 X129.800 Y88.663 E6.2572
G1 X129.865 Y88.565 E6.2596
G1 X129.831 Y88.616 E6.2613
G1 X129.791 Y88.731 E6.2653
G1 X129.791 Y105.531 E6.8241
G1 X129.793 Y105.645 E6.8278
G1 X129.869 Y105.759 E6.8306
G1 X129.872 Y105.765 E6.8308
G1 X129.808 Y105.667 E6.8343
G1 X129.743 Y105.570 E6.8391
G1 X129.594 Y105.558 E6.8441
G1 X128.967 Y105.293 E6.8667
G1 X127.866 Y104.716 E6.9081
G1 X126.853 Y104.067 E6.9481
G1 X125.936 Y103.351 E6.9868
G1 X125.125 Y102.577 E7.0240
G1 X124.425 Y101.752 E7.0600
G1 X123.844 Y100.885 E7.0948
G1 X123.388 Y99.983 E7.1284
G1 X123.060 Y99.056 E7.1611
G1 X122.862 Y98.112 E7.1932
G1 X122.800 Y97.219 E7.2229
G0 X123.060 Y96.463 F7200
;segType:Loop
G0 X123.280 Y96.164
G1 X123.446 Y95.371 E7.2499 F3600
G1 X123.757 Y94.493 E7.2809
G1 X124.190 Y93.636 E7.3128
G1 X124.745 Y92.808 E7.3460
G1 X125.417 Y92.016 E7.3805
G1 X126.198 Y91.270 E7.4164
G1 X127.085 Y90.579 E7.4538
G1 X128.067 Y89.949 E7.4926
G1 X129.200 Y89.355 E7.5352
G1 X129.349 Y89.343 E7.5412
G1 X129.414 Y89.246 E7.5446
G1 X129.478 Y89.149 E7.5468
G1 X129.452 Y89.188 E7.5479
G1 X129.362 Y89.302 E7.5534
G1 X129.391 Y89.416 E7.5573
G1 X129.391 Y104.959 E8.0743
G1 X129.397 Y105.074 E8.0780
G1 X129.490 Y105.188 E8.0804
G1 X129.486 Y105.181 E8.0806
G1 X129.421 Y105.084 E8.0839
G1 X129.357 Y104.987 E8.0884
G1 X129.292 Y104.890 E8.0942
G1 X129.106 Y104.914 E8.1004
G1 X128.067 Y104.370 E8.1395
G1 X127.085 Y103.740 E8.1783
G1 X126.198 Y103.048 E8.2157
G1 X125.417 Y102.303 E8.2516
G1 X124.745 Y101.511 E8.2861
G1 X124.190 Y100.682 E8.3193
G1 X123.757 Y99.826 E8.3512
G1 X123.446 Y98.948 E8.3822
G1 X123.259 Y98.056 E8.4125
G1 X123.197 Y97.159 E8.4424
G1 X123.252 Y96.362 E8.4690
;segType:Infill
G0 X124.818 Y94.833 F7200
G1 X128.231 Y98.245 E8.6616 F4500
G0 X128.231 Y93.720 F7200
G1 X126.630 Y92.119 E8.7519 F4500
;segType:HShell
G0 X123.821 Y98.927 F7200
G1 X125.207 Y100.312 E8.8171 F3600
G0 X124.749 Y99.289 F7200
G1 X123.657 Y98.197 E8.8685 F3600
G0 X123.586 Y97.560 F7200
G1 X124.519 Y98.493 E8.9124 F3600
G0 X124.403 Y97.812 F7200
G1 X123.570 Y96.979 E8.9516 F3600
G0 X123.607 Y96.450 F7200
G1 X124.361 Y97.204 E8.9870 F3600
G0 X124.392 Y96.669 F7200
G1 X123.689 Y95.967 E9.0201 F3600
G0 X123.787 Y95.499 F7200
G1 X124.449 Y96.160 E9.0512 F3600
G0 X124.547 Y95.693 F7200
G1 X123.932 Y95.078 E9.0801 F3600
G0 X124.080 Y94.660 F7200
G1 X124.671 Y95.251 E9.1079 F3600
G0 X124.453 Y94.750 F7200
G1 X124.723 Y94.172 E9.1338 F3600
G1 X124.927 Y93.810 E9.1588
G1 X125.142 Y93.459 E9.1825
G1 X125.376 Y93.128 E9.2050
G1 X125.619 Y92.805 E9.2269
G1 X125.879 Y92.499 E9.2473
G1 X126.152 Y92.207 E9.2676
G1 X126.435 Y91.924 E9.2867
G1 X126.729 Y91.652 E9.3050
G1 X127.033 Y91.390 E9.3230
G1 X127.349 Y91.141 E9.3396
G1 X127.675 Y90.902 E9.3561
G0 X127.853 Y90.514 F7200
G1 X129.031 Y91.691 E9.4115 F3600
G0 X129.031 Y91.126 F7200
G1 X128.198 Y90.293 E9.4506 F3600
G0 X128.565 Y90.094 F7200
G1 X129.031 Y90.560 E9.4725 F3600
;segType:InnerHair
G0 X128.976 Y89.940 F7200
G1 X129.037 Y89.839 E9.4755 F3600
G1 X129.098 Y89.739 E9.4773
;segType:HShell
G0 X129.031 Y92.257 F7200
G1 X128.231 Y91.457 E9.5150 F3600
G0 X128.231 Y92.023 F7200
G1 X129.031 Y92.823 E9.5526 F3600
G0 X129.031 Y93.388 F7200
G1 X128.231 Y92.588 E9.5902 F3600
G0 X128.231 Y93.154 F7200
G1 X129.031 Y93.954 E9.6279 F3600
G0 X129.031 Y94.520 F7200
G1 X128.231 Y93.720 E9.6655 F3600
G0 X128.231 Y94.285 F7200
G1 X129.031 Y95.085 E9.7031 F3600
G0 X129.031 Y95.651 F7200
G1 X128.231 Y94.851 E9.7408 F3600
G0 X128.231 Y95.417 F7200
G1 X129.031 Y96.217 E9.7784 F3600
G0 X129.031 Y96.782 F7200
G1 X128.231 Y95.982 E9.8160 F3600
G0 X128.231 Y96.548 F7200
G1 X129.031 Y97.348 E9.8537 F3600
G0 X129.031 Y97.914 F7200
G1 X128.231 Y97.114 E9.8913 F3600
G0 X128.231 Y97.679 F7200
G1 X129.031 Y98.479 E9.9289 F3600
G0 X129.031 Y99.045 F7200
G1 X128.231 Y98.245 E9.9666 F3600
G0 X128.231 Y98.811 F7200
G1 X129.031 Y99.611 E10.0042 F3600
G0 X129.031 Y100.177 F7200
G1 X128.231 Y99.376 E10.0418 F3600
G0 X128.231 Y99.942 F7200
G1 X129.031 Y100.742 E10.0795 F3600
G0 X129.031 Y101.308 F7200
G1 X128.231 Y100.508 E10.1171 F3600
G0 X128.231 Y101.074 F7200
G1 X129.031 Y101.874 E10.1547 F3600
G0 X129.031 Y102.439 F7200
G1 X128.231 Y101.639 E10.1924 F3600
;segType:InnerHair
G0 X128.984 Y104.390 F7200
G1 X129.045 Y104.491 E10.1952 F3600
G1 X129.105 Y104.592 E10.1969
G1 X128.984 Y104.390 E10.2050
;segType:HShell
G0 X126.909 Y103.146 F7200
G1 X124.985 Y101.222 E10.2955 F3600
; ------------------------------------
; Layer #7
; ------------------------------------
G92 E0 ;reset extr
G0 F3000 E-1.0000
G0 F1200 Z1.600
G0 X129.111 Y101.487 F7200
G0 X131.175 Y101.620
G0 X133.238 Y101.752
G0 F3000 E0.0000
;segType:HShell
G1 X132.465 Y102.526 E0.0364 F3600
G0 X132.465 Y103.091 F7200
G1 X133.238 Y102.318 E0.0727 F3600
G0 X133.238 Y102.884 F7200
G1 X132.465 Y103.657 E0.1091 F3600
G0 X132.465 Y104.223 F7200
G1 X133.238 Y103.450 E0.1455 F3600
G0 X133.238 Y104.015 F7200
G1 X132.465 Y104.788 E0.1818 F3600
G0 X132.465 Y105.354 F7200
G1 X133.238 Y104.581 E0.2182 F3600
;segType:Infill
G0 X133.238 Y104.015 F7200
G1 X133.942 Y103.311 E0.2580 F4500
G0 X133.238 Y99.490 F7200
G1 X133.942 Y98.786 E0.2977 F4500
G0 X133.238 Y94.964 F7200
G1 X133.942 Y94.260 E0.3374 F4500
G0 X133.238 Y90.439 F7200
G1 X133.942 Y89.735 E0.3772 F4500
;segType:Perimeter
G0 X134.728 Y87.773 F7200
G1 X135.475 Y87.488 E0.4038 F2160
G1 X135.474 Y101.988 E0.8860
G1 X135.456 Y106.889 E1.0491
G1 X134.286 Y106.769 E1.0882
G1 X132.929 Y106.532 E1.1340
G1 X131.704 Y106.224 E1.1760
G1 X131.704 Y88.094 E1.7790
G1 X132.929 Y87.786 E1.8210
G1 X134.286 Y87.550 E1.8668
G1 X135.416 Y87.435 E1.9046
G0 X135.209 Y88.207 F7200
;segType:Loop
G0 X135.075 Y88.528
G1 X135.075 Y101.988 E2.3523 F3600
G1 X135.058 Y106.446 E2.5005
G1 X134.340 Y106.372 E2.5245
G1 X133.013 Y106.141 E2.5694
G1 X132.104 Y105.912 E2.6005
G1 X132.104 Y88.406 E3.1828
G1 X133.013 Y88.178 E3.2139
G1 X134.340 Y87.946 E3.2587
G1 X135.075 Y87.871 E3.2833
G1 X135.075 Y88.328 E3.2985
;segType:HShell
G0 X134.715 Y88.396 F7200
G1 X133.942 Y89.169 E3.3349 F3600
G0 X133.942 Y89.735 F7200
G1 X134.715 Y88.961 E3.3713 F3600
G0 X134.715 Y89.527 F7200
G1 X133.942 Y90.300 E3.4076 F3600
G0 X133.942 Y90.866 F7200
G1 X134.715 Y90.093 E3.4440 F3600
G0 X134.715 Y90.659 F7200
G1 X133.942 Y91.432 E3.4804 F3600
G0 X133.942 Y91.997 F7200
G1 X134.715 Y91.224 E3.5168 F3600
G0 X134.715 Y91.790 F7200
G1 X133.942 Y92.563 E3.5531 F3600
G0 X133.942 Y93.129 F7200
G1 X134.715 Y92.356 E3.5895 F3600
G0 X134.715 Y92.921 F7200
G1 X133.942 Y93.695 E3.6259 F3600
G0 X133.942 Y94.260 F7200
G1 X134.715 Y93.487 E3.6622 F3600
G0 X134.715 Y94.053 F7200
G1 X133.942 Y94.826 E3.6986 F3600
G0 X133.942 Y95.392 F7200
G1 X134.715 Y94.619 E3.7349 F3600
G0 X134.715 Y95.184 F7200
G1 X133.942 Y95.957 E3.7713 F3600
G0 X133.942 Y96.523 F7200
G1 X134.715 Y95.750 E3.8077 F3600
G0 X134.715 Y96.316 F7200
G1 X133.942 Y97.089 E3.8440 F3600
G0 X133.942 Y97.654 F7200
G1 X134.715 Y96.881 E3.8804 F3600
G0 X134.715 Y97.447 F7200
G1 X133.942 Y98.220 E3.9167 F3600
G0 X133.942 Y98.786 F7200
G1 X134.715 Y98.013 E3.9531 F3600
G0 X134.715 Y98.579 F7200
G1 X133.942 Y99.351 E3.9894 F3600
G0 X133.942 Y99.917 F7200
G1 X134.715 Y99.144 E4.0258 F3600
G0 X134.715 Y99.710 F7200
G1 X133.942 Y100.483 E4.0621 F3600
G0 X133.942 Y101.048 F7200
G1 X134.715 Y100.276 E4.0985 F3600
G0 X134.714 Y100.841 F7200
G1 X133.942 Y101.614 E4.1348 F3600
G0 X133.942 Y102.180 F7200
G1 X134.714 Y101.407 E4.1711 F3600
G0 X134.714 Y101.973 F7200
G1 X133.942 Y102.745 E4.2075 F3600
G0 X133.942 Y103.311 F7200
G1 X134.712 Y102.541 E4.2437 F3600
G0 X134.710 Y103.108 F7200
G1 X133.942 Y103.877 E4.2799 F3600
G0 X133.942 Y104.443 F7200
G1 X134.708 Y103.676 E4.3159 F3600
G0 X134.706 Y104.244 F7200
G1 X133.942 Y105.008 E4.3518 F3600
G0 X133.942 Y105.574 F7200
G1 X134.704 Y104.812 E4.3877 F3600
G0 X134.702 Y105.380 F7200
G1 X134.114 Y105.967 E4.4153 F3600
G0 X133.238 Y105.147 F7200
G1 X132.695 Y105.689 E4.4409 F3600
G0 X133.238 Y101.187 F7200
G1 X132.465 Y101.960 E4.4772 F3600
G0 X132.465 Y101.394 F7200
G1 X133.238 Y100.621 E4.5136 F3600
G0 X133.238 Y100.055 F7200
G1 X132.465 Y100.829 E4.5500 F3600
G0 X132.465 Y100.263 F7200
G1 X133.238 Y99.490 E4.5863 F3600
G0 X133.238 Y98.924 F7200
G1 X132.465 Y99.697 E4.6227 F3600
G0 X132.465 Y99.132 F7200
G1 X133.238 Y98.358 E4.6591 F3600
G0 X133.238 Y97.793 F7200
G1 X132.465 Y98.566 E4.6955 F3600
G0 X132.465 Y98.000 F7200
G1 X133.238 Y97.227 E4.7318 F3600
G0 X133.238 Y96.661 F7200
G1 X132.465 Y97.435 E4.7682 F3600
G0 X132.465 Y96.869 F7200
G1 X133.238 Y96.096 E4.8046 F3600
G0 X133.238 Y95.530 F7200
G1 X132.465 Y96.303 E4.8409 F3600
G0 X132.465 Y95.737 F7200
G1 X133.238 Y94.964 E4.8773 F3600
G0 X133.238 Y94.399 F7200
G1 X132.465 Y95.172 E4.9137 F3600
G0 X132.465 Y94.606 F7200
G1 X133.238 Y93.833 E4.9500 F3600
G0 X133.238 Y93.267 F7200
G1 X132.465 Y94.040 E4.9864 F3600
G0 X132.465 Y93.475 F7200
G1 X133.238 Y92.702 E5.0228 F3600
G0 X133.238 Y92.136 F7200
G1 X132.465 Y92.909 E5.0591 F3600
G0 X132.465 Y92.343 F7200
G1 X133.238 Y91.570 E5.0955 F3600
G0 X133.238 Y91.004 F7200
G1 X132.465 Y91.778 E5.1319 F3600
G0 X132.465 Y91.212 F7200
G1 X133.238 Y90.439 E5.1683 F3600
G0 X133.238 Y89.873 F7200
G1 X132.465 Y90.646 E5.2046 F3600
G0 X132.465 Y90.081 F7200
G1 X133.238 Y89.307 E5.2410 F3600
G0 X133.238 Y88.742 F7200
G1 X132.465 Y89.515 E5.2774 F3600
G0 X132.465 Y88.949 F7200
G1 X132.815 Y88.599 E5.2938 F3600
G0 F3000 E4.2938
G0 X128.031 Y91.686 F7200
G0 F3000 E5.2938
G1 X128.831 Y90.886 E5.3315 F3600
G0 X128.831 Y90.320 F7200
G1 X127.917 Y91.234 E5.3744 F3600
;segType:Infill
G1 X125.844 Y93.307 E5.4914 F4500
G0 X128.031 Y95.646 F7200
G1 X124.802 Y98.874 E5.6736 F4500
;segType:Perimeter
G0 X123.260 Y97.856 F7200
G1 X123.000 Y97.099 E5.7003 F2160
G1 X123.062 Y96.207 E5.7300
G1 X123.261 Y95.262 E5.7621
G1 X123.588 Y94.335 E5.7948
G1 X124.045 Y93.434 E5.8284
G1 X124.625 Y92.566 E5.8631
G1 X125.325 Y91.741 E5.8991
G1 X126.136 Y90.967 E5.9364
G1 X127.053 Y90.252 E5.9751
G1 X128.066 Y89.603 E6.0151
G1 X129.167 Y89.026 E6.0565
G1 X129.413 Y88.922 E6.0653
G1 X129.554 Y88.901 E6.0709
G1 X129.618 Y88.804 E6.0743
G1 X129.683 Y88.707 E6.0764
G1 X129.667 Y88.731 E6.0770
G1 X129.566 Y88.845 E6.0827
G1 X129.591 Y88.959 E6.0866
G1 X129.591 Y105.416 E6.6339
G1 X129.629 Y105.531 E6.6372
G1 X129.690 Y105.623 E6.6390
G1 X129.626 Y105.526 E6.6422
G1 X129.562 Y105.429 E6.6467
G1 X129.497 Y105.331 E6.6524
G1 X129.167 Y105.293 E6.6634
G1 X128.066 Y104.716 E6.7048
G1 X127.053 Y104.067 E6.7448
G1 X126.136 Y103.351 E6.7834
G1 X125.325 Y102.578 E6.8207
G1 X124.625 Y101.752 E6.8567
G1 X124.045 Y100.885 E6.8914
G1 X123.588 Y99.983 E6.9250
G1 X123.261 Y99.056 E6.9578
G1 X123.062 Y98.112 E6.9899
G1 X123.000 Y97.219 E7.0196
G0 X123.260 Y96.462 F7200
;segType:Loop
G0 X123.480 Y96.164
G1 X123.647 Y95.371 E7.0466 F3600
G1 X123.956 Y94.493 E7.0775
G1 X124.390 Y93.636 E7.1095
G1 X124.945 Y92.808 E7.1427
G1 X125.616 Y92.016 E7.1772
G1 X126.398 Y91.270 E7.2131
G1 X127.285 Y90.579 E7.2505
G1 X128.267 Y89.949 E7.2893
G1 X128.950 Y89.591 E7.3150
G1 X129.114 Y89.592 E7.3225
G1 X129.175 Y89.492 E7.3267
G1 X129.235 Y89.391 E7.3298
G0 X129.289 Y89.302 F7200
G0 X129.220 Y89.416
G0 X129.151 Y89.531
G1 X129.191 Y89.645 E7.3338 F3600
G1 X129.191 Y104.731 E7.8355
G1 X129.185 Y104.845 E7.8394
G1 X129.255 Y104.959 E7.8425
G1 X129.243 Y104.940 E7.8430
G1 X129.182 Y104.839 E7.8471
G1 X129.121 Y104.738 E7.8524
G1 X128.963 Y104.734 E7.8577
G1 X128.267 Y104.370 E7.8838
G1 X127.285 Y103.740 E7.9226
G1 X126.398 Y103.048 E7.9600
G1 X125.617 Y102.303 E7.9959
G1 X124.945 Y101.511 E8.0305
G1 X124.390 Y100.682 E8.0636
G1 X123.956 Y99.826 E8.0956
G1 X123.647 Y98.948 E8.1265
G1 X123.459 Y98.056 E8.1568
G1 X123.397 Y97.159 E8.1867
G1 X123.452 Y96.362 E8.2133
;segType:Infill
G0 X126.435 Y101.767 F7200
G1 X128.031 Y100.171 E8.3034 F4500
;segType:HShell
G0 X124.164 Y94.987 F7200
G1 X125.844 Y93.307 E8.3824 F3600
G0 X124.635 Y93.951 F7200
G1 X128.104 Y90.481 E8.5456 F3600
;segType:InnerHair
G0 X128.870 Y89.995 F7200
G1 X128.809 Y90.096 E8.5492 F3600
;segType:HShell
G0 X128.031 Y92.252 F7200
G1 X128.831 Y91.452 E8.5868 F3600
G0 X128.831 Y92.018 F7200
G1 X128.031 Y92.817 E8.6244 F3600
G0 X128.031 Y93.383 F7200
G1 X128.831 Y92.583 E8.6621 F3600
G0 X128.831 Y93.149 F7200
G1 X128.031 Y93.949 E8.6997 F3600
G0 X128.031 Y94.514 F7200
G1 X128.831 Y93.715 E8.7373 F3600
G0 X128.831 Y94.280 F7200
G1 X128.031 Y95.080 E8.7749 F3600
G0 X128.031 Y95.646 F7200
G1 X128.831 Y94.846 E8.8126 F3600
G0 X128.831 Y95.412 F7200
G1 X128.031 Y96.211 E8.8502 F3600
G0 X128.031 Y96.777 F7200
G1 X128.831 Y95.977 E8.8878 F3600
G0 X128.831 Y96.543 F7200
G1 X128.031 Y97.343 E8.9254 F3600
G0 X128.031 Y97.909 F7200
G1 X128.831 Y97.109 E8.9630 F3600
G0 X128.831 Y97.674 F7200
G1 X128.031 Y98.474 E9.0007 F3600
G0 X128.031 Y99.040 F7200
G1 X128.831 Y98.240 E9.0383 F3600
G0 X128.831 Y98.806 F7200
G1 X128.031 Y99.606 E9.0759 F3600
G0 X128.031 Y100.171 F7200
G1 X128.831 Y99.371 E9.1135 F3600
G0 X128.831 Y99.937 F7200
G1 X128.031 Y100.737 E9.1512 F3600
G0 X128.031 Y101.303 F7200
G1 X128.831 Y100.503 E9.1888 F3600
G0 X128.831 Y101.069 F7200
G1 X128.031 Y101.868 E9.2264 F3600
G0 X128.031 Y102.434 F7200
G1 X128.831 Y101.634 E9.2640 F3600
G0 X128.831 Y102.200 F7200
G1 X128.031 Y103.000 E9.3016 F3600
;segType:InnerHair
G0 X128.755 Y104.134 F7200
G1 X128.816 Y104.235 E9.3051 F3600
G1 X128.877 Y104.335 E9.3073
G1 X128.909 Y104.388 E9.3081
G1 X128.840 Y104.274 E9.3115
G1 X128.755 Y104.134 E9.3179
;segType:HShell
G0 X128.238 Y103.923 F7200
G1 X128.831 Y103.331 E9.3457 F3600
G0 X128.831 Y102.766 F7200
G1 X127.894 Y103.702 E9.3898 F3600
G0 X127.880 Y103.433 F7200
G1 X127.402 Y103.063 E9.4060 F3600
G1 X127.092 Y102.807 E9.4225
G1 X126.790 Y102.543 E9.4397
G1 X126.501 Y102.267 E9.4580
G1 X126.225 Y101.977 E9.4764
G1 X125.959 Y101.678 E9.4961
G1 X125.706 Y101.364 E9.5165
G1 X125.464 Y101.041 E9.5375
G1 X125.239 Y100.700 E9.5601
G1 X125.031 Y100.343 E9.5828
G1 X124.835 Y99.973 E9.6072
G0 X124.379 Y99.863 F7200
G1 X124.950 Y99.292 E9.6341 F3600
G0 X124.802 Y98.874 F7200
G1 X124.211 Y99.465 E9.6619 F3600
G0 X124.064 Y99.047 F7200
G1 X124.701 Y98.409 E9.6919 F3600
G0 X124.612 Y97.934 F7200
G1 X123.942 Y98.603 E9.7234 F3600
G0 X123.844 Y98.136 F7200
G1 X124.575 Y97.405 E9.7578 F3600
G0 X124.581 Y96.833 F7200
G1 X123.790 Y97.624 E9.7950 F3600
G0 X123.763 Y97.085 F7200
G1 X124.638 Y96.210 E9.8361 F3600
G0 X124.789 Y95.494 F7200
G1 X123.805 Y96.477 E9.8824 F3600
G0 X123.926 Y95.790 F7200
G1 X125.095 Y94.622 E9.9374 F3600
; ------------------------------------
; Layer #8
; ------------------------------------
G92 E0 ;reset extr
G0 F3000 E-1.0000
G0 F1200 Z1.800
G0 X128.556 Y97.373 F7200
G0 X130.287 Y98.749
G0 X133.749 Y101.501
G0 F3000 E0.0000
;segType:HShell
G1 X134.522 Y102.274 E0.0364 F3600
G0 X134.522 Y102.839 F7200
G1 X133.749 Y102.066 E0.0727 F3600
G0 X133.749 Y102.632 F7200
G1 X134.522 Y103.405 E0.1091 F3600
G0 X134.522 Y103.971 F7200
G1 X133.749 Y103.198 E0.1454 F3600
G0 X133.749 Y103.763 F7200
G1 X134.522 Y104.536 E0.1818 F3600
G0 X134.522 Y105.102 F7200
G1 X133.749 Y104.329 E0.2182 F3600
;segType:Infill
G0 X133.749 Y103.763 F7200
G1 X133.127 Y103.142 E0.2532 F4500
G0 X133.749 Y99.238 F7200
G1 X133.103 Y98.592 E0.2897 F4500
G0 X133.749 Y94.712 F7200
G1 X133.078 Y94.041 E0.3276 F4500
G0 X133.749 Y90.187 F7200
G1 X133.053 Y89.491 E0.3669 F4500
;segType:Perimeter
G0 X134.535 Y87.814 F7200
G1 X135.282 Y87.529 E0.3935 F2160
G1 X135.282 Y106.850 E1.0361
G1 X134.493 Y106.769 E1.0625
G1 X133.136 Y106.532 E1.1083
G1 X131.821 Y106.205 E1.1534
G1 X131.512 Y106.104 E1.1642
G1 X131.512 Y88.214 E1.7592
G1 X131.821 Y88.113 E1.7700
G1 X133.136 Y87.786 E1.8151
G1 X134.493 Y87.550 E1.8609
G1 X135.222 Y87.475 E1.8853
G0 X135.015 Y88.247 F7200
;segType:Loop
G0 X134.882 Y88.569
G1 X134.882 Y106.407 E2.4786 F3600
G1 X134.547 Y106.372 E2.4898
G1 X133.219 Y106.140 E2.5347
G1 X131.928 Y105.820 E2.5789
G1 X131.912 Y105.759 E2.5810
G1 X131.912 Y88.616 E3.1511
G1 X131.928 Y88.498 E3.1551
G1 X133.219 Y88.178 E3.1993
G1 X134.548 Y87.946 E3.2442
G1 X134.882 Y87.912 E3.2554
G1 X134.882 Y88.369 E3.2706
;segType:HShell
G0 X134.198 Y88.373 F7200
G1 X134.522 Y88.697 E3.2858 F3600
G0 X134.522 Y89.263 F7200
G1 X133.716 Y88.457 E3.3237 F3600
G0 X133.749 Y89.056 F7200
G1 X134.522 Y89.829 E3.3601 F3600
G0 X134.522 Y90.394 F7200
G1 X133.749 Y89.621 E3.3965 F3600
G0 X133.749 Y90.187 F7200
G1 X134.522 Y90.960 E3.4328 F3600
G0 X134.522 Y91.526 F7200
G1 X133.749 Y90.753 E3.4692 F3600
G0 X133.749 Y91.318 F7200
G1 X134.522 Y92.091 E3.5055 F3600
G0 X134.522 Y92.657 F7200
G1 X133.749 Y91.884 E3.5419 F3600
G0 X133.749 Y92.450 F7200
G1 X134.522 Y93.223 E3.5783 F3600
G0 X134.522 Y93.788 F7200
G1 X133.749 Y93.015 E3.6146 F3600
G0 X133.749 Y93.581 F7200
G1 X134.522 Y94.354 E3.6510 F3600
G0 X134.522 Y94.920 F7200
G1 X133.749 Y94.147 E3.6873 F3600
G0 X133.749 Y94.712 F7200
G1 X134.522 Y95.485 E3.7237 F3600
G0 X134.522 Y96.051 F7200
G1 X133.749 Y95.278 E3.7600 F3600
G0 X133.749 Y95.844 F7200
G1 X134.522 Y96.617 E3.7964 F3600
G0 X134.522 Y97.183 F7200
G1 X133.749 Y96.410 E3.8328 F3600
G0 X133.749 Y96.975 F7200
G1 X134.522 Y97.748 E3.8691 F3600
G0 X134.522 Y98.314 F7200
G1 X133.749 Y97.541 E3.9055 F3600
G0 X133.749 Y98.107 F7200
G1 X134.522 Y98.880 E3.9418 F3600
G0 X134.522 Y99.445 F7200
G1 X133.749 Y98.672 E3.9782 F3600
G0 X133.749 Y99.238 F7200
G1 X134.522 Y100.011 E4.0146 F3600
G0 X134.522 Y100.577 F7200
G1 X133.749 Y99.804 E4.0509 F3600
G0 X133.749 Y100.369 F7200
G1 X134.522 Y101.142 E4.0873 F3600
G0 X134.522 Y101.708 F7200
G1 X133.749 Y100.935 E4.1236 F3600
G0 X132.348 Y88.786 F7200
G1 X133.053 Y89.491 E4.1568 F3600
G0 X133.056 Y90.060 F7200
G1 X132.272 Y89.276 E4.1937 F3600
G0 X132.272 Y89.841 F7200
G1 X133.059 Y90.629 E4.2308 F3600
G0 X133.062 Y91.198 F7200
G1 X132.272 Y90.407 E4.2679 F3600
G0 X132.272 Y90.973 F7200
G1 X133.065 Y91.766 E4.3053 F3600
G0 X133.069 Y92.335 F7200
G1 X132.272 Y91.538 E4.3427 F3600
G0 X132.272 Y92.104 F7200
G1 X133.072 Y92.904 E4.3804 F3600
G0 X133.075 Y93.473 F7200
G1 X132.272 Y92.670 E4.4181 F3600
G0 X132.272 Y93.235 F7200
G1 X133.078 Y94.041 E4.4561 F3600
G0 X133.081 Y94.610 F7200
G1 X132.272 Y93.801 E4.4941 F3600
G0 X132.272 Y94.367 F7200
G1 X133.084 Y95.179 E4.5323 F3600
G0 X133.087 Y95.748 F7200
G1 X132.272 Y94.932 E4.5707 F3600
G0 X132.272 Y95.498 F7200
G1 X133.090 Y96.317 E4.6092 F3600
G0 X133.093 Y96.885 F7200
G1 X132.272 Y96.064 E4.6478 F3600
G0 X132.272 Y96.630 F7200
G1 X133.096 Y97.454 E4.6866 F3600
G0 X133.099 Y98.023 F7200
G1 X132.272 Y97.195 E4.7255 F3600
G0 X132.272 Y97.761 F7200
G1 X133.103 Y98.592 E4.7646 F3600
G0 X133.106 Y99.160 F7200
G1 X132.272 Y98.327 E4.8038 F3600
G0 X132.272 Y98.892 F7200
G1 X133.109 Y99.729 E4.8432 F3600
G0 X133.112 Y100.298 F7200
G1 X132.272 Y99.458 E4.8827 F3600
G0 X132.272 Y100.024 F7200
G1 X133.115 Y100.867 E4.9223 F3600
G0 X133.118 Y101.435 F7200
G1 X132.272 Y100.589 E4.9621 F3600
G0 X132.272 Y101.155 F7200
G1 X133.121 Y102.004 E5.0021 F3600
G0 X133.124 Y102.573 F7200
G1 X132.272 Y101.721 E5.0422 F3600
G0 X132.272 Y102.286 F7200
G1 X133.127 Y103.142 E5.0824 F3600
G0 X133.130 Y103.711 F7200
G1 X132.272 Y102.852 E5.1228 F3600
G0 X132.272 Y103.418 F7200
G1 X133.133 Y104.279 E5.1633 F3600
G0 X133.137 Y104.848 F7200
G1 X132.272 Y103.983 E5.2040 F3600
G0 X132.272 Y104.549 F7200
G1 X133.140 Y105.417 E5.2448 F3600
G0 X132.830 Y105.673 F7200
G1 X132.272 Y105.115 E5.2711 F3600
G0 X133.749 Y105.461 F7200
G1 X134.242 Y105.953 E5.2942 F3600
G0 X134.522 Y105.668 F7200
G1 X133.749 Y104.895 E5.3306 F3600
G0 F3000 E4.3306
G0 X124.163 Y98.703 F7200
G0 F3000 E5.3306
G1 X125.436 Y99.976 E5.3905 F3600
G0 X125.049 Y100.721 F7200
G1 X127.919 Y103.591 E5.5255 F3600
G0 X128.631 Y103.736 F7200
G1 X127.657 Y102.763 E5.5713 F3600
;segType:Infill
G0 X127.831 Y102.371 F7200
G1 X125.436 Y99.976 E5.7064 F4500
;segType:Perimeter
G0 X123.460 Y97.856 F7200
G1 X123.200 Y97.099 E5.7330 F2160
G1 X123.262 Y96.207 E5.7628
G1 X123.461 Y95.262 E5.7949
G1 X123.788 Y94.335 E5.8276
G1 X124.244 Y93.434 E5.8612
G1 X124.825 Y92.566 E5.8959
G1 X125.525 Y91.741 E5.9319
G1 X126.336 Y90.967 E5.9692
G1 X127.253 Y90.252 E6.0079
G1 X128.266 Y89.603 E6.0479
G1 X129.147 Y89.141 E6.0810
G1 X129.312 Y89.144 E6.0886
G1 X129.373 Y89.043 E6.0929
G0 X129.437 Y88.946 F7200
G0 X129.423 Y88.959
G0 X129.354 Y89.074
G1 X129.391 Y89.188 E6.0969 F2160
G1 X129.391 Y105.188 E6.6290
G1 X129.389 Y105.302 E6.6329
G1 X129.458 Y105.416 E6.6358
G1 X129.445 Y105.384 E6.6367
G1 X129.380 Y105.287 E6.6408
G1 X129.319 Y105.186 E6.6461
G1 X129.160 Y105.184 E6.6514
G1 X128.266 Y104.716 E6.6850
G1 X127.253 Y104.067 E6.7250
G1 X126.336 Y103.351 E6.7636
G1 X125.525 Y102.577 E6.8009
G1 X124.825 Y101.752 E6.8369
G1 X124.244 Y100.885 E6.8716
G1 X123.788 Y99.983 E6.9052
G1 X123.461 Y99.056 E6.9380
G1 X123.262 Y98.112 E6.9701
G1 X123.200 Y97.219 E6.9998
G0 X123.460 Y96.463 F7200
;segType:Loop
G0 X123.680 Y96.164
G1 X123.847 Y95.371 E7.0268 F3600
G1 X124.157 Y94.493 E7.0577
G1 X124.590 Y93.636 E7.0897
G1 X125.145 Y92.808 E7.1228
G1 X125.817 Y92.016 E7.1574
G1 X126.598 Y91.270 E7.1933
G1 X127.485 Y90.579 E7.2307
G1 X128.467 Y89.949 E7.2695
G1 X128.807 Y89.771 E7.2823
G1 X128.946 Y89.748 E7.2880
G1 X129.007 Y89.647 E7.2916
G1 X129.068 Y89.547 E7.2940
G0 X129.078 Y89.531 F7200
G0 X129.009 Y89.645
G0 X128.940 Y89.759
G1 X128.991 Y89.874 E7.2982 F3600
G1 X128.991 Y104.502 E7.7847
G1 X128.974 Y104.616 E7.7889
G1 X129.043 Y104.731 E7.7922
G1 X129.075 Y104.784 E7.7934
G1 X129.014 Y104.683 E7.7968
G1 X128.953 Y104.582 E7.8015
G1 X128.892 Y104.482 E7.8073
G1 X128.714 Y104.499 E7.8133
G1 X128.467 Y104.370 E7.8225
G1 X127.484 Y103.740 E7.8614
G1 X126.598 Y103.048 E7.8987
G1 X125.817 Y102.303 E7.9347
G1 X125.145 Y101.511 E7.9692
G1 X124.590 Y100.682 E8.0024
G1 X124.157 Y99.826 E8.0343
G1 X123.847 Y98.948 E8.0653
G1 X123.659 Y98.056 E8.0956
G1 X123.597 Y97.159 E8.1255
G1 X123.652 Y96.362 E8.1521
;segType:Infill
G0 X125.114 Y95.128 F7200
G1 X127.831 Y97.845 E8.3054 F4500
G0 X127.831 Y93.320 F7200
G1 X126.831 Y92.320 E8.3618 F4500
;segType:HShell
G0 X125.058 Y99.033 F7200
G1 X124.016 Y97.990 E8.4109 F3600
G0 X123.973 Y97.382 F7200
G1 X124.875 Y98.284 E8.4533 F3600
G0 X124.791 Y97.634 F7200
G1 X123.981 Y96.824 E8.4914 F3600
G0 X124.020 Y96.297 F7200
G1 X124.766 Y97.043 E8.5265 F3600
G0 X124.803 Y96.514 F7200
G1 X124.118 Y95.830 E8.5587 F3600
G0 X124.228 Y95.373 F7200
G1 X124.877 Y96.023 E8.5892 F3600
G0 X124.976 Y95.556 F7200
G1 X124.375 Y94.955 E8.6175 F3600
G0 X124.533 Y94.547 F7200
G1 X125.114 Y95.128 E8.6448 F3600
G0 X124.898 Y94.630 F7200
G1 X125.180 Y94.063 E8.6702 F3600
G1 X125.388 Y93.706 E8.6950
G1 X125.608 Y93.360 E8.7182
G1 X125.847 Y93.033 E8.7407
G1 X126.095 Y92.716 E8.7622
G1 X126.358 Y92.413 E8.7825
G1 X126.633 Y92.122 E8.8026
G1 X126.920 Y91.843 E8.8212
G1 X127.218 Y91.576 E8.8396
G1 X127.567 Y91.359 E8.8571
;segType:InnerHair
G0 X128.585 Y90.356 F7200
G1 X128.642 Y90.252 E8.8601 F3600
G1 X128.703 Y90.151 E8.8618
;segType:HShell
G0 X128.009 Y90.670 F7200
G1 X128.631 Y91.291 E8.8910 F3600
G0 X128.631 Y91.857 F7200
G1 X127.667 Y90.893 E8.9364 F3600
G0 X127.831 Y91.623 F7200
G1 X128.631 Y92.423 E8.9740 F3600
G0 X128.631 Y92.988 F7200
G1 X127.831 Y92.188 E9.0116 F3600
G0 X127.831 Y92.754 F7200
G1 X128.631 Y93.554 E9.0493 F3600
G0 X128.631 Y94.120 F7200
G1 X127.831 Y93.320 E9.0869 F3600
G0 X127.831 Y93.885 F7200
G1 X128.631 Y94.685 E9.1245 F3600
G0 X128.631 Y95.251 F7200
G1 X127.831 Y94.451 E9.1622 F3600
G0 X127.831 Y95.017 F7200
G1 X128.631 Y95.817 E9.1998 F3600
G0 X128.631 Y96.383 F7200
G1 X127.831 Y95.582 E9.2374 F3600
G0 X127.831 Y96.148 F7200
G1 X128.631 Y96.948 E9.2751 F3600
G0 X128.631 Y97.514 F7200
G1 X127.831 Y96.714 E9.3127 F3600
G0 X127.831 Y97.280 F7200
G1 X128.631 Y98.080 E9.3503 F3600
G0 X128.631 Y98.645 F7200
G1 X127.831 Y97.845 E9.3880 F3600
G0 X127.831 Y98.411 F7200
G1 X128.631 Y99.211 E9.4256 F3600
G0 X128.631 Y99.777 F7200
G1 X127.831 Y98.977 E9.4632 F3600
G0 X127.831 Y99.542 F7200
G1 X128.631 Y100.342 E9.5009 F3600
G0 X128.631 Y100.908 F7200
G1 X127.831 Y100.108 E9.5385 F3600
G0 X127.831 Y100.674 F7200
G1 X128.631 Y101.474 E9.5761 F3600
G0 X128.631 Y102.039 F7200
G1 X127.831 Y101.239 E9.6138 F3600
G0 X127.831 Y101.805 F7200
G1 X128.631 Y102.605 E9.6514 F3600
G0 X128.631 Y103.171 F7200
G1 X127.831 Y102.371 E9.6890 F3600
;segType:InnerHair
G0 X128.567 Y103.931 F7200
G1 X128.630 Y104.045 E9.6925 F3600
G1 X128.692 Y104.159 E9.6947
G1 X128.710 Y104.179 E9.6950
G1 X128.648 Y104.079 E9.6978
G1 X128.591 Y103.975 E9.7017
G1 X128.567 Y103.931 E9.7036
;segType:HShell
G0 X126.485 Y101.590 F7200
G1 X124.439 Y99.545 E9.7998 F3600
; ------------------------------------
; Layer #9
; ------------------------------------
G92 E0 ;reset extr
G0 F3000 E-1.0000
G0 F1200 Z2.000
G0 X128.645 Y100.276 F7200
G0 X130.748 Y100.642
G0 X132.851 Y101.008
G0 F3000 E0.0000
;segType:HShell
G1 X132.079 Y101.780 E0.0363 F3600
G0 X132.079 Y102.346 F7200
G1 X132.851 Y101.573 E0.0727 F3600
G0 X132.851 Y102.139 F7200
G1 X132.079 Y102.911 E0.1090 F3600
G0 X132.079 Y103.477 F7200
G1 X132.851 Y102.705 E0.1453 F3600
G0 X132.851 Y103.270 F7200
G1 X132.079 Y104.043 E0.1816 F3600
G0 X132.079 Y104.608 F7200
G1 X132.851 Y103.836 E0.2180 F3600
;segType:Infill
G0 X132.851 Y104.402 F7200
G1 X133.556 Y103.697 E0.2577 F4500
G0 X132.851 Y99.876 F7200
G1 X133.556 Y99.172 E0.2975 F4500
G0 X132.851 Y95.351 F7200
G1 X133.556 Y94.646 E0.3373 F4500
G0 X132.851 Y90.825 F7200
G1 X133.556 Y90.121 E0.3770 F4500
;segType:Perimeter
G0 X134.341 Y87.855 F7200
G1 X135.089 Y87.570 E0.4036 F2160
G1 X135.089 Y106.809 E1.0435
G1 X134.700 Y106.769 E1.0565
G1 X133.343 Y106.532 E1.1023
G1 X132.028 Y106.205 E1.1474
G1 X131.319 Y105.972 E1.1722
G1 X131.319 Y88.346 E1.7585
G1 X132.028 Y88.113 E1.7833
G1 X133.343 Y87.786 E1.8284
G1 X134.700 Y87.550 E1.8742
G1 X135.029 Y87.516 E1.8852
G0 X134.822 Y88.289 F7200
;segType:Loop
G0 X134.689 Y88.610
G1 X134.689 Y106.331 E2.4746 F3600
G1 X134.671 Y106.358 E2.4757
G1 X133.426 Y106.140 E2.5177
G1 X132.139 Y105.821 E2.5618
G1 X131.719 Y105.683 E2.5765
G1 X131.719 Y88.636 E3.1435
G1 X132.139 Y88.498 E3.1582
G1 X133.426 Y88.178 E3.2023
G1 X134.671 Y87.961 E3.2444
G1 X134.689 Y88.045 E3.2472
G1 X134.689 Y88.410 E3.2594
;segType:HShell
G0 X134.123 Y88.422 F7200
G1 X133.556 Y88.989 E3.2861 F3600
G0 X133.556 Y89.555 F7200
G1 X134.329 Y88.782 E3.3224 F3600
G0 X134.329 Y89.348 F7200
G1 X133.556 Y90.121 E3.3588 F3600
G0 X133.556 Y90.686 F7200
G1 X134.329 Y89.914 E3.3951 F3600
G0 X134.329 Y90.479 F7200
G1 X133.556 Y91.252 E3.4315 F3600
G0 X133.556 Y91.818 F7200
G1 X134.329 Y91.045 E3.4678 F3600
G0 X134.329 Y91.611 F7200
G1 X133.556 Y92.383 E3.5042 F3600
G0 X133.556 Y92.949 F7200
G1 X134.329 Y92.176 E3.5405 F3600
G0 X134.329 Y92.742 F7200
G1 X133.556 Y93.515 E3.5769 F3600
G0 X133.556 Y94.081 F7200
G1 X134.329 Y93.308 E3.6132 F3600
G0 X134.329 Y93.873 F7200
G1 X133.556 Y94.646 E3.6496 F3600
G0 X133.556 Y95.212 F7200
G1 X134.329 Y94.439 E3.6859 F3600
G0 X134.329 Y95.005 F7200
G1 X133.556 Y95.778 E3.7223 F3600
G0 X133.556 Y96.343 F7200
G1 X134.329 Y95.571 E3.7586 F3600
G0 X134.329 Y96.136 F7200
G1 X133.556 Y96.909 E3.7949 F3600
G0 X133.556 Y97.475 F7200
G1 X134.329 Y96.702 E3.8313 F3600
G0 X134.329 Y97.268 F7200
G1 X133.556 Y98.040 E3.8676 F3600
G0 X133.556 Y98.606 F7200
G1 X134.329 Y97.833 E3.9040 F3600
G0 X134.329 Y98.399 F7200
G1 X133.556 Y99.172 E3.9403 F3600
G0 X133.556 Y99.737 F7200
G1 X134.329 Y98.965 E3.9767 F3600
G0 X134.329 Y99.530 F7200
G1 X133.556 Y100.303 E4.0130 F3600
G0 X133.556 Y100.869 F7200
G1 X134.329 Y100.096 E4.0494 F3600
G0 X134.329 Y100.662 F7200
G1 X133.556 Y101.434 E4.0857 F3600
G0 X133.556 Y102.000 F7200
G1 X134.329 Y101.227 E4.1221 F3600
G0 X134.329 Y101.793 F7200
G1 X133.556 Y102.566 E4.1584 F3600
G0 X133.556 Y103.132 F7200
G1 X134.329 Y102.359 E4.1948 F3600
G0 X134.329 Y102.924 F7200
G1 X133.556 Y103.697 E4.2311 F3600
G0 X133.556 Y104.263 F7200
G1 X134.329 Y103.490 E4.2675 F3600
G0 X134.329 Y104.056 F7200
G1 X133.556 Y104.829 E4.3038 F3600
G0 X133.556 Y105.394 F7200
G1 X134.329 Y104.621 E4.3402 F3600
G0 X134.329 Y105.187 F7200
G1 X133.694 Y105.822 E4.3700 F3600
G0 X132.679 Y88.734 F7200
G1 X132.079 Y89.335 E4.3983 F3600
G0 X132.079 Y89.901 F7200
G1 X132.851 Y89.128 E4.4346 F3600
G0 X132.851 Y89.694 F7200
G1 X132.079 Y90.466 E4.4709 F3600
G0 X132.079 Y91.032 F7200
G1 X132.851 Y90.260 E4.5072 F3600
G0 X132.851 Y90.825 F7200
G1 X132.079 Y91.598 E4.5436 F3600
G0 X132.079 Y92.163 F7200
G1 X132.851 Y91.391 E4.5799 F3600
G0 X132.851 Y91.957 F7200
G1 X132.079 Y92.729 E4.6162 F3600
G0 X132.079 Y93.295 F7200
G1 X132.851 Y92.522 E4.6526 F3600
G0 X132.851 Y93.088 F7200
G1 X132.079 Y93.860 E4.6889 F3600
G0 X132.079 Y94.426 F7200
G1 X132.851 Y93.654 E4.7252 F3600
G0 X132.851 Y94.219 F7200
G1 X132.079 Y94.992 E4.7615 F3600
G0 X132.079 Y95.557 F7200
G1 X132.851 Y94.785 E4.7979 F3600
G0 X132.851 Y95.351 F7200
G1 X132.079 Y96.123 E4.8342 F3600
G0 X132.079 Y96.689 F7200
G1 X132.851 Y95.916 E4.8705 F3600
G0 X132.851 Y96.482 F7200
G1 X132.079 Y97.254 E4.9068 F3600
G0 X132.079 Y97.820 F7200
G1 X132.851 Y97.048 E4.9432 F3600
G0 X132.851 Y97.614 F7200
G1 X132.079 Y98.386 E4.9795 F3600
G0 X132.079 Y98.952 F7200
G1 X132.851 Y98.179 E5.0158 F3600
G0 X132.851 Y98.745 F7200
G1 X132.079 Y99.517 E5.0522 F3600
G0 X132.079 Y100.083 F7200
G1 X132.851 Y99.311 E5.0885 F3600
G0 X132.851 Y99.876 F7200
G1 X132.079 Y100.649 E5.1248 F3600
G0 X132.079 Y101.214 F7200
G1 X132.851 Y100.442 E5.1611 F3600
G0 X132.851 Y104.402 F7200
G1 X132.079 Y105.174 E5.1975 F3600
G0 X132.323 Y105.496 F7200
G1 X132.851 Y104.967 E5.2223 F3600
G0 F3000 E4.2223
G0 X127.631 Y92.652 F7200
G0 F3000 E5.2223
G1 X128.431 Y91.852 E5.2599 F3600
G0 X128.431 Y92.417 F7200
G1 X127.631 Y93.218 E5.2976 F3600
G0 X127.631 Y93.783 F7200
G1 X128.431 Y92.983 E5.3352 F3600
G0 X128.431 Y93.549 F7200
G1 X127.631 Y94.349 E5.3728 F3600
G0 X127.631 Y94.915 F7200
G1 X128.431 Y94.115 E5.4105 F3600
G0 X128.431 Y94.680 F7200
G1 X127.631 Y95.480 E5.4481 F3600
;segType:Infill
G0 X127.631 Y96.046 F7200
G1 X125.130 Y98.546 E5.5892 F4500
;segType:Perimeter
G0 X123.660 Y97.856 F7200
G1 X123.400 Y97.099 E5.6158 F2160
G1 X123.462 Y96.207 E5.6456
G1 X123.660 Y95.262 E5.6777
G1 X123.988 Y94.335 E5.7104
G1 X124.444 Y93.434 E5.7440
G1 X125.025 Y92.566 E5.7787
G1 X125.725 Y91.741 E5.8147
G1 X126.536 Y90.967 E5.8520
G1 X127.453 Y90.252 E5.8907
G1 X128.466 Y89.603 E5.9307
G1 X129.004 Y89.321 E5.9509
G1 X129.144 Y89.300 E5.9567
G1 X129.205 Y89.199 E5.9604
G1 X129.266 Y89.098 E5.9628
G1 X129.281 Y89.074 E5.9633
G1 X129.212 Y89.188 E5.9673
G1 X129.143 Y89.302 E5.9728
G1 X129.191 Y89.416 E5.9769
G1 X129.191 Y104.959 E6.4939
G1 X129.177 Y105.074 E6.4980
G1 X129.246 Y105.188 E6.5012
G1 X129.273 Y105.232 E6.5022
G1 X129.212 Y105.131 E6.5057
G1 X129.151 Y105.031 E6.5104
G1 X129.016 Y105.004 E6.5149
G1 X128.466 Y104.716 E6.5356
G1 X127.453 Y104.067 E6.5756
G1 X126.536 Y103.351 E6.6143
G1 X125.725 Y102.578 E6.6516
G1 X125.025 Y101.752 E6.6876
G1 X124.444 Y100.885 E6.7223
G1 X123.988 Y99.983 E6.7559
G1 X123.660 Y99.056 E6.7886
G1 X123.462 Y98.112 E6.8207
G1 X123.400 Y97.219 E6.8505
G0 X123.660 Y96.463 F7200
;segType:Loop
G0 X123.880 Y96.164
G1 X124.046 Y95.371 E6.8774 F3600
G1 X124.357 Y94.493 E6.9084
G1 X124.790 Y93.636 E6.9403
G1 X125.345 Y92.808 E6.9735
G1 X126.017 Y92.016 E7.0080
G1 X126.798 Y91.270 E7.0440
G1 X127.685 Y90.579 E7.0814
G1 X128.566 Y90.014 E7.1162
G1 X128.779 Y89.904 E7.1246
G1 X128.840 Y89.803 E7.1276
G1 X128.866 Y89.759 E7.1286
G1 X128.789 Y89.874 E7.1333
G1 X128.726 Y89.988 E7.1390
G1 X128.791 Y90.102 E7.1434
G1 X128.791 Y104.274 E7.6147
G1 X128.757 Y104.388 E7.6193
G1 X128.820 Y104.502 E7.6230
G1 X128.847 Y104.527 E7.6239
G1 X128.786 Y104.426 E7.6279
G1 X128.724 Y104.327 E7.6331
G1 X128.577 Y104.312 E7.6381
G1 X127.685 Y103.740 E7.6733
G1 X126.798 Y103.048 E7.7107
G1 X126.017 Y102.303 E7.7466
G1 X125.345 Y101.511 E7.7812
G1 X124.790 Y100.682 E7.8143
G1 X124.357 Y99.826 E7.8463
G1 X124.046 Y98.948 E7.8772
G1 X123.859 Y98.056 E7.9075
G1 X123.797 Y97.159 E7.9374
G1 X123.852 Y96.362 E7.9640
;segType:Infill
G0 X127.631 Y100.571 F7200
G1 X126.651 Y101.551 E8.0193 F4500
;segType:HShell
G0 X125.401 Y94.881 F7200
G1 X124.282 Y96.000 E8.0719 F3600
G0 X124.193 Y96.655 F7200
G1 X125.145 Y95.704 E8.1167 F3600
G0 X125.011 Y96.403 F7200
G1 X124.164 Y97.250 E8.1565 F3600
G0 X124.201 Y97.779 F7200
G1 X124.968 Y97.011 E8.1926 F3600
G0 X124.986 Y97.559 F7200
G1 X124.273 Y98.273 E8.2262 F3600
G0 X124.371 Y98.740 F7200
G1 X125.032 Y98.079 E8.2573 F3600
G0 X125.130 Y98.546 F7200
G1 X124.507 Y99.170 E8.2866 F3600
G0 X124.654 Y99.588 F7200
G1 X125.246 Y98.997 E8.3144 F3600
G0 X125.026 Y99.499 F7200
G1 X125.291 Y100.083 E8.3406 F3600
G1 X125.492 Y100.448 E8.3656
G1 X125.703 Y100.801 E8.3896
G1 X125.935 Y101.136 E8.4121
G1 X126.178 Y101.459 E8.4343
G1 X126.435 Y101.767 E8.4549
G1 X126.706 Y102.062 E8.4752
G1 X126.986 Y102.348 E8.4945
G1 X127.314 Y102.585 E8.5129
;segType:InnerHair
G0 X128.381 Y103.700 F7200
G1 X128.438 Y103.804 E8.5159 F3600
G1 X128.495 Y103.909 E8.5178
G1 X128.507 Y103.931 E8.5181
G1 X128.445 Y103.816 E8.5213
G1 X128.382 Y103.702 E8.5258
G1 X128.381 Y103.700 E8.5259
;segType:HShell
G0 X128.431 Y103.165 F7200
G1 X128.050 Y103.546 E8.5438 F3600
G0 X127.720 Y103.311 F7200
G1 X128.431 Y102.600 E8.5772 F3600
G0 X128.431 Y102.034 F7200
G1 X127.402 Y103.063 E8.6256 F3600
G0 X127.631 Y102.268 F7200
G1 X128.431 Y101.468 E8.6633 F3600
G0 X128.431 Y100.903 F7200
G1 X127.631 Y101.703 E8.7009 F3600
G0 X127.631 Y101.137 F7200
G1 X128.431 Y100.337 E8.7385 F3600
G0 X128.431 Y99.771 F7200
G1 X127.631 Y100.571 E8.7762 F3600
G0 X127.631 Y100.006 F7200
G1 X128.431 Y99.206 E8.8138 F3600
G0 X128.431 Y98.640 F7200
G1 X127.631 Y99.440 E8.8514 F3600
G0 X127.631 Y98.874 F7200
G1 X128.431 Y98.074 E8.8891 F3600
G0 X128.431 Y97.509 F7200
G1 X127.631 Y98.309 E8.9267 F3600
G0 X127.631 Y97.743 F7200
G1 X128.431 Y96.943 E8.9643 F3600
G0 X128.431 Y96.377 F7200
G1 X127.631 Y97.177 E9.0020 F3600
G0 X127.631 Y96.612 F7200
G1 X128.431 Y95.812 E9.0396 F3600
G0 X128.431 Y95.246 F7200
G1 X127.631 Y96.046 E9.0772 F3600
G0 X126.038 Y92.548 F7200
G1 X127.073 Y91.513 E9.1259 F3600
G0 X127.631 Y92.086 F7200
G1 X128.431 Y91.286 E9.1635 F3600
;segType:InnerHair
G0 X128.374 Y90.631 F7200
G1 X128.432 Y90.527 E9.1667 F3600
G1 X128.489 Y90.422 E9.1687
;segType:HShell
G0 X128.431 Y90.720 F7200
G1 X124.865 Y94.286 E9.3364 F3600
G0 X124.473 Y95.243 F7200
G1 X125.909 Y93.808 E9.4039 F3600
; ------------------------------------
; Layer #10
; ------------------------------------
G92 E0 ;reset extr
G0 F3000 E-1.0000
G0 F1200 Z2.200
G0 X127.772 Y95.352 F7200
G0 X129.636 Y96.896
G0 X133.363 Y99.983
G0 F3000 E0.0000
;segType:HShell
G1 X134.135 Y100.755 E0.0363 F3600
G0 X134.135 Y101.321 F7200
G1 X133.363 Y100.549 E0.0726 F3600
G0 X133.363 Y101.115 F7200
G1 X134.135 Y101.887 E0.1090 F3600
G0 X134.135 Y102.452 F7200
G1 X133.363 Y101.680 E0.1453 F3600
G0 X133.363 Y102.246 F7200
G1 X134.135 Y103.018 E0.1816 F3600
G0 X134.135 Y103.584 F7200
G1 X133.363 Y102.812 E0.2179 F3600
;segType:Infill
G0 X133.363 Y103.377 F7200
G1 X132.658 Y102.672 E0.2577 F4500
G0 X133.363 Y98.852 F7200
G1 X132.658 Y98.147 E0.2975 F4500
G0 X133.363 Y94.326 F7200
G1 X132.658 Y93.621 E0.3373 F4500
G0 X133.363 Y89.801 F7200
G1 X132.658 Y89.096 E0.3771 F4500
;segType:Perimeter
G0 X134.100 Y87.735 F7200
G1 X134.895 Y87.648 E0.4037 F2160
G1 X134.895 Y106.674 E1.0365
G1 X134.786 Y106.748 E1.0409
G1 X133.550 Y106.532 E1.0826
G1 X132.235 Y106.205 E1.1277
G1 X131.126 Y105.841 E1.1665
G1 X131.126 Y88.477 E1.7440
G1 X132.235 Y88.113 E1.7828
G1 X133.550 Y87.786 E1.8279
G1 X134.786 Y87.571 E1.8696
G1 X134.836 Y87.579 E1.8713
G0 X134.629 Y88.351 F7200
;segType:Loop
G0 X134.495 Y88.688
G1 X134.495 Y106.216 E2.4543 F3600
G1 X134.443 Y106.282 E2.4571
G1 X133.633 Y106.140 E2.4844
G1 X132.346 Y105.821 E2.5285
G1 X131.526 Y105.552 E2.5572
G1 X131.526 Y88.767 E3.1155
G1 X132.346 Y88.498 E3.1442
G1 X133.633 Y88.178 E3.1883
G1 X134.443 Y88.037 E3.2156
G1 X134.495 Y88.045 E3.2174
G1 X134.495 Y88.488 E3.2321
;segType:HShell
G0 X132.658 Y89.662 F7200
G1 X131.990 Y88.994 E3.2635 F3600
G0 X131.886 Y89.456 F7200
G1 X132.658 Y90.227 E3.2998 F3600
G0 X132.658 Y90.793 F7200
G1 X131.886 Y90.021 E3.3361 F3600
G0 X131.886 Y90.587 F7200
G1 X132.658 Y91.359 E3.3724 F3600
G0 X132.658 Y91.924 F7200
G1 X131.886 Y91.153 E3.4087 F3600
G0 X131.886 Y91.718 F7200
G1 X132.658 Y92.490 E3.4450 F3600
G0 X132.658 Y93.056 F7200
G1 X131.886 Y92.284 E3.4813 F3600
G0 X131.886 Y92.850 F7200
G1 X132.658 Y93.621 E3.5176 F3600
G0 X132.658 Y94.187 F7200
G1 X131.886 Y93.416 E3.5539 F3600
G0 X131.886 Y93.981 F7200
G1 X132.658 Y94.753 E3.5902 F3600
G0 X132.658 Y95.319 F7200
G1 X131.886 Y94.547 E3.6265 F3600
G0 X131.886 Y95.113 F7200
G1 X132.658 Y95.884 E3.6628 F3600
G0 X132.658 Y96.450 F7200
G1 X131.886 Y95.678 E3.6991 F3600
G0 X131.886 Y96.244 F7200
G1 X132.658 Y97.016 E3.7354 F3600
G0 X132.658 Y97.581 F7200
G1 X131.886 Y96.810 E3.7717 F3600
G0 X131.886 Y97.375 F7200
G1 X132.658 Y98.147 E3.8080 F3600
G0 X132.658 Y98.713 F7200
G1 X131.886 Y97.941 E3.8443 F3600
G0 X131.886 Y98.507 F7200
G1 X132.658 Y99.278 E3.8806 F3600
G0 X132.658 Y99.844 F7200
G1 X131.886 Y99.072 E3.9169 F3600
G0 X131.886 Y99.638 F7200
G1 X132.658 Y100.410 E3.9532 F3600
G0 X132.658 Y100.975 F7200
G1 X131.886 Y100.204 E3.9895 F3600
G0 X131.886 Y100.769 F7200
G1 X132.658 Y101.541 E4.0258 F3600
G0 X132.658 Y102.107 F7200
G1 X131.886 Y101.335 E4.0620 F3600
G0 X131.886 Y101.901 F7200
G1 X132.658 Y102.672 E4.0983 F3600
G0 X132.658 Y103.238 F7200
G1 X131.886 Y102.466 E4.1346 F3600
G0 X131.886 Y103.032 F7200
G1 X132.658 Y103.804 E4.1709 F3600
G0 X132.658 Y104.369 F7200
G1 X131.886 Y103.598 E4.2072 F3600
G0 X131.886 Y104.164 F7200
G1 X132.658 Y104.935 E4.2435 F3600
G0 X133.363 Y99.418 F7200
G1 X134.135 Y100.190 E4.2798 F3600
G0 X134.135 Y99.624 F7200
G1 X133.363 Y98.852 E4.3162 F3600
G0 X133.363 Y98.286 F7200
G1 X134.135 Y99.058 E4.3525 F3600
G0 X134.135 Y98.493 F7200
G1 X133.363 Y97.721 E4.3888 F3600
G0 X133.363 Y97.155 F7200
G1 X134.135 Y97.927 E4.4251 F3600
G0 X134.135 Y97.361 F7200
G1 X133.363 Y96.589 E4.4614 F3600
G0 X133.363 Y96.024 F7200
G1 X134.135 Y96.796 E4.4977 F3600
G0 X134.135 Y96.230 F7200
G1 X133.363 Y95.458 E4.5341 F3600
G0 X133.363 Y94.892 F7200
G1 X134.135 Y95.664 E4.5704 F3600
G0 X134.135 Y95.099 F7200
G1 X133.363 Y94.326 E4.6067 F3600
G0 X133.363 Y93.761 F7200
G1 X134.135 Y94.533 E4.6430 F3600
G0 X134.135 Y93.967 F7200
G1 X133.363 Y93.195 E4.6793 F3600
G0 X133.363 Y92.629 F7200
G1 X134.135 Y93.401 E4.7156 F3600
G0 X134.135 Y92.836 F7200
G1 X133.363 Y92.064 E4.7520 F3600
G0 X133.363 Y91.498 F7200
G1 X134.135 Y92.270 E4.7883 F3600
G0 X134.135 Y91.704 F7200
G1 X133.363 Y90.932 E4.8246 F3600
G0 X133.363 Y90.367 F7200
G1 X134.135 Y91.139 E4.8609 F3600
G0 X134.135 Y90.573 F7200
G1 X133.363 Y89.801 E4.8972 F3600
G0 X133.363 Y89.235 F7200
G1 X134.135 Y90.007 E4.9335 F3600
G0 X134.135 Y89.442 F7200
G1 X133.320 Y88.627 E4.9719 F3600
G0 X133.777 Y88.518 F7200
G1 X134.135 Y88.876 E4.9887 F3600
G0 X131.886 Y104.729 F7200
G1 X132.693 Y105.536 E5.0266 F3600
G0 X133.446 Y105.723 F7200
G1 X133.160 Y105.437 E5.0401 F3600
G0 X133.363 Y105.074 F7200
G1 X134.135 Y105.847 E5.0764 F3600
G0 X134.135 Y105.281 F7200
G1 X133.363 Y104.509 E5.1127 F3600
G0 X133.363 Y103.943 F7200
G1 X134.135 Y104.715 E5.1490 F3600
G0 X134.135 Y104.150 F7200
G1 X133.363 Y103.377 E5.1854 F3600
G0 F3000 E4.1854
G0 X127.431 Y99.708 F7200
G0 F3000 E5.1854
G1 X128.231 Y100.508 E5.2230 F3600
G0 X128.231 Y101.074 F7200
G1 X127.431 Y100.274 E5.2606 F3600
G0 X127.431 Y100.839 F7200
G1 X128.231 Y101.639 E5.2982 F3600
G0 X127.431 Y101.405 F7200
G1 X128.231 Y102.205 E5.3359 F3600
G0 X128.231 Y102.771 F7200
G1 X127.431 Y101.971 E5.3735 F3600
;segType:Infill
G1 X126.389 Y100.929 E5.4323 F4500
G0 X127.431 Y97.445 F7200
G1 X125.410 Y95.424 E5.5464 F4500
;segType:Perimeter
G0 X123.860 Y97.856 F7200
G1 X123.600 Y97.099 E5.5730 F2160
G1 X123.662 Y96.207 E5.6027
G1 X123.861 Y95.262 E5.6348
G1 X124.188 Y94.335 E5.6675
G1 X124.645 Y93.434 E5.7012
G1 X125.225 Y92.566 E5.7359
G1 X125.925 Y91.741 E5.7719
G1 X126.736 Y90.967 E5.8091
G1 X127.653 Y90.252 E5.8478
G1 X128.666 Y89.603 E5.8878
G1 X128.916 Y89.556 E5.8995
G1 X128.977 Y89.455 E5.9036
G1 X129.038 Y89.355 E5.9066
G1 X129.070 Y89.302 E5.9079
G1 X129.000 Y89.416 E5.9121
G1 X128.916 Y89.531 E5.9186
G1 X128.991 Y89.645 E5.9231
G1 X128.991 Y104.731 E6.4249
G1 X128.948 Y104.845 E6.4298
G1 X129.035 Y104.959 E6.4335
G1 X129.045 Y104.976 E6.4340
G1 X128.984 Y104.875 E6.4380
G1 X128.923 Y104.774 E6.4433
G1 X128.666 Y104.716 E6.4521
G1 X127.653 Y104.067 E6.4921
G1 X126.736 Y103.351 E6.5307
G1 X125.925 Y102.578 E6.5680
G1 X125.225 Y101.752 E6.6040
G1 X124.645 Y100.885 E6.6387
G1 X124.188 Y99.983 E6.6723
G1 X123.861 Y99.056 E6.7051
G1 X123.662 Y98.112 E6.7372
G1 X123.600 Y97.219 E6.7669
G0 X123.860 Y96.463 F7200
;segType:Loop
G0 X124.080 Y96.164
G1 X124.247 Y95.371 E6.7939 F3600
G1 X124.556 Y94.493 E6.8248
G1 X124.990 Y93.636 E6.8568
G1 X125.545 Y92.808 E6.8899
G1 X126.217 Y92.016 E6.9245
G1 X126.998 Y91.270 E6.9604
G1 X127.885 Y90.579 E6.9978
G1 X128.348 Y90.282 E7.0161
G1 X128.507 Y90.279 E7.0236
G1 X128.564 Y90.174 E7.0281
G1 X128.621 Y90.070 E7.0314
G1 X128.679 Y89.965 E7.0337
G0 X128.666 Y89.988 F7200
G0 X128.604 Y90.102
G0 X128.541 Y90.216
G1 X128.591 Y90.331 E7.0378 F3600
G1 X128.591 Y104.045 E7.4939
G1 X128.573 Y104.159 E7.4981
G1 X128.635 Y104.274 E7.5015
G1 X128.685 Y104.365 E7.5033
G1 X128.628 Y104.261 E7.5066
G1 X128.571 Y104.156 E7.5109
G1 X128.514 Y104.052 E7.5164
G1 X128.360 Y104.044 E7.5215
G1 X127.885 Y103.740 E7.5403
G1 X126.998 Y103.048 E7.5777
G1 X126.217 Y102.303 E7.6136
G1 X125.545 Y101.511 E7.6481
G1 X124.990 Y100.682 E7.6813
G1 X124.556 Y99.826 E7.7133
G1 X124.247 Y98.948 E7.7442
G1 X124.059 Y98.056 E7.7745
G1 X123.997 Y97.159 E7.8044
G1 X124.052 Y96.362 E7.8310
;segType:Infill
G0 X127.431 Y92.920 F7200
