; GCode generated by CraftWare

G28 X0 Y0
G28 Z0


M104 S215 ;set head temp (no wait)
M190 S60 ;set bed temp (wait)
M109 S215 ;set head temp (wait)
; ------------------------------------
; Layer #0
; ------------------------------------
M106 S0 ;turn off fan
G21 ; mm
G90 ; abs
G92 E0 ;reset extr
G0 F1200 Z0.200
;segType:Skirt
G0 F3000 E-1.0000
G0 X121.391 Y106.085 F5400
G0 F3000 E0.0000
G1 X121.002 Y105.437 E0.0251 F2400
G1 X120.743 Y105.178 E0.0373
G1 X120.355 Y104.531 E0.0624
G1 X120.225 Y104.143 E0.0760
G1 X120.096 Y104.013 E0.0821
G1 X120.096 Y103.754 E0.0907
G1 X119.967 Y103.625 E0.0968
G1 X119.967 Y103.366 E0.1054
G1 X119.837 Y103.237 E0.1115
G1 X119.837 Y102.978 E0.1201
G1 X119.708 Y102.848 E0.1262
G1 X119.578 Y101.942 E0.1567
G1 X119.578 Y101.424 E0.1739
G1 X119.449 Y101.036 E0.1875
G1 X119.449 Y98.964 E0.2564
G1 X119.578 Y98.576 E0.2700
G1 X119.578 Y97.799 E0.2958
G1 X119.708 Y97.670 E0.3019
G1 X119.837 Y96.763 E0.3324
G1 X120.032 Y96.440 E0.3449
G1 X120.161 Y96.051 E0.3586
G1 X120.355 Y95.728 E0.3711
G1 X120.484 Y95.339 E0.3847
G1 X120.873 Y94.692 E0.4098
G1 X121.132 Y94.433 E0.4220
G1 X121.326 Y94.109 E0.4346
G1 X121.585 Y93.850 E0.4467
G1 X121.779 Y93.527 E0.4593
G1 X124.886 Y90.420 E0.6054
G1 X125.210 Y90.225 E0.6180
G1 X125.987 Y89.449 E0.6545
G1 X126.310 Y89.255 E0.6671
G1 X126.569 Y88.996 E0.6793
G1 X127.540 Y88.413 E0.7169
G1 X127.929 Y88.284 E0.7305
G1 X128.188 Y88.025 E0.7427
G1 X128.576 Y87.895 E0.7563
G1 X128.705 Y87.766 E0.7624
G1 X128.964 Y87.766 E0.7710
G1 X129.288 Y87.572 E0.7836
G1 X129.676 Y87.442 E0.7972
G1 X130.000 Y87.248 E0.8098
G1 X130.259 Y87.248 E0.8184
G1 X130.388 Y87.118 E0.8245
G1 X130.647 Y87.118 E0.8331
G1 X130.777 Y86.989 E0.8392
G1 X131.036 Y86.989 E0.8478
G1 X131.165 Y86.859 E0.8539
G1 X132.071 Y86.730 E0.8843
G1 X132.201 Y86.601 E0.8904
G1 X134.013 Y86.601 E0.9507
G1 X134.402 Y86.212 E0.9690
G1 X140.357 Y86.212 E1.1670
G1 X143.205 Y89.060 E1.3010
G1 X143.399 Y89.384 E1.3136
G1 X143.399 Y105.955 E1.8647
G1 X143.399 Y110.875 E2.0283
G1 X140.551 Y113.723 E2.1623
G1 X140.227 Y113.917 E2.1749
G1 X134.790 Y113.917 E2.3557
G1 X134.661 Y113.788 E2.3618
G1 X134.207 Y113.723 E2.3770
G1 X133.884 Y113.529 E2.3896
G1 X132.330 Y113.529 E2.4413
G1 X132.201 Y113.399 E2.4473
G1 X131.295 Y113.270 E2.4778
G1 X131.165 Y113.141 E2.4839
G1 X130.906 Y113.141 E2.4925
G1 X130.777 Y113.011 E2.4986
G1 X130.518 Y113.011 E2.5072
G1 X130.388 Y112.882 E2.5133
G1 X130.000 Y112.882 E2.5262
G1 X129.741 Y112.752 E2.5358
G1 X129.417 Y112.558 E2.5484
G1 X129.029 Y112.428 E2.5620
G1 X128.705 Y112.234 E2.5746
G1 X128.317 Y112.105 E2.5882
G1 X126.375 Y110.940 E2.6635
G1 X125.857 Y110.422 E2.6878
G1 X125.533 Y110.227 E2.7004
G1 X121.391 Y106.085 E2.8953
G0 X120.873 Y105.955 F5400
G1 X119.708 Y104.013 E2.9706 F2400
G1 X119.708 Y103.754 E2.9792
G1 X119.578 Y103.625 E2.9853
G1 X119.578 Y103.366 E2.9939
G1 X119.449 Y103.237 E3.0000
G1 X119.449 Y102.978 E3.0086
G1 X119.319 Y102.848 E3.0147
G1 X119.190 Y101.942 E3.0451
G1 X119.190 Y101.424 E3.0624
G1 X119.060 Y101.036 E3.0760
G1 X119.060 Y98.964 E3.1449
G1 X119.190 Y98.576 E3.1585
G1 X119.190 Y97.799 E3.1843
G1 X119.319 Y97.670 E3.1904
G1 X119.449 Y96.763 E3.2209
G1 X119.643 Y96.440 E3.2334
G1 X119.773 Y96.051 E3.2471
G1 X119.967 Y95.728 E3.2596
G1 X120.096 Y95.339 E3.2732
G1 X120.484 Y94.692 E3.2983
G1 X120.743 Y94.433 E3.3105
G1 X120.938 Y94.109 E3.3231
G1 X121.197 Y93.850 E3.3352
G1 X121.391 Y93.527 E3.3478
G1 X125.016 Y89.902 E3.5183
G1 X125.339 Y89.708 E3.5309
G1 X125.857 Y89.190 E3.5552
G1 X126.181 Y88.996 E3.5678
G1 X126.440 Y88.737 E3.5799
G1 X128.705 Y87.377 E3.6678
G1 X128.964 Y87.377 E3.6764
G1 X129.288 Y87.183 E3.6890
G1 X129.676 Y87.054 E3.7026
G1 X130.000 Y86.859 E3.7152
G1 X130.259 Y86.859 E3.7238
G1 X130.388 Y86.730 E3.7299
G1 X130.647 Y86.730 E3.7385
G1 X130.777 Y86.601 E3.7446
G1 X131.036 Y86.601 E3.7532
G1 X131.165 Y86.471 E3.7593
G1 X132.071 Y86.342 E3.7897
G1 X132.201 Y86.212 E3.7958
G1 X134.013 Y86.212 E3.8561
G1 X134.402 Y85.824 E3.8743
G1 X140.357 Y85.824 E4.0724
G1 X143.723 Y89.190 E4.2307
G1 X143.788 Y89.643 E4.2460
G1 X143.788 Y106.214 E4.7971
G1 X143.788 Y110.875 E4.9521
G1 X140.422 Y114.241 E5.1105
G1 X139.968 Y114.306 E5.1257
G1 X134.790 Y114.306 E5.2979
G1 X134.661 Y114.176 E5.3040
G1 X134.207 Y114.111 E5.3193
G1 X133.884 Y113.917 E5.3318
G1 X132.330 Y113.917 E5.3835
G1 X132.201 Y113.788 E5.3896
G1 X131.295 Y113.658 E5.4200
G1 X131.165 Y113.529 E5.4261
G1 X130.906 Y113.529 E5.4347
G1 X130.777 Y113.399 E5.4408
G1 X130.518 Y113.399 E5.4494
G1 X130.388 Y113.270 E5.4555
G1 X130.000 Y113.270 E5.4684
G1 X129.741 Y113.141 E5.4780
G1 X129.417 Y112.946 E5.4906
G1 X129.029 Y112.817 E5.5042
G1 X128.705 Y112.623 E5.5168
G1 X128.317 Y112.493 E5.5304
G1 X126.375 Y111.328 E5.6057
G1 X125.857 Y110.810 E5.6301
G1 X125.533 Y110.616 E5.6426
G1 X120.873 Y105.955 E5.8619
G0 X120.679 Y106.150 F5400
G1 X120.484 Y105.826 E5.8744 F2400
G1 X120.225 Y105.567 E5.8866
G1 X119.449 Y104.272 E5.9368
G1 X118.931 Y102.719 E5.9913
G1 X118.931 Y102.460 E5.9999
G1 X118.801 Y102.330 E6.0060
G1 X118.801 Y101.295 E6.0404
G1 X118.672 Y101.165 E6.0465
G1 X118.672 Y98.835 E6.1240
G1 X118.801 Y98.705 E6.1301
G1 X118.801 Y98.188 E6.1473
G1 X118.931 Y97.281 E6.1778
G1 X119.060 Y97.152 E6.1839
G1 X119.125 Y96.698 E6.1991
G1 X119.319 Y96.375 E6.2116
G1 X119.319 Y96.116 E6.2203
G1 X119.708 Y95.469 E6.2454
G1 X119.837 Y95.080 E6.2590
G1 X120.096 Y94.822 E6.2712
G1 X120.484 Y94.174 E6.2963
G1 X121.002 Y93.656 E6.3206
G1 X121.197 Y93.333 E6.3332
G1 X125.080 Y89.449 E6.5159
G1 X125.404 Y89.255 E6.5284
G1 X125.922 Y88.737 E6.5528
G1 X126.246 Y88.542 E6.5653
G1 X126.505 Y88.284 E6.5775
G1 X128.446 Y87.118 E6.6528
G1 X129.223 Y86.859 E6.6801
G1 X129.353 Y86.730 E6.6862
G1 X129.612 Y86.730 E6.6948
G1 X129.935 Y86.536 E6.7073
G1 X131.100 Y86.148 E6.7482
G1 X131.554 Y86.083 E6.7634
G1 X131.683 Y85.953 E6.7695
G1 X132.589 Y85.824 E6.7999
G1 X133.625 Y85.824 E6.8344
G1 X134.078 Y85.759 E6.8496
G1 X134.337 Y85.500 E6.8618
G1 X134.790 Y85.435 E6.8770
G1 X139.968 Y85.435 E7.0492
G1 X140.422 Y85.500 E7.0645
G1 X144.176 Y89.255 E7.2411
G1 X144.176 Y105.826 E7.7922
G1 X144.176 Y110.486 E7.9472
G1 X144.111 Y110.940 E7.9625
G1 X140.357 Y114.694 E8.1391
G1 X136.856 Y114.694 E8.2555
G0 F3000 E7.2555
G0 X136.574 Y111.700 F5400
G0 X136.293 Y108.705
G0 F3000 E8.2555
;segType:HShell
G1 X136.590 Y109.002 E8.2695 F2400
G0 X137.175 Y109.022 F5400
G1 X136.293 Y108.139 E8.3110 F2400
G0 X136.293 Y107.574 F5400
G1 X137.756 Y109.036 E8.3798 F2400
G0 X138.303 Y109.018 F5400
G1 X136.293 Y107.008 E8.4743 F2400
G0 X136.293 Y106.442 F5400
G1 X138.542 Y108.692 E8.5802 F2400
;segType:Perimeter
G0 X139.036 Y108.962 F5400
G1 X139.243 Y109.735 E8.6068 F1440
G1 X139.079 Y109.752 E8.6122
G1 X137.682 Y109.800 E8.6587
G1 X136.285 Y109.752 E8.7052
G1 X135.533 Y109.674 E8.7304
G1 X135.533 Y90.326 E9.3739
G1 X136.285 Y90.248 E9.3991
G1 X137.682 Y90.200 E9.4456
G1 X139.079 Y90.248 E9.4920
G1 X139.303 Y90.271 E9.4995
G1 X139.303 Y109.669 E10.1447
G0 X138.513 Y109.542 F5400
;segType:Loop
G0 X138.191 Y109.382
G1 X137.682 Y109.399 E10.1616 F2400
G1 X136.313 Y109.353 E10.2072
G1 X135.933 Y109.314 E10.2199
G1 X135.933 Y90.686 E10.8394
G1 X136.313 Y90.647 E10.8521
G1 X137.682 Y90.601 E10.8977
G1 X138.800 Y90.639 E10.9349
G1 X138.903 Y90.714 E10.9392
G1 X138.903 Y109.343 E11.5587
G1 X138.800 Y109.361 E11.5622
G1 X138.391 Y109.375 E11.5758
;segType:HShell
G0 X138.542 Y108.126 F5400
G1 X136.293 Y105.877 E11.6816 F2400
G0 X136.293 Y105.311 F5400
G1 X138.542 Y107.560 E11.7875 F2400
G0 X138.542 Y106.995 F5400
G1 X136.293 Y104.745 E11.8933 F2400
G0 X136.293 Y104.180 F5400
G1 X138.542 Y106.429 E11.9991 F2400
G0 X138.542 Y105.863 F5400
G1 X136.293 Y103.614 E12.1049 F2400
G0 X136.293 Y103.048 F5400
G1 X138.542 Y105.298 E12.2107 F2400
G0 X138.542 Y104.732 F5400
G1 X136.293 Y102.482 E12.3165 F2400
G0 X136.293 Y101.917 F5400
G1 X138.542 Y104.166 E12.4223 F2400
G0 X138.542 Y103.601 F5400
G1 X136.293 Y101.351 E12.5281 F2400
G0 X136.293 Y100.785 F5400
G1 X138.542 Y103.035 E12.6339 F2400
G0 X138.542 Y102.469 F5400
G1 X136.293 Y100.220 E12.7397 F2400
G0 X136.293 Y99.654 F5400
G1 X138.542 Y101.904 E12.8456 F2400
G0 X138.542 Y101.338 F5400
G1 X136.293 Y99.088 E12.9514 F2400
G0 X136.293 Y98.523 F5400
G1 X138.542 Y100.772 E13.0572 F2400
G0 X138.542 Y100.206 F5400
G1 X136.293 Y97.957 E13.1630 F2400
G0 X136.293 Y97.391 F5400
G1 X138.542 Y99.641 E13.2688 F2400
G0 X138.542 Y99.075 F5400
G1 X136.293 Y96.826 E13.3746 F2400
G0 X136.293 Y96.260 F5400
G1 X138.542 Y98.509 E13.4804 F2400
G0 X138.542 Y97.944 F5400
G1 X136.293 Y95.694 E13.5862 F2400
G0 X136.293 Y95.129 F5400
G1 X138.542 Y97.378 E13.6920 F2400
G0 X138.542 Y96.812 F5400
G1 X136.293 Y94.563 E13.7979 F2400
G0 X136.293 Y93.997 F5400
G1 X138.542 Y96.247 E13.9037 F2400
G0 X138.542 Y95.681 F5400
G1 X136.293 Y93.431 E14.0095 F2400
G0 X136.293 Y92.866 F5400
G1 X138.542 Y95.115 E14.1153 F2400
G0 X138.542 Y94.550 F5400
G1 X136.293 Y92.300 E14.2211 F2400
G0 X136.293 Y91.734 F5400
G1 X138.542 Y93.984 E14.3269 F2400
G0 X138.542 Y93.418 F5400
G1 X136.293 Y91.169 E14.4327 F2400
G0 X136.685 Y90.995 F5400
G1 X138.542 Y92.853 E14.5201 F2400
G0 X138.542 Y92.287 F5400
G1 X137.232 Y90.976 E14.5817 F2400
G0 X137.786 Y90.965 F5400
G1 X138.542 Y91.721 E14.6173 F2400
G0 F3000 E13.6173
G0 X124.449 Y100.255 F5400
G0 F3000 E14.6173
G1 X132.525 Y108.331 E14.9972 F2400
G0 X133.474 Y109.343 F5400
G0 X133.474 Y109.360
G0 X133.546 Y109.373
G0 X133.488 Y109.358
G0 X133.488 Y109.358
G0 X133.493 Y109.363
G0 X133.493 Y109.363
G0 X133.497 Y109.368
;segType:Perimeter
G0 X133.488 Y109.358
G1 X132.254 Y109.047 E15.0395 F1440
G1 X131.015 Y108.631 E15.0830
G1 X129.840 Y108.134 E15.1255
G1 X128.739 Y107.557 E15.1668
G1 X127.726 Y106.907 E15.2068
G1 X126.809 Y106.192 E15.2455
G1 X125.998 Y105.418 E15.2828
G1 X125.298 Y104.593 E15.3188
G1 X124.717 Y103.726 E15.3535
G1 X124.261 Y102.824 E15.3871
G1 X123.933 Y101.897 E15.4198
G1 X123.735 Y100.952 E15.4519
G1 X123.669 Y100.000 E15.4837
G1 X123.735 Y99.048 E15.5154
G1 X123.933 Y98.103 E15.5475
G1 X124.261 Y97.176 E15.5802
G1 X124.717 Y96.274 E15.6138
G1 X125.298 Y95.407 E15.6485
G1 X125.998 Y94.582 E15.6845
G1 X126.809 Y93.808 E15.7218
G1 X127.726 Y93.093 E15.7605
G1 X128.739 Y92.443 E15.8005
G1 X129.840 Y91.866 E15.8419
G1 X131.015 Y91.369 E15.8843
G1 X132.255 Y90.953 E15.9278
G1 X133.429 Y90.657 E15.9681
G1 X133.474 Y90.714 E15.9705
G1 X133.474 Y109.360 E16.5907
G1 X133.487 Y109.362 E16.5911
G0 X133.487 Y109.362 F5400
G0 X133.546 Y109.373
G0 X133.477 Y109.356
G0 X133.477 Y109.356
G0 X133.546 Y109.373
G0 X133.474 Y109.360
G0 X133.474 Y109.353
G0 X133.474 Y109.353
G0 X132.568 Y108.710
;segType:Loop
G0 X132.579 Y108.717
G1 X132.368 Y108.663 E16.5984 F2400
G1 X131.157 Y108.257 E16.6409
G1 X130.011 Y107.772 E16.6822
G1 X128.940 Y107.210 E16.7225
G1 X127.957 Y106.581 E16.7613
G1 X127.071 Y105.889 E16.7987
G1 X126.289 Y105.143 E16.8346
G1 X125.618 Y104.352 E16.8691
G1 X125.063 Y103.523 E16.9023
G1 X124.630 Y102.667 E16.9342
G1 X124.319 Y101.789 E16.9652
G1 X124.132 Y100.897 E16.9955
G1 X124.070 Y100.000 E17.0254
G1 X124.132 Y99.103 E17.0553
G1 X124.319 Y98.211 E17.0856
G1 X124.630 Y97.334 E17.1166
G1 X125.063 Y96.477 E17.1485
G1 X125.618 Y95.648 E17.1817
G1 X126.289 Y94.857 E17.2162
G1 X127.071 Y94.111 E17.2521
G1 X127.957 Y93.419 E17.2895
G1 X128.940 Y92.790 E17.3283
G1 X130.011 Y92.228 E17.3686
G1 X131.157 Y91.743 E17.4099
G1 X132.367 Y91.338 E17.4524
G1 X133.200 Y91.127 E17.4810
G1 X133.074 Y91.171 E17.4855
G1 X133.074 Y108.844 E18.0733
G1 X132.773 Y108.767 E18.0836
;segType:HShell
G0 X131.681 Y108.053 F5400
G1 X124.493 Y100.865 E18.4217 F2400
G0 X124.644 Y101.581 F5400
G1 X130.761 Y107.698 E18.7094 F2400
G0 X129.698 Y107.201 F5400
G1 X124.929 Y102.432 E18.9337 F2400
G0 X124.452 Y99.693 F5400
G1 X132.713 Y107.954 E19.3223 F2400
G0 X132.713 Y107.388 F5400
G1 X124.489 Y99.164 E19.7092 F2400
G0 X124.586 Y98.695 F5400
G1 X132.713 Y106.823 E20.0915 F2400
G0 X132.713 Y106.257 F5400
G1 X124.693 Y98.236 E20.4687 F2400
G0 X124.840 Y97.818 F5400
G1 X132.713 Y105.691 E20.8391 F2400
G0 X132.713 Y105.125 F5400
G1 X124.996 Y97.408 E21.2021 F2400
G0 X125.186 Y97.032 F5400
G1 X132.713 Y104.560 E21.5562 F2400
G0 X132.713 Y103.994 F5400
G1 X125.376 Y96.657 E21.9013 F2400
G0 X125.603 Y96.318 F5400
G1 X132.713 Y103.428 E22.2358 F2400
G0 X132.713 Y102.863 F5400
G1 X125.830 Y95.979 E22.5595 F2400
G0 X126.078 Y95.662 F5400
G1 X132.713 Y102.297 E22.8716 F2400
G0 X132.713 Y101.731 F5400
G1 X126.338 Y95.356 E23.1715 F2400
G0 X126.603 Y95.055 F5400
G1 X132.713 Y101.166 E23.4589 F2400
G0 X132.713 Y100.600 F5400
G1 X126.892 Y94.779 E23.7327 F2400
G0 X127.182 Y94.503 F5400
G1 X132.713 Y100.034 E23.9929 F2400
G0 X132.713 Y99.469 F5400
G1 X127.488 Y94.243 E24.2387 F2400
G0 X127.805 Y93.995 F5400
G1 X132.713 Y98.903 E24.4696 F2400
G0 X132.713 Y98.337 F5400
G1 X128.123 Y93.747 E24.6855 F2400
G0 X128.464 Y93.522 F5400
G1 X132.713 Y97.772 E24.8854 F2400
G0 X132.713 Y97.206 F5400
G1 X128.809 Y93.301 E25.0690 F2400
G0 X129.156 Y93.083 F5400
G1 X132.713 Y96.640 E25.2364 F2400
G0 X132.713 Y96.075 F5400
G1 X129.527 Y92.888 E25.3862 F2400
G0 X129.898 Y92.694 F5400
G1 X132.713 Y95.509 E25.5186 F2400
G0 X132.713 Y94.943 F5400
G1 X130.277 Y92.507 E25.6332 F2400
G0 X130.674 Y92.338 F5400
G1 X132.713 Y94.377 E25.7292 F2400
G0 X132.713 Y93.812 F5400
G1 X131.072 Y92.170 E25.8064 F2400
G0 X131.481 Y92.014 F5400
G1 X132.713 Y93.246 E25.8643 F2400
G0 X132.713 Y92.680 F5400
G1 X131.905 Y91.872 E25.9024 F2400
G0 X132.329 Y91.730 F5400
G1 X132.713 Y92.115 E25.9204 F2400
G0 X125.582 Y103.651 F5400
G1 X128.310 Y106.379 E26.0488 F2400
; ------------------------------------
; Layer #1
; ------------------------------------
M106 S0 ;turn off fan
G92 E0 ;reset extr
;segType:HShell
G0 X130.591 Y107.711 F7200
G0 F1200 Z0.400
G1 X132.913 Y105.389 E0.1092 F3600
G0 X132.913 Y105.955 F7200
G1 X130.989 Y107.880 E0.1998 F3600
G0 X131.406 Y108.028 F7200
G1 X132.913 Y106.520 E0.2707 F3600
G0 X132.913 Y107.086 F7200
G1 X131.830 Y108.170 E0.3217 F3600
G0 X132.253 Y108.312 F7200
G1 X132.913 Y107.652 E0.3527 F3600
;segType:Perimeter
G0 X133.407 Y108.648 F7200
G1 X133.614 Y109.421 E0.3793 F2160
G1 X133.346 Y109.373 E0.3884
G1 X132.054 Y109.047 E0.4327
G1 X130.815 Y108.631 E0.4762
G1 X129.640 Y108.134 E0.5186
G1 X128.539 Y107.557 E0.5600
G1 X127.526 Y106.907 E0.6000
G1 X126.609 Y106.192 E0.6386
G1 X125.798 Y105.418 E0.6759
G1 X125.098 Y104.593 E0.7119
G1 X124.517 Y103.726 E0.7466
G1 X124.061 Y102.824 E0.7802
G1 X123.733 Y101.897 E0.8130
G1 X123.535 Y100.952 E0.8451
G1 X123.469 Y100.000 E0.8768
G1 X123.535 Y99.048 E0.9086
G1 X123.733 Y98.103 E0.9407
G1 X124.061 Y97.176 E0.9734
G1 X124.517 Y96.274 E1.0070
G1 X125.098 Y95.407 E1.0417
G1 X125.798 Y94.582 E1.0777
G1 X126.609 Y93.808 E1.1150
G1 X127.526 Y93.093 E1.1536
G1 X128.539 Y92.443 E1.1937
G1 X129.640 Y91.866 E1.2350
G1 X130.815 Y91.369 E1.2775
G1 X132.055 Y90.953 E1.3209
G1 X133.317 Y90.634 E1.3642
G1 X133.674 Y90.570 E1.3763
G1 X133.674 Y109.371 E2.0016
G0 X132.949 Y109.032 F7200
;segType:Loop
G0 X133.372 Y108.971
G1 X133.430 Y108.982 E2.0036 F3600
G1 X132.167 Y108.662 E2.0469
G1 X130.957 Y108.257 E2.0894
G1 X129.811 Y107.772 E2.1308
G1 X128.740 Y107.210 E2.1710
G1 X127.757 Y106.581 E2.2098
G1 X126.871 Y105.889 E2.2472
G1 X126.089 Y105.143 E2.2831
G1 X125.418 Y104.352 E2.3177
G1 X124.863 Y103.523 E2.3508
G1 X124.430 Y102.667 E2.3827
G1 X124.119 Y101.789 E2.4137
G1 X123.932 Y100.897 E2.4440
G1 X123.870 Y100.000 E2.4739
G1 X123.932 Y99.103 E2.5038
G1 X124.119 Y98.211 E2.5341
G1 X124.430 Y97.334 E2.5651
G1 X124.863 Y96.477 E2.5970
G1 X125.418 Y95.648 E2.6302
G1 X126.089 Y94.857 E2.6647
G1 X126.871 Y94.111 E2.7006
G1 X127.757 Y93.419 E2.7380
G1 X128.740 Y92.790 E2.7769
G1 X129.811 Y92.228 E2.8171
G1 X130.957 Y91.743 E2.8585
G1 X132.167 Y91.338 E2.9009
G1 X133.402 Y91.025 E2.9433
G1 X133.274 Y91.049 E2.9476
G1 X133.274 Y108.854 E3.5398
;segType:HShell
G0 X128.573 Y93.324 F7200
G1 X125.109 Y96.788 E3.7028 F3600
G0 X124.638 Y97.825 F7200
G1 X129.848 Y92.615 E3.9478 F3600
G0 X130.849 Y92.179 F7200
G1 X124.400 Y98.629 E4.2512 F3600
G0 X124.278 Y99.316 F7200
G1 X131.731 Y91.863 E4.6017 F3600
G0 X132.547 Y91.613 F7200
G1 X124.236 Y99.924 E4.9927 F3600
G0 X124.263 Y100.463 F7200
G1 X132.913 Y91.812 E5.3996 F3600
G0 X132.913 Y92.378 F7200
G1 X124.317 Y100.975 E5.8039 F3600
G0 X124.415 Y101.443 F7200
G1 X132.913 Y92.944 E6.2037 F3600
G0 X132.913 Y93.510 F7200
G1 X124.536 Y101.887 E6.5977 F3600
G0 X124.684 Y102.305 F7200
G1 X132.913 Y94.075 E6.9848 F3600
G0 X132.913 Y94.641 F7200
G1 X124.852 Y102.703 E7.3640 F3600
G0 X125.042 Y103.078 F7200
G1 X132.913 Y95.207 E7.7343 F3600
G0 X132.913 Y95.772 F7200
G1 X125.243 Y103.443 E8.0951 F3600
G0 X125.470 Y103.782 F7200
G1 X132.913 Y96.338 E8.4452 F3600
G0 X132.913 Y96.904 F7200
G1 X125.697 Y104.121 E8.7847 F3600
G0 X125.955 Y104.428 F7200
G1 X132.913 Y97.469 E9.1120 F3600
G0 X132.913 Y98.035 F7200
G1 X126.214 Y104.734 E9.4271 F3600
G0 X126.488 Y105.026 F7200
G1 X132.913 Y98.601 E9.7294 F3600
G0 X132.913 Y99.166 F7200
G1 X126.778 Y105.302 E10.0180 F3600
G0 X127.067 Y105.578 F7200
G1 X132.913 Y99.732 E10.2930 F3600
G0 X132.913 Y100.298 F7200
G1 X127.381 Y105.830 E10.5532 F3600
G0 X127.699 Y106.078 F7200
G1 X132.913 Y100.863 E10.7985 F3600
G0 X132.913 Y101.429 F7200
G1 X128.021 Y106.322 E11.0286 F3600
G0 X128.366 Y106.543 F7200
G1 X132.913 Y101.995 E11.2425 F3600
G0 X132.913 Y102.560 F7200
G1 X128.710 Y106.764 E11.4402 F3600
G0 X129.065 Y106.974 F7200
G1 X132.913 Y103.126 E11.6212 F3600
G0 X132.913 Y103.692 F7200
G1 X129.436 Y107.169 E11.7848 F3600
G0 X129.807 Y107.363 F7200
G1 X132.913 Y104.258 E11.9309 F3600
G0 X132.913 Y104.823 F7200
G1 X130.194 Y107.543 E12.0588 F3600
G0 F3000 E11.0588
G0 X136.486 Y108.604 F7200
G0 F3000 E12.0588
G1 X138.736 Y106.355 E12.1646 F3600
G0 X138.736 Y106.921 F7200
G1 X136.645 Y109.011 E12.2629 F3600
G0 X137.193 Y109.029 F7200
G1 X138.736 Y107.486 E12.3355 F3600
G0 X138.736 Y108.052 F7200
G1 X137.758 Y109.029 E12.3815 F3600
G0 X138.736 Y108.618 F7200
G1 X138.344 Y109.009 E12.3999 F3600
;segType:Perimeter
G0 X139.229 Y108.921 F7200
G1 X139.436 Y109.694 E12.4265 F2160
G1 X138.872 Y109.752 E12.4454
G1 X137.475 Y109.800 E12.4919
G1 X136.078 Y109.752 E12.5383
G1 X135.726 Y109.716 E12.5501
G1 X135.726 Y90.284 E13.1964
G1 X136.078 Y90.248 E13.2082
G1 X137.475 Y90.200 E13.2546
G1 X138.872 Y90.248 E13.3011
G1 X139.496 Y90.312 E13.3220
G1 X139.496 Y109.628 E13.9644
G0 X138.706 Y109.501 F7200
;segType:Loop
G0 X138.386 Y109.368
G1 X137.475 Y109.399 E13.9948 F3600
G1 X136.172 Y109.355 E14.0381
G1 X136.126 Y109.228 E14.0426
G1 X136.126 Y90.714 E14.6584
G1 X136.172 Y90.645 E14.6611
G1 X137.475 Y90.601 E14.7045
G1 X138.845 Y90.647 E14.7501
G1 X139.096 Y90.673 E14.7585
G1 X139.096 Y109.327 E15.3789
G1 X138.845 Y109.353 E15.3873
G1 X138.586 Y109.362 E15.3959
;segType:HShell
G0 X137.148 Y90.972 F7200
G1 X136.486 Y91.634 E15.4270 F3600
G0 X136.486 Y92.199 F7200
G1 X137.716 Y90.969 E15.4849 F3600
G0 X138.264 Y90.988 F7200
G1 X136.486 Y92.765 E15.5685 F3600
G0 X136.486 Y93.331 F7200
G1 X138.736 Y91.081 E15.6743 F3600
G0 X138.736 Y91.647 F7200
G1 X136.486 Y93.896 E15.7801 F3600
G0 X136.486 Y94.462 F7200
G1 X138.736 Y92.213 E15.8859 F3600
G0 X138.736 Y92.778 F7200
G1 X136.486 Y95.028 E15.9917 F3600
G0 X136.486 Y95.593 F7200
G1 X138.736 Y93.344 E16.0975 F3600
G0 X138.736 Y93.910 F7200
G1 X136.486 Y96.159 E16.2033 F3600
G0 X136.486 Y96.725 F7200
G1 X138.736 Y94.476 E16.3091 F3600
G0 X138.736 Y95.041 F7200
G1 X136.486 Y97.290 E16.4149 F3600
G0 X136.486 Y97.856 F7200
G1 X138.736 Y95.607 E16.5207 F3600
G0 X138.736 Y96.173 F7200
G1 X136.486 Y98.422 E16.6265 F3600
G0 X136.486 Y98.988 F7200
G1 X138.736 Y96.738 E16.7323 F3600
G0 X138.736 Y97.304 F7200
G1 X136.486 Y99.553 E16.8381 F3600
G0 X136.486 Y100.119 F7200
G1 X138.736 Y97.870 E16.9439 F3600
G0 X138.736 Y98.435 F7200
G1 X136.486 Y100.685 E17.0497 F3600
G0 X136.486 Y101.250 F7200
G1 X138.736 Y99.001 E17.1555 F3600
G0 X138.736 Y99.567 F7200
G1 X136.486 Y101.816 E17.2613 F3600
G0 X136.486 Y102.382 F7200
G1 X138.736 Y100.132 E17.3671 F3600
G0 X138.736 Y100.698 F7200
G1 X136.486 Y102.947 E17.4729 F3600
G0 X136.486 Y103.513 F7200
G1 X138.736 Y101.264 E17.5787 F3600
G0 X138.736 Y101.829 F7200
G1 X136.486 Y104.079 E17.6845 F3600
G0 X136.486 Y104.644 F7200
G1 X138.736 Y102.395 E17.7903 F3600
G0 X138.736 Y102.961 F7200
G1 X136.486 Y105.210 E17.8961 F3600
G0 X136.486 Y105.776 F7200
G1 X138.736 Y103.527 E18.0018 F3600
G0 X138.736 Y104.092 F7200
G1 X136.486 Y106.341 E18.1076 F3600
G0 X136.486 Y106.907 F7200
G1 X138.736 Y104.658 E18.2134 F3600
G0 X138.736 Y105.224 F7200
G1 X136.486 Y107.473 E18.3192 F3600
G0 X136.486 Y108.039 F7200
G1 X138.736 Y105.789 E18.4250 F3600
; ------------------------------------
; Layer #2
; ------------------------------------
M106 S0 ;turn off fan
G92 E0 ;reset extr
;segType:HShell
G0 X138.929 Y107.381 F7200
G0 F1200 Z0.600
G1 X136.680 Y105.132 E0.1058 F3600
G0 X136.680 Y105.698 F7200
G1 X138.929 Y107.947 E0.2116 F3600
G0 X138.929 Y108.512 F7200
G1 X136.680 Y106.263 E0.3174 F3600
G0 X136.680 Y106.829 F7200
G1 X138.822 Y108.972 E0.4181 F3600
;segType:Perimeter
G0 X139.422 Y108.880 F7200
G1 X139.629 Y109.653 E0.4447 F2160
G1 X138.665 Y109.752 E0.4770
G1 X137.268 Y109.800 E0.5235
G1 X135.943 Y109.754 E0.5676
G1 X135.920 Y109.685 E0.5700
G1 X135.920 Y90.257 E1.2162
G1 X135.943 Y90.246 E1.2171
G1 X137.268 Y90.200 E1.2611
G1 X138.665 Y90.248 E1.3076
G1 X139.689 Y90.353 E1.3419
G1 X139.689 Y109.587 E1.9816
G0 X138.899 Y109.460 F7200
;segType:Loop
G0 X138.537 Y109.356
G1 X137.268 Y109.399 E2.0238 F3600
G1 X136.400 Y109.370 E2.0527
G1 X136.320 Y109.343 E2.0555
G1 X136.320 Y90.714 E2.6751
G1 X136.400 Y90.630 E2.6790
G1 X137.267 Y90.601 E2.7078
G1 X138.637 Y90.647 E2.7534
G1 X139.289 Y90.714 E2.7752
G1 X139.289 Y109.286 E3.3929
G1 X138.737 Y109.342 E3.4114
;segType:HShell
G0 X138.289 Y109.004 F7200
G1 X136.680 Y107.395 E3.4871 F3600
G0 X136.680 Y107.960 F7200
G1 X137.742 Y109.023 E3.5370 F3600
G0 X137.190 Y109.036 F7200
G1 X136.680 Y108.526 E3.5610 F3600
G0 X138.929 Y91.542 F7200
G1 X138.386 Y90.999 E3.5866 F3600
G0 X137.800 Y90.979 F7200
G1 X138.929 Y92.108 E3.6396 F3600
G0 X138.929 Y92.673 F7200
G1 X137.218 Y90.963 E3.7201 F3600
G0 X136.710 Y91.020 F7200
G1 X138.929 Y93.239 E3.8245 F3600
G0 X138.929 Y93.805 F7200
G1 X136.680 Y91.556 E3.9303 F3600
G0 X136.680 Y92.121 F7200
G1 X138.929 Y94.370 E4.0360 F3600
G0 X138.929 Y94.936 F7200
G1 X136.680 Y92.687 E4.1418 F3600
G0 X136.680 Y93.253 F7200
G1 X138.929 Y95.502 E4.2476 F3600
G0 X138.929 Y96.067 F7200
G1 X136.680 Y93.818 E4.3534 F3600
G0 X136.680 Y94.384 F7200
G1 X138.929 Y96.633 E4.4592 F3600
G0 X138.929 Y97.199 F7200
G1 X136.680 Y94.950 E4.5650 F3600
G0 X136.680 Y95.515 F7200
G1 X138.929 Y97.764 E4.6708 F3600
G0 X138.929 Y98.330 F7200
G1 X136.680 Y96.081 E4.7765 F3600
G0 X136.680 Y96.647 F7200
G1 X138.929 Y98.896 E4.8823 F3600
G0 X138.929 Y99.461 F7200
G1 X136.680 Y97.212 E4.9881 F3600
G0 X136.680 Y97.778 F7200
G1 X138.929 Y100.027 E5.0939 F3600
G0 X138.929 Y100.593 F7200
G1 X136.680 Y98.344 E5.1997 F3600
G0 X136.680 Y98.910 F7200
G1 X138.929 Y101.159 E5.3055 F3600
G0 X138.929 Y101.724 F7200
G1 X136.680 Y99.475 E5.4113 F3600
G0 X136.680 Y100.041 F7200
G1 X138.929 Y102.290 E5.5170 F3600
G0 X138.929 Y102.856 F7200
G1 X136.680 Y100.607 E5.6228 F3600
G0 X136.680 Y101.172 F7200
G1 X138.929 Y103.421 E5.7286 F3600
G0 X138.929 Y103.987 F7200
G1 X136.680 Y101.738 E5.8344 F3600
G0 X136.680 Y102.304 F7200
G1 X138.929 Y104.553 E5.9402 F3600
G0 X138.929 Y105.118 F7200
G1 X136.680 Y102.869 E6.0460 F3600
G0 X136.680 Y103.435 F7200
G1 X138.929 Y105.684 E6.1518 F3600
G0 X138.929 Y106.250 F7200
G1 X136.680 Y104.001 E6.2576 F3600
G0 X136.680 Y104.566 F7200
G1 X138.929 Y106.815 E6.3633 F3600
G0 F3000 E5.3633
G0 X124.078 Y99.319 F7200
G0 F3000 E6.3633
G1 X133.113 Y108.354 E6.7883 F3600
;segType:Perimeter
G0 X133.607 Y108.719 F7200
G1 X133.815 Y109.491 E6.8149 F2160
G1 X133.146 Y109.373 E6.8375
G1 X131.854 Y109.047 E6.8818
G1 X130.615 Y108.631 E6.9253
G1 X129.440 Y108.134 E6.9678
G1 X128.339 Y107.557 E7.0091
G1 X127.326 Y106.907 E7.0491
G1 X126.409 Y106.192 E7.0878
G1 X125.598 Y105.418 E7.1251
G1 X124.898 Y104.593 E7.1611
G1 X124.317 Y103.726 E7.1958
G1 X123.861 Y102.824 E7.2294
G1 X123.533 Y101.897 E7.2621
G1 X123.335 Y100.952 E7.2942
G1 X123.269 Y100.000 E7.3259
G1 X123.335 Y99.048 E7.3577
G1 X123.533 Y98.103 E7.3898
G1 X123.861 Y97.176 E7.4225
G1 X124.317 Y96.274 E7.4561
G1 X124.898 Y95.407 E7.4908
G1 X125.598 Y94.582 E7.5268
G1 X126.409 Y93.808 E7.5641
G1 X127.326 Y93.093 E7.6028
G1 X128.339 Y92.443 E7.6428
G1 X129.440 Y91.866 E7.6841
G1 X130.615 Y91.369 E7.7266
G1 X131.855 Y90.953 E7.7701
G1 X133.146 Y90.627 E7.8144
G1 X133.874 Y90.498 E7.8390
G1 X133.874 Y109.442 E8.4690
G0 X133.149 Y109.103 F7200
;segType:Loop
G0 X132.894 Y108.897
G1 X131.967 Y108.662 E8.5008 F3600
G1 X130.757 Y108.257 E8.5433
G1 X129.611 Y107.772 E8.5847
G1 X128.540 Y107.210 E8.6249
G1 X127.557 Y106.581 E8.6637
G1 X126.671 Y105.889 E8.7011
G1 X125.889 Y105.143 E8.7370
G1 X125.218 Y104.352 E8.7715
G1 X124.663 Y103.523 E8.8047
G1 X124.230 Y102.667 E8.8366
G1 X123.919 Y101.789 E8.8676
G1 X123.732 Y100.897 E8.8979
G1 X123.670 Y100.000 E8.9278
G1 X123.732 Y99.103 E8.9577
G1 X123.919 Y98.211 E8.9880
G1 X124.230 Y97.334 E9.0190
G1 X124.663 Y96.477 E9.0509
G1 X125.218 Y95.648 E9.0841
G1 X125.889 Y94.857 E9.1186
G1 X126.671 Y94.111 E9.1545
G1 X127.557 Y93.419 E9.1919
G1 X128.540 Y92.790 E9.2308
G1 X129.611 Y92.228 E9.2710
G1 X130.757 Y91.743 E9.3124
G1 X131.967 Y91.338 E9.3548
G1 X133.230 Y91.018 E9.3982
G1 X133.474 Y90.975 E9.4064
G1 X133.474 Y109.025 E10.0067
G1 X133.543 Y109.037 E10.0091
G1 X133.230 Y108.982 E10.0196
G1 X133.088 Y108.946 E10.0245
;segType:HShell
G0 X132.660 Y108.466 F7200
G1 X124.041 Y99.848 E10.4299 F3600
G0 X124.061 Y100.433 F7200
G1 X131.883 Y108.254 E10.7978 F3600
G0 X131.032 Y107.970 F7200
G1 X124.138 Y101.075 E11.1221 F3600
G0 X124.310 Y101.813 F7200
G1 X130.074 Y107.577 E11.3932 F3600
G0 X128.950 Y107.018 F7200
G1 X124.670 Y102.739 E11.5945 F3600
G0 X124.157 Y98.832 F7200
G1 X133.113 Y107.788 E12.0158 F3600
G0 X133.113 Y107.223 F7200
G1 X124.255 Y98.364 E12.4324 F3600
G0 X124.397 Y97.941 F7200
G1 X133.113 Y106.657 E12.8424 F3600
G0 X133.113 Y106.091 F7200
G1 X124.545 Y97.523 E13.2455 F3600
G0 X124.730 Y97.142 F7200
G1 X133.113 Y105.525 E13.6398 F3600
G0 X133.113 Y104.960 F7200
G1 X124.920 Y96.766 E14.0252 F3600
G0 X125.137 Y96.417 F7200
G1 X133.113 Y104.394 E14.4004 F3600
G0 X133.113 Y103.828 F7200
G1 X125.363 Y96.078 E14.7649 F3600
G0 X125.603 Y95.752 F7200
G1 X133.113 Y103.263 E15.1182 F3600
G0 X133.113 Y102.697 F7200
G1 X125.862 Y95.446 E15.4593 F3600
G0 X126.122 Y95.140 F7200
G1 X133.113 Y102.131 E15.7882 F3600
G0 X133.113 Y101.566 F7200
G1 X126.408 Y94.860 E16.1036 F3600
G0 X126.697 Y94.584 F7200
G1 X133.113 Y101.000 E16.4054 F3600
G0 X133.113 Y100.434 F7200
G1 X126.994 Y94.315 E16.6932 F3600
G0 X127.312 Y94.067 F7200
G1 X133.113 Y99.869 E16.9661 F3600
G0 X133.113 Y99.303 F7200
G1 X127.630 Y93.820 E17.2240 F3600
G0 X127.963 Y93.587 F7200
G1 X133.113 Y98.737 E17.4663 F3600
G0 X133.113 Y98.172 F7200
G1 X128.308 Y93.366 E17.6923 F3600
G0 X128.653 Y93.145 F7200
G1 X133.113 Y97.606 E17.9021 F3600
G0 X133.113 Y97.040 F7200
G1 X129.019 Y92.945 E18.0947 F3600
G0 X129.390 Y92.751 F7200
G1 X133.113 Y96.475 E18.2699 F3600
G0 X133.113 Y95.909 F7200
G1 X129.761 Y92.556 E18.4276 F3600
G0 X130.158 Y92.388 F7200
G1 X133.113 Y95.343 E18.5666 F3600
G0 X133.113 Y94.777 F7200
G1 X130.555 Y92.219 E18.6869 F3600
G0 X130.957 Y92.056 F7200
G1 X133.113 Y94.212 E18.7884 F3600
G0 X133.113 Y93.646 F7200
G1 X131.381 Y91.914 E18.8699 F3600
G0 X131.805 Y91.772 F7200
G1 X133.113 Y93.080 E18.9314 F3600
G0 X133.113 Y92.515 F7200
G1 X132.239 Y91.640 E18.9725 F3600
G0 X132.691 Y91.526 F7200
G1 X133.113 Y91.949 E18.9924 F3600
G0 X125.541 Y104.175 F7200
G1 X127.248 Y105.882 E19.0727 F3600
; ------------------------------------
; Layer #3
; ------------------------------------
M106 S255 ;set fan speed
G92 E0 ;reset extr
;segType:HShell
G0 F3000 E-1.0000
G0 F1200 Z0.800
G0 X133.295 Y105.573 F7200
G0 F3000 E0.0000
G1 X130.882 Y107.986 E0.1135 F3600
G0 X131.306 Y108.128 F7200
G1 X133.295 Y106.139 E0.2071 F3600
G0 X133.294 Y106.705 F7200
G1 X131.729 Y108.270 E0.2807 F3600
G0 X132.172 Y108.393 F7200
G1 X133.293 Y107.272 E0.3335 F3600
G0 X133.293 Y107.838 F7200
G1 X132.623 Y108.507 E0.3649 F3600
G0 X134.051 Y109.566 F7200
G0 X134.056 Y109.570
G0 X134.056 Y109.570
G0 X134.115 Y109.580
G0 X134.056 Y109.570
G0 X134.056 Y109.570
G0 X134.066 Y109.577
;segType:Perimeter
G0 X134.056 Y109.570
G1 X132.946 Y109.373 E0.4024 F2160
G1 X131.654 Y109.047 E0.4467
G1 X130.415 Y108.631 E0.4902
G1 X129.239 Y108.134 E0.5327
G1 X128.139 Y107.557 E0.5740
G1 X127.126 Y106.907 E0.6140
G1 X126.209 Y106.192 E0.6527
G1 X125.398 Y105.418 E0.6900
G1 X124.698 Y104.593 E0.7260
G1 X124.117 Y103.726 E0.7607
G1 X123.661 Y102.824 E0.7943
G1 X123.333 Y101.897 E0.8270
G1 X123.135 Y100.952 E0.8591
G1 X123.069 Y100.000 E0.8908
G1 X123.135 Y99.048 E0.9226
G1 X123.333 Y98.103 E0.9547
G1 X123.661 Y97.176 E0.9874
G1 X124.117 Y96.274 E1.0210
G1 X124.698 Y95.407 E1.0557
G1 X125.398 Y94.582 E1.0917
G1 X126.209 Y93.808 E1.1290
G1 X127.126 Y93.093 E1.1677
G1 X128.139 Y92.443 E1.2077
G1 X129.239 Y91.866 E1.2490
G1 X130.415 Y91.369 E1.2915
G1 X131.655 Y90.953 E1.3350
G1 X132.946 Y90.627 E1.3793
G1 X134.073 Y90.429 E1.4173
G1 X134.051 Y109.569 E2.0540
G1 X134.056 Y109.570 E2.0541
G0 X134.056 Y109.570 F7200
G0 X134.115 Y109.580
G0 X134.056 Y109.570
G0 X134.056 Y109.570
G0 X134.115 Y109.580
G0 X134.051 Y109.569
G0 X134.051 Y109.567
G0 X134.051 Y109.567
G0 X133.090 Y108.988
;segType:Loop
G0 X133.102 Y108.994
G1 X133.030 Y108.982 E2.0565 F3600
G1 X131.767 Y108.662 E2.0999
G1 X130.557 Y108.257 E2.1423
G1 X129.411 Y107.772 E2.1837
G1 X128.340 Y107.210 E2.2239
G1 X127.357 Y106.581 E2.2627
G1 X126.471 Y105.889 E2.3001
G1 X125.689 Y105.143 E2.3361
G1 X125.018 Y104.352 E2.3706
G1 X124.463 Y103.523 E2.4038
G1 X124.030 Y102.667 E2.4357
G1 X123.719 Y101.789 E2.4667
G1 X123.532 Y100.897 E2.4969
G1 X123.470 Y100.000 E2.5269
G1 X123.532 Y99.103 E2.5568
G1 X123.719 Y98.211 E2.5871
G1 X124.030 Y97.334 E2.6180
G1 X124.463 Y96.477 E2.6500
G1 X125.018 Y95.648 E2.6831
G1 X125.689 Y94.857 E2.7177
G1 X126.471 Y94.111 E2.7536
G1 X127.357 Y93.419 E2.7910
G1 X128.340 Y92.790 E2.8298
G1 X129.411 Y92.228 E2.8700
G1 X130.557 Y91.743 E2.9114
G1 X131.767 Y91.338 E2.9539
G1 X133.030 Y91.019 E2.9972
G1 X133.673 Y90.905 E3.0189
G1 X133.651 Y109.092 E3.6238
G1 X133.298 Y109.029 E3.6357
;segType:HShell
G0 X133.296 Y105.006 F7200
G1 X130.472 Y107.830 E3.7685 F3600
G0 X130.075 Y107.662 F7200
G1 X133.297 Y104.440 E3.9201 F3600
G0 X133.297 Y103.874 F7200
G1 X129.677 Y107.494 E4.0904 F3600
G0 X129.299 Y107.307 F7200
G1 X133.298 Y103.307 E4.2785 F3600
G0 X133.299 Y102.741 F7200
G1 X128.928 Y107.112 E4.4841 F3600
G0 X128.557 Y106.917 F7200
G1 X133.299 Y102.175 E4.7072 F3600
G0 X133.300 Y101.608 F7200
G1 X128.209 Y106.699 E4.9466 F3600
G0 X127.865 Y106.478 F7200
G1 X133.301 Y101.042 E5.2023 F3600
G0 X133.301 Y100.475 F7200
G1 X127.523 Y106.253 E5.4741 F3600
G0 X127.206 Y106.005 F7200
G1 X133.302 Y99.909 E5.7609 F3600
G0 X133.303 Y99.343 F7200
G1 X126.888 Y105.758 E6.0626 F3600
G0 X126.582 Y105.498 F7200
G1 X133.303 Y98.776 E6.3787 F3600
G0 X133.304 Y98.210 F7200
G1 X126.293 Y105.221 E6.7085 F3600
G0 X126.003 Y104.945 F7200
G1 X133.305 Y97.644 E7.0520 F3600
G0 X133.305 Y97.077 F7200
G1 X125.738 Y104.644 E7.4079 F3600
G0 X125.479 Y104.338 F7200
G1 X133.306 Y96.511 E7.7761 F3600
G0 X133.307 Y95.945 F7200
G1 X125.230 Y104.021 E8.1560 F3600
G0 X125.003 Y103.682 F7200
G1 X133.307 Y95.378 E8.5466 F3600
G0 X133.308 Y94.812 F7200
G1 X124.776 Y103.344 E8.9479 F3600
G0 X124.586 Y102.968 F7200
G1 X133.309 Y94.246 E9.3582 F3600
G0 X133.309 Y93.679 F7200
G1 X124.396 Y102.593 E9.7774 F3600
G0 X124.241 Y102.182 F7200
G1 X133.310 Y93.113 E10.2040 F3600
G0 X133.311 Y92.547 F7200
G1 X124.093 Y101.764 E10.6376 F3600
G0 X123.986 Y101.306 F7200
G1 X133.311 Y91.980 E11.0762 F3600
G0 X133.312 Y91.414 F7200
G1 X123.889 Y100.837 E11.5195 F3600
G0 X123.852 Y100.308 F7200
G1 X132.683 Y91.478 E11.9348 F3600
G0 X131.926 Y91.669 F7200
G1 X123.848 Y99.746 E12.3147 F3600
G0 X123.893 Y99.136 F7200
G1 X131.082 Y91.947 E12.6529 F3600
G0 X130.162 Y92.301 F7200
G1 X124.044 Y98.419 E12.9407 F3600
G0 X124.328 Y97.569 F7200
G1 X129.099 Y92.798 E13.1651 F3600
G0 X127.712 Y93.620 F7200
G1 X124.981 Y96.351 E13.2935 F3600
G0 F3000 E12.2935
G0 X136.873 Y108.218 F7200
G0 F3000 E13.2935
G1 X139.122 Y105.969 E13.3993 F3600
G0 X139.122 Y106.534 F7200
G1 X136.873 Y108.783 E13.5051 F3600
G0 X137.187 Y109.035 F7200
G1 X139.122 Y107.100 E13.5961 F3600
G0 X139.122 Y107.666 F7200
G1 X137.773 Y109.015 E13.6595 F3600
G0 X138.358 Y108.995 F7200
G1 X139.122 Y108.232 E13.6954 F3600
;segType:Perimeter
G0 X139.627 Y108.834 F7200
G1 X139.834 Y109.607 E13.7220 F2160
G1 X139.829 Y109.611 E13.7222
G1 X138.458 Y109.752 E13.7681
G1 X137.060 Y109.800 E13.8146
G1 X136.113 Y109.767 E13.8461
G1 X136.113 Y90.233 E14.4958
G1 X137.061 Y90.200 E14.5274
G1 X138.458 Y90.248 E14.5739
G1 X139.829 Y90.389 E14.6197
G1 X139.882 Y90.485 E14.6234
G1 X139.882 Y109.511 E15.2562
G0 X139.751 Y109.563 F7200
;segType:Loop
G0 X138.760 Y109.319
G1 X138.430 Y109.353 E15.2672 F3600
G1 X137.060 Y109.399 E15.3128
G1 X136.513 Y109.381 E15.3310
G1 X136.513 Y90.619 E15.9550
G1 X137.061 Y90.601 E15.9732
G1 X138.430 Y90.647 E16.0188
G1 X139.372 Y90.744 E16.0503
G1 X139.482 Y90.828 E16.0549
G1 X139.482 Y109.228 E16.6669
G1 X139.372 Y109.256 E16.6706
G1 X138.958 Y109.298 E16.6845
;segType:HShell
G0 X139.122 Y105.403 F7200
G1 X136.873 Y107.652 E16.7902 F3600
G0 X136.873 Y107.086 F7200
G1 X139.122 Y104.837 E16.8960 F3600
G0 X139.122 Y104.272 F7200
G1 X136.873 Y106.521 E17.0018 F3600
G0 X136.873 Y105.955 F7200
G1 X139.122 Y103.706 E17.1076 F3600
G0 X139.122 Y103.140 F7200
G1 X136.873 Y105.389 E17.2133 F3600
G0 X136.873 Y104.823 F7200
G1 X139.122 Y102.575 E17.3191 F3600
G0 X139.122 Y102.009 F7200
G1 X136.873 Y104.258 E17.4249 F3600
G0 X136.873 Y103.692 F7200
G1 X139.122 Y101.443 E17.5307 F3600
G0 X139.122 Y100.878 F7200
G1 X136.873 Y103.126 E17.6364 F3600
G0 X136.873 Y102.561 F7200
G1 X139.122 Y100.312 E17.7422 F3600
G0 X139.122 Y99.746 F7200
G1 X136.873 Y101.995 E17.8480 F3600
G0 X136.873 Y101.429 F7200
G1 X139.122 Y99.181 E17.9538 F3600
G0 X139.122 Y98.615 F7200
G1 X136.873 Y100.864 E18.0595 F3600
G0 X136.873 Y100.298 F7200
G1 X139.122 Y98.049 E18.1653 F3600
G0 X139.122 Y97.484 F7200
G1 X136.873 Y99.732 E18.2711 F3600
G0 X136.873 Y99.167 F7200
G1 X139.122 Y96.918 E18.3769 F3600
G0 X139.122 Y96.352 F7200
G1 X136.873 Y98.601 E18.4826 F3600
G0 X136.873 Y98.035 F7200
G1 X139.122 Y95.786 E18.5884 F3600
G0 X139.122 Y95.221 F7200
G1 X136.873 Y97.470 E18.6942 F3600
G0 X136.873 Y96.904 F7200
G1 X139.122 Y94.655 E18.8000 F3600
G0 X139.122 Y94.089 F7200
G1 X136.873 Y96.338 E18.9057 F3600
G0 X136.873 Y95.772 F7200
G1 X139.122 Y93.524 E19.0115 F3600
G0 X139.122 Y92.958 F7200
G1 X136.873 Y95.207 E19.1173 F3600
G0 X136.873 Y94.641 F7200
G1 X139.122 Y92.392 E19.2230 F3600
G0 X139.122 Y91.827 F7200
G1 X136.873 Y94.075 E19.3288 F3600
G0 X136.873 Y93.510 F7200
G1 X139.122 Y91.261 E19.4346 F3600
G0 X138.772 Y91.045 F7200
G1 X136.873 Y92.944 E19.5239 F3600
G0 X136.873 Y92.378 F7200
G1 X138.250 Y91.001 E19.5887 F3600
G0 X137.703 Y90.983 F7200
G1 X136.873 Y91.813 E19.6277 F3600
; ------------------------------------
; Layer #4
; ------------------------------------
G92 E0 ;reset extr
G0 F3000 E-1.0000
G0 F1200 Z1.000
G0 X134.793 Y93.944 F7200
G0 X132.713 Y96.075
G0 F3000 E0.0000
;segType:HShell
G1 X133.513 Y96.875 E0.0376 F3600
G0 X133.513 Y96.309 F7200
G1 X132.713 Y95.509 E0.0753 F3600
G0 X132.713 Y94.943 F7200
G1 X133.513 Y95.743 E0.1129 F3600
G0 X133.513 Y95.177 F7200
G1 X132.713 Y94.377 E0.1505 F3600
G0 X132.713 Y93.812 F7200
G1 X133.513 Y94.612 E0.1882 F3600
G0 X133.513 Y94.046 F7200
G1 X132.713 Y93.246 E0.2258 F3600
G0 X132.713 Y92.680 F7200
G1 X133.513 Y93.480 E0.2634 F3600
G0 X133.513 Y92.915 F7200
G1 X132.713 Y92.115 E0.3010 F3600
G0 X132.610 Y91.446 F7200
G1 X133.513 Y92.349 E0.3435 F3600
G0 X133.513 Y91.783 F7200
G1 X133.071 Y91.341 E0.3643 F3600
G0 X134.274 Y90.377 F7200
G0 X134.274 Y90.370
G0 X134.343 Y90.363
G0 X134.284 Y90.369
G0 X134.284 Y90.369
G0 X134.284 Y90.369
G0 X134.284 Y90.369
G0 X134.294 Y90.361
;segType:Perimeter
G0 X134.284 Y90.369
G1 X134.274 Y90.370 E0.3647 F2160
G1 X134.274 Y109.630 E1.0052
G1 X134.080 Y109.609 E1.0117
G1 X132.746 Y109.373 E1.0568
G1 X131.454 Y109.047 E1.1011
G1 X130.215 Y108.631 E1.1446
G1 X129.039 Y108.134 E1.1870
G1 X127.939 Y107.557 E1.2283
G1 X126.926 Y106.907 E1.2684
G1 X126.009 Y106.192 E1.3070
G1 X125.198 Y105.418 E1.3443
G1 X124.498 Y104.593 E1.3803
G1 X123.917 Y103.726 E1.4150
G1 X123.461 Y102.824 E1.4486
G1 X123.133 Y101.897 E1.4814
G1 X122.935 Y100.952 E1.5135
G1 X122.869 Y100.000 E1.5452
G1 X122.935 Y99.048 E1.5770
G1 X123.133 Y98.103 E1.6091
G1 X123.461 Y97.176 E1.6418
G1 X123.917 Y96.274 E1.6754
G1 X124.498 Y95.407 E1.7101
G1 X125.198 Y94.582 E1.7461
G1 X126.009 Y93.808 E1.7834
G1 X126.926 Y93.093 E1.8220
G1 X127.939 Y92.443 E1.8621
G1 X129.039 Y91.866 E1.9034
G1 X130.215 Y91.369 E1.9459
G1 X131.455 Y90.953 E1.9893
G1 X132.746 Y90.627 E2.0336
G1 X134.080 Y90.391 E2.0787
G1 X134.284 Y90.369 E2.0855
G0 X134.284 Y90.369 F7200
G0 X134.284 Y90.369
G0 X134.284 Y90.369
G0 X134.343 Y90.363
G0 X134.274 Y90.370
G0 X134.274 Y90.394
G0 X134.274 Y90.394
G0 X133.869 Y91.412
;segType:Loop
G0 X133.874 Y91.400
G1 X133.874 Y109.114 E2.6747 F3600
G1 X133.772 Y109.149 E2.6782
G1 X132.830 Y108.982 E2.7100
G1 X131.567 Y108.662 E2.7534
G1 X130.357 Y108.257 E2.7958
G1 X129.211 Y107.772 E2.8372
G1 X128.140 Y107.210 E2.8774
G1 X127.157 Y106.581 E2.9163
G1 X126.271 Y105.889 E2.9536
G1 X125.489 Y105.143 E2.9896
G1 X124.818 Y104.352 E3.0241
G1 X124.263 Y103.523 E3.0573
G1 X123.830 Y102.667 E3.0892
G1 X123.519 Y101.789 E3.1202
G1 X123.332 Y100.897 E3.1505
G1 X123.270 Y100.000 E3.1804
G1 X123.332 Y99.103 E3.2103
G1 X123.519 Y98.211 E3.2406
G1 X123.830 Y97.334 E3.2716
G1 X124.263 Y96.477 E3.3035
G1 X124.818 Y95.648 E3.3366
G1 X125.489 Y94.857 E3.3712
G1 X126.271 Y94.111 E3.4071
G1 X127.157 Y93.419 E3.4445
G1 X128.140 Y92.790 E3.4833
G1 X129.211 Y92.228 E3.5235
G1 X130.357 Y91.743 E3.5649
G1 X131.567 Y91.338 E3.6074
G1 X132.830 Y91.018 E3.6507
G1 X134.000 Y90.811 E3.6902
G1 X133.874 Y90.943 E3.6963
G1 X133.874 Y91.200 E3.7049
;segType:Infill
G0 X129.898 Y92.694 F7200
G1 X132.713 Y95.509 E3.8638 F4500
G0 X131.681 Y108.053 F7200
G1 X124.493 Y100.865 E4.2695 F4500
G0 X125.186 Y97.032 F7200
G1 X132.713 Y104.560 E4.6944 F4500
G0 X132.713 Y100.034 F7200
G1 X127.182 Y94.503 E5.0066 F4500
;segType:HShell
G0 X128.835 Y93.045 F7200
G1 X128.308 Y93.366 E5.0207 F3600
G1 X127.965 Y93.589 E5.0354
G1 X127.634 Y93.823 E5.0502
G1 X127.312 Y94.067 E5.0664
G1 X127.001 Y94.321 E5.0829
G1 X126.697 Y94.584 E5.0999
G1 X126.408 Y94.860 E5.1183
G1 X126.130 Y95.148 E5.1367
G1 X125.862 Y95.446 E5.1562
G1 X125.608 Y95.757 E5.1766
G1 X125.365 Y96.080 E5.1974
G1 X125.137 Y96.417 E5.2198
G1 X124.928 Y96.774 E5.2424
G1 X124.730 Y97.142 E5.2666
G0 X124.840 Y97.818 F7200
G1 X124.274 Y97.252 E5.2933 F3600
G0 X124.102 Y97.645 F7200
G1 X124.693 Y98.236 E5.3211 F3600
G0 X124.586 Y98.695 F7200
G1 X123.954 Y98.063 E5.3508 F3600
G0 X123.827 Y98.501 F7200
G1 X124.489 Y99.164 E5.3819 F3600
G0 X124.452 Y99.693 F7200
G1 X123.728 Y98.969 E5.4160 F3600
G0 X123.667 Y99.474 F7200
G1 X124.449 Y100.255 E5.4527 F3600
G0 X124.493 Y100.865 F7200
G1 X123.631 Y100.003 E5.4933 F3600
G0 X123.673 Y100.611 F7200
G1 X124.644 Y101.581 E5.5390 F3600
G0 X124.929 Y102.432 F7200
G1 X123.782 Y101.285 E5.5929 F3600
G0 X124.001 Y102.070 F7200
G1 X125.582 Y103.651 E5.6673 F3600
G0 X128.162 Y106.797 F7200
G1 X124.439 Y103.074 E5.8424 F3600
G0 X128.310 Y106.379 F7200
G1 X129.386 Y107.455 E5.8931 F3600
G0 X130.367 Y107.870 F7200
G1 X129.698 Y107.201 E5.9245 F3600
G0 X130.566 Y107.786 F7200
G1 X131.860 Y108.232 E5.9549 F3600
G0 X132.713 Y107.954 F7200
G1 X133.459 Y108.699 E5.9899 F3600
G0 X133.513 Y108.188 F7200
G1 X132.713 Y107.388 E6.0276 F3600
G0 X132.713 Y106.823 F7200
G1 X133.513 Y107.623 E6.0652 F3600
G0 X133.513 Y107.057 F7200
G1 X132.713 Y106.257 E6.1028 F3600
G0 X132.713 Y105.691 F7200
G1 X133.513 Y106.491 E6.1404 F3600
G0 X133.513 Y105.926 F7200
G1 X132.713 Y105.125 E6.1781 F3600
G0 X132.713 Y104.560 F7200
G1 X133.513 Y105.360 E6.2157 F3600
G0 X133.513 Y104.794 F7200
G1 X132.713 Y103.994 E6.2533 F3600
G0 X132.713 Y103.428 F7200
G1 X133.513 Y104.228 E6.2910 F3600
G0 X133.513 Y103.663 F7200
G1 X132.713 Y102.863 E6.3286 F3600
G0 X132.713 Y102.297 F7200
G1 X133.513 Y103.097 E6.3662 F3600
G0 X133.513 Y102.531 F7200
G1 X132.713 Y101.731 E6.4039 F3600
G0 X132.713 Y101.166 F7200
G1 X133.513 Y101.966 E6.4415 F3600
G0 X133.513 Y101.400 F7200
G1 X132.713 Y100.600 E6.4791 F3600
G0 X132.713 Y100.034 F7200
G1 X133.513 Y100.834 E6.5168 F3600
G0 X133.513 Y100.269 F7200
G1 X132.713 Y99.469 E6.5544 F3600
G0 X132.713 Y98.903 F7200
G1 X133.513 Y99.703 E6.5920 F3600
G0 X133.513 Y99.137 F7200
G1 X132.713 Y98.337 E6.6296 F3600
G0 X132.713 Y97.772 F7200
G1 X133.513 Y98.572 E6.6673 F3600
G0 X133.513 Y98.006 F7200
G1 X132.713 Y97.206 E6.7049 F3600
G0 X132.713 Y96.640 F7200
G1 X133.513 Y97.440 E6.7425 F3600
G0 F3000 E5.7425
G0 X137.838 Y94.977 F7200
G0 F3000 E6.7425
G1 X137.066 Y94.204 E6.7789 F3600
G0 X137.066 Y93.639 F7200
G1 X137.838 Y94.411 E6.8152 F3600
G0 X137.838 Y93.845 F7200
G1 X137.066 Y93.073 E6.8515 F3600
G0 X137.066 Y92.507 F7200
G1 X137.838 Y93.280 E6.8879 F3600
G0 X137.838 Y92.714 F7200
G1 X137.066 Y91.941 E6.9242 F3600
G0 X137.066 Y91.376 F7200
G1 X137.838 Y92.148 E6.9605 F3600
;segType:Infill
G0 X137.838 Y91.583 F7200
G1 X138.542 Y92.287 E7.0003 F4500
G0 X137.838 Y96.108 F7200
G1 X138.542 Y96.812 E7.0401 F4500
G0 X137.838 Y100.634 F7200
G1 X138.542 Y101.338 E7.0798 F4500
G0 X137.838 Y105.159 F7200
G1 X138.542 Y105.863 E7.1196 F4500
;segType:Perimeter
G0 X139.809 Y108.770 F7200
G1 X140.016 Y109.543 E7.1462 F2160
G1 X139.636 Y109.609 E7.1590
G1 X138.251 Y109.752 E7.2053
G1 X136.853 Y109.800 E7.2518
G1 X136.306 Y109.781 E7.2700
G1 X136.306 Y90.219 E7.9207
G1 X136.853 Y90.200 E7.9389
G1 X138.251 Y90.248 E7.9854
G1 X139.636 Y90.391 E8.0317
G1 X140.075 Y90.467 E8.0465
G1 X140.075 Y109.473 E8.6787
G0 X139.278 Y109.401 F7200
;segType:Loop
G0 X138.944 Y109.278
G1 X138.223 Y109.353 E8.7028 F3600
G1 X136.853 Y109.399 E8.7484
G1 X136.706 Y109.394 E8.7533
G1 X136.706 Y90.606 E9.3782
G1 X136.853 Y90.601 E9.3831
G1 X138.223 Y90.647 E9.4287
G1 X139.600 Y90.789 E9.4747
G1 X139.675 Y90.943 E9.4804
G1 X139.675 Y109.114 E10.0848
G1 X139.600 Y109.211 E10.0889
G1 X139.143 Y109.258 E10.1042
;segType:HShell
G0 X138.542 Y108.126 F7200
G1 X139.272 Y108.856 E10.1385 F3600
G0 X139.315 Y108.333 F7200
G1 X138.542 Y107.560 E10.1748 F3600
G0 X138.542 Y106.995 F7200
G1 X139.315 Y107.767 E10.2111 F3600
G0 X139.315 Y107.201 F7200
G1 X138.542 Y106.429 E10.2474 F3600
G0 X138.542 Y105.863 F7200
G1 X139.315 Y106.636 E10.2838 F3600
G0 X139.315 Y106.070 F7200
G1 X138.542 Y105.298 E10.3201 F3600
G0 X138.542 Y104.732 F7200
G1 X139.315 Y105.504 E10.3564 F3600
G0 X139.315 Y104.938 F7200
G1 X138.542 Y104.166 E10.3927 F3600
G0 X138.542 Y103.601 F7200
G1 X139.315 Y104.373 E10.4290 F3600
G0 X139.315 Y103.807 F7200
G1 X138.542 Y103.035 E10.4654 F3600
G0 X138.542 Y102.469 F7200
G1 X139.315 Y103.241 E10.5017 F3600
G0 X139.315 Y102.676 F7200
G1 X138.542 Y101.904 E10.5380 F3600
G0 X138.542 Y101.338 F7200
G1 X139.315 Y102.110 E10.5743 F3600
G0 X139.315 Y101.544 F7200
G1 X138.542 Y100.772 E10.6107 F3600
G0 X138.542 Y100.206 F7200
G1 X139.315 Y100.979 E10.6470 F3600
G0 X139.315 Y100.413 F7200
G1 X138.542 Y99.641 E10.6833 F3600
G0 X138.542 Y99.075 F7200
G1 X139.315 Y99.847 E10.7196 F3600
G0 X139.315 Y99.282 F7200
G1 X138.542 Y98.509 E10.7560 F3600
G0 X138.542 Y97.944 F7200
G1 X139.315 Y98.716 E10.7923 F3600
G0 X139.315 Y98.150 F7200
G1 X138.542 Y97.378 E10.8286 F3600
G0 X138.542 Y96.812 F7200
G1 X139.315 Y97.585 E10.8649 F3600
G0 X139.315 Y97.019 F7200
G1 X138.542 Y96.247 E10.9012 F3600
G0 X138.542 Y95.681 F7200
G1 X139.315 Y96.453 E10.9376 F3600
G0 X139.315 Y95.888 F7200
G1 X138.542 Y95.115 E10.9739 F3600
G0 X138.542 Y94.550 F7200
G1 X139.315 Y95.322 E11.0102 F3600
G0 X139.315 Y94.756 F7200
G1 X138.542 Y93.984 E11.0465 F3600
G0 X138.542 Y93.418 F7200
G1 X139.315 Y94.190 E11.0829 F3600
G0 X139.315 Y93.625 F7200
G1 X138.542 Y92.853 E11.1192 F3600
G0 X138.542 Y92.287 F7200
G1 X139.315 Y93.059 E11.1555 F3600
G0 X139.315 Y92.493 F7200
G1 X138.542 Y91.721 E11.1918 F3600
G0 X138.542 Y91.156 F7200
G1 X139.315 Y91.928 E11.2281 F3600
G0 X137.066 Y108.346 F7200
G1 X137.729 Y109.009 E11.2593 F3600
G0 X137.838 Y108.553 F7200
G1 X137.066 Y107.781 E11.2957 F3600
G0 X137.066 Y107.215 F7200
G1 X137.838 Y107.987 E11.3320 F3600
G0 X137.838 Y107.422 F7200
G1 X137.066 Y106.649 E11.3683 F3600
G0 X137.066 Y106.084 F7200
G1 X137.838 Y106.856 E11.4047 F3600
G0 X137.838 Y106.290 F7200
G1 X137.066 Y105.518 E11.4410 F3600
G0 X137.066 Y104.952 F7200
G1 X137.838 Y105.725 E11.4773 F3600
G0 X137.838 Y105.159 F7200
G1 X137.066 Y104.387 E11.5137 F3600
G0 X137.066 Y103.821 F7200
G1 X137.838 Y104.593 E11.5500 F3600
G0 X137.838 Y104.028 F7200
G1 X137.066 Y103.255 E11.5863 F3600
G0 X137.066 Y102.689 F7200
G1 X137.838 Y103.462 E11.6227 F3600
G0 X137.838 Y102.896 F7200
G1 X137.066 Y102.124 E11.6590 F3600
G0 X137.066 Y101.558 F7200
G1 X137.838 Y102.331 E11.6953 F3600
G0 X137.838 Y101.765 F7200
G1 X137.066 Y100.992 E11.7317 F3600
G0 X137.066 Y100.427 F7200
G1 X137.838 Y101.199 E11.7680 F3600
G0 X137.838 Y100.634 F7200
G1 X137.066 Y99.861 E11.8043 F3600
G0 X137.066 Y99.295 F7200
G1 X137.838 Y100.068 E11.8407 F3600
G0 X137.838 Y99.502 F7200
G1 X137.066 Y98.730 E11.8770 F3600
G0 X137.066 Y98.164 F7200
G1 X137.838 Y98.936 E11.9133 F3600
G0 X137.838 Y98.371 F7200
G1 X137.066 Y97.598 E11.9497 F3600
G0 X137.066 Y97.033 F7200
G1 X137.838 Y97.805 E11.9860 F3600
G0 X137.838 Y97.239 F7200
G1 X137.066 Y96.467 E12.0223 F3600
G0 X137.066 Y95.901 F7200
G1 X137.838 Y96.674 E12.0587 F3600
G0 X137.838 Y96.108 F7200
G1 X137.066 Y95.336 E12.0950 F3600
G0 X137.066 Y94.770 F7200
G1 X137.838 Y95.542 E12.1313 F3600
G0 X137.229 Y90.974 F7200
G1 X137.838 Y91.583 E12.1600 F3600
; ------------------------------------
; Layer #5
; ------------------------------------
G92 E0 ;reset extr
G0 F3000 E-1.0000
G0 F1200 Z1.200
G0 X135.601 Y93.226 F7200
G0 X133.364 Y94.869
G0 X124.415 Y101.443
G0 F3000 E0.0000
;segType:Infill
G1 X132.913 Y92.944 E0.4797 F4500
;segType:Perimeter
G0 X133.727 Y90.675 F7200
G1 X134.474 Y90.388 E0.5063 F2160
G1 X134.474 Y109.672 E1.1477
G1 X133.880 Y109.609 E1.1675
G1 X132.546 Y109.373 E1.2126
G1 X131.254 Y109.047 E1.2569
G1 X130.015 Y108.631 E1.3004
G1 X128.839 Y108.134 E1.3428
G1 X127.739 Y107.557 E1.3842
G1 X126.726 Y106.907 E1.4242
G1 X125.809 Y106.192 E1.4629
G1 X124.998 Y105.418 E1.5001
G1 X124.298 Y104.593 E1.5361
G1 X123.717 Y103.726 E1.5709
G1 X123.261 Y102.824 E1.6045
G1 X122.933 Y101.897 E1.6372
G1 X122.735 Y100.952 E1.6693
G1 X122.669 Y100.000 E1.7010
G1 X122.735 Y99.048 E1.7328
G1 X122.933 Y98.103 E1.7649
G1 X123.261 Y97.176 E1.7976
G1 X123.717 Y96.274 E1.8312
G1 X124.298 Y95.407 E1.8659
G1 X124.998 Y94.582 E1.9019
G1 X125.809 Y93.808 E1.9392
G1 X126.726 Y93.093 E1.9779
G1 X127.739 Y92.443 E2.0179
G1 X128.839 Y91.866 E2.0592
G1 X130.015 Y91.369 E2.1017
G1 X131.254 Y90.953 E2.1451
G1 X132.546 Y90.627 E2.1895
G1 X133.880 Y90.391 E2.2345
G1 X134.414 Y90.335 E2.2524
G0 X134.207 Y91.107 F7200
;segType:Loop
G0 X134.074 Y91.428
G1 X134.074 Y109.227 E2.8444 F3600
G1 X134.115 Y109.232 E2.8457
G1 X133.936 Y109.213 E2.8517
G1 X132.630 Y108.982 E2.8958
G1 X131.367 Y108.662 E2.9392
G1 X130.157 Y108.257 E2.9816
G1 X129.011 Y107.772 E3.0230
G1 X127.940 Y107.210 E3.0632
G1 X126.957 Y106.581 E3.1020
G1 X126.071 Y105.889 E3.1394
G1 X125.289 Y105.143 E3.1754
G1 X124.618 Y104.352 E3.2099
G1 X124.063 Y103.523 E3.2430
G1 X123.630 Y102.667 E3.2750
G1 X123.319 Y101.789 E3.3059
G1 X123.132 Y100.897 E3.3362
G1 X123.070 Y100.000 E3.3662
G1 X123.132 Y99.103 E3.3961
G1 X123.319 Y98.211 E3.4264
G1 X123.630 Y97.334 E3.4573
G1 X124.063 Y96.477 E3.4893
G1 X124.618 Y95.648 E3.5224
G1 X125.289 Y94.857 E3.5570
G1 X126.071 Y94.111 E3.5929
G1 X126.957 Y93.419 E3.6303
G1 X127.940 Y92.790 E3.6691
G1 X129.011 Y92.228 E3.7093
G1 X130.157 Y91.743 E3.7507
G1 X131.367 Y91.338 E3.7932
G1 X132.630 Y91.018 E3.8365
G1 X133.936 Y90.787 E3.8806
G1 X134.074 Y90.773 E3.8852
G1 X134.074 Y91.228 E3.9004
;segType:Infill
G0 X132.913 Y97.469 F7200
G1 X125.955 Y104.428 E4.2931 F4500
G0 X131.406 Y108.028 F7200
G1 X132.913 Y106.520 E4.3782 F4500
G0 X128.366 Y106.543 F7200
G1 X132.913 Y101.995 E4.6349 F4500
;segType:HShell
G0 X133.495 Y91.231 F7200
G1 X132.913 Y91.812 E4.6623 F3600
G0 X132.913 Y92.378 F7200
G1 X133.713 Y91.578 E4.6999 F3600
G0 X133.713 Y92.144 F7200
G1 X132.913 Y92.944 E4.7375 F3600
G0 X132.913 Y93.509 F7200
G1 X133.713 Y92.709 E4.7752 F3600
G0 X133.713 Y93.275 F7200
G1 X132.913 Y94.075 E4.8128 F3600
G0 X132.913 Y94.641 F7200
G1 X133.713 Y93.841 E4.8504 F3600
G0 X133.713 Y94.407 F7200
G1 X132.913 Y95.207 E4.8881 F3600
G0 X132.913 Y95.772 F7200
G1 X133.713 Y94.972 E4.9257 F3600
G0 X133.713 Y95.538 F7200
G1 X132.913 Y96.338 E4.9633 F3600
G0 X132.913 Y96.904 F7200
G1 X133.713 Y96.104 E5.0010 F3600
G0 X133.713 Y96.669 F7200
G1 X132.913 Y97.469 E5.0386 F3600
G0 X132.913 Y98.035 F7200
G1 X133.713 Y97.235 E5.0762 F3600
G0 X133.713 Y97.801 F7200
G1 X132.913 Y98.601 E5.1139 F3600
G0 X132.913 Y99.166 F7200
G1 X133.713 Y98.366 E5.1515 F3600
G0 X133.713 Y98.932 F7200
G1 X132.913 Y99.732 E5.1891 F3600
G0 X132.913 Y100.298 F7200
G1 X133.713 Y99.498 E5.2267 F3600
G0 X133.713 Y100.063 F7200
G1 X132.913 Y100.863 E5.2644 F3600
G0 X132.913 Y101.429 F7200
G1 X133.713 Y100.629 E5.3020 F3600
G0 X133.713 Y101.195 F7200
G1 X132.913 Y101.995 E5.3396 F3600
G0 X132.913 Y102.560 F7200
G1 X133.713 Y101.760 E5.3773 F3600
G0 X133.713 Y102.326 F7200
G1 X132.913 Y103.126 E5.4149 F3600
G0 X132.913 Y103.692 F7200
G1 X133.713 Y102.892 E5.4525 F3600
G0 X133.713 Y103.457 F7200
G1 X132.913 Y104.258 E5.4902 F3600
G0 X132.913 Y104.823 F7200
G1 X133.713 Y104.023 E5.5278 F3600
G0 X133.713 Y104.589 F7200
G1 X132.913 Y105.389 E5.5654 F3600
G0 X132.913 Y105.955 F7200
G1 X133.713 Y105.155 E5.6031 F3600
G0 X133.713 Y105.720 F7200
G1 X132.913 Y106.520 E5.6407 F3600
G0 X132.913 Y107.086 F7200
G1 X133.713 Y106.286 E5.6783 F3600
G0 X133.713 Y106.852 F7200
G1 X132.913 Y107.652 E5.7160 F3600
G0 X132.913 Y108.217 F7200
G1 X133.713 Y107.417 E5.7536 F3600
G0 X133.713 Y107.983 F7200
G1 X133.013 Y108.684 E5.7865 F3600
G0 X128.742 Y107.014 F7200
G1 X128.209 Y106.699 E5.8003 F3600
G1 X127.865 Y106.478 E5.8150
G1 X127.531 Y106.246 E5.8297
G1 X127.206 Y106.006 E5.8454
G1 X126.890 Y105.756 E5.8619
G1 X126.586 Y105.494 E5.8786
G1 X126.293 Y105.221 E5.8966
G1 X126.011 Y104.937 E5.9150
G1 X125.738 Y104.644 E5.9341
G1 X125.479 Y104.338 E5.9544
G1 X125.236 Y104.015 E5.9749
G1 X125.003 Y103.682 E5.9968
G1 X124.789 Y103.331 E6.0194
G1 X124.586 Y102.968 E6.0431
G1 X124.407 Y102.582 E6.0681
G0 X124.536 Y101.887 F7200
G1 X123.945 Y102.478 E6.0959 F3600
G0 X123.797 Y102.060 F7200
G1 X124.415 Y101.443 E6.1249 F3600
G0 X124.317 Y100.975 F7200
G1 X123.655 Y101.636 E6.1560 F3600
G0 X123.557 Y101.169 F7200
G1 X124.263 Y100.463 E6.1892 F3600
G0 X124.236 Y99.924 F7200
G1 X123.478 Y100.682 E6.2249 F3600
G0 X123.441 Y100.153 F7200
G1 X124.278 Y99.316 E6.2643 F3600
G0 X124.400 Y98.629 F7200
G1 X123.461 Y99.568 E6.3084 F3600
G0 X123.537 Y98.926 F7200
G1 X124.638 Y97.825 E6.3602 F3600
G0 X125.109 Y96.788 F7200
G1 X123.710 Y98.188 E6.4260 F3600
G0 X124.069 Y97.263 F7200
G1 X128.351 Y92.981 E6.6274 F3600
G0 X126.651 Y94.115 F7200
G1 X124.937 Y95.829 E6.7080 F3600
G0 X128.573 Y93.325 F7200
G1 X129.475 Y92.423 E6.7504 F3600
G0 X130.433 Y92.030 F7200
G1 X129.848 Y92.616 E6.7780 F3600
G0 X130.652 Y92.094 F7200
G1 X131.896 Y91.699 E6.8069 F3600
G0 F3000 E5.8069
G0 X138.736 Y94.476 F7200
G0 F3000 E6.8069
G1 X139.508 Y93.703 E6.8432 F3600
G0 X139.508 Y93.138 F7200
G1 X138.736 Y93.910 E6.8796 F3600
G0 X138.736 Y93.344 F7200
G1 X139.508 Y92.572 E6.9159 F3600
G0 X139.508 Y92.006 F7200
G1 X138.736 Y92.778 E6.9522 F3600
G0 X138.736 Y92.213 F7200
G1 X139.508 Y91.441 E6.9885 F3600
G0 X139.247 Y91.136 F7200
G1 X138.736 Y91.647 E7.0126 F3600
;segType:Infill
G1 X138.031 Y92.351 E7.0523 F4500
G0 X138.736 Y96.173 F7200
G1 X138.031 Y96.877 E7.0921 F4500
G0 X138.736 Y100.698 F7200
G1 X138.031 Y101.402 E7.1318 F4500
G0 X138.736 Y105.224 F7200
G1 X138.031 Y105.928 E7.1716 F4500
;segType:Perimeter
G0 X140.002 Y108.701 F7200
G1 X140.209 Y109.473 E7.1982 F2160
G1 X139.428 Y109.609 E7.2246
G1 X138.043 Y109.752 E7.2709
G1 X136.646 Y109.800 E7.3174
G1 X136.498 Y109.795 E7.3223
G1 X136.498 Y90.205 E7.9738
G1 X136.646 Y90.200 E7.9787
G1 X138.044 Y90.248 E8.0252
G1 X139.428 Y90.391 E8.0715
G1 X140.268 Y90.537 E8.0999
G1 X140.268 Y109.403 E8.7274
G0 X139.471 Y109.332 F7200
;segType:Loop
G0 X139.141 Y109.237
G1 X138.016 Y109.353 E8.7650 F3600
G1 X136.972 Y109.388 E8.7997
G1 X136.898 Y109.343 E8.8026
G1 X136.898 Y90.714 E9.4222
G1 X136.972 Y90.612 E9.4264
G1 X138.016 Y90.647 E9.4611
G1 X139.374 Y90.787 E9.5065
G1 X139.868 Y90.873 E9.5232
G1 X139.868 Y109.127 E10.1303
G1 X139.374 Y109.213 E10.1470
G1 X139.340 Y109.216 E10.1481
;segType:HShell
G0 X139.508 Y108.411 F7200
G1 X139.033 Y108.886 E10.1705 F3600
G0 X138.736 Y108.618 F7200
G1 X139.508 Y107.845 E10.2068 F3600
G0 X139.508 Y107.280 F7200
G1 X138.736 Y108.052 E10.2431 F3600
G0 X138.736 Y107.486 F7200
G1 X139.508 Y106.714 E10.2794 F3600
G0 X139.508 Y106.148 F7200
G1 X138.736 Y106.921 E10.3158 F3600
G0 X138.736 Y106.355 F7200
G1 X139.508 Y105.583 E10.3521 F3600
G0 X139.508 Y105.017 F7200
G1 X138.736 Y105.789 E10.3884 F3600
G0 X138.736 Y105.224 F7200
G1 X139.508 Y104.451 E10.4247 F3600
G0 X139.508 Y103.886 F7200
G1 X138.736 Y104.658 E10.4610 F3600
G0 X138.736 Y104.092 F7200
G1 X139.508 Y103.320 E10.4974 F3600
G0 X139.508 Y102.754 F7200
G1 X138.736 Y103.526 E10.5337 F3600
G0 X138.736 Y102.961 F7200
G1 X139.508 Y102.189 E10.5700 F3600
G0 X139.508 Y101.623 F7200
G1 X138.736 Y102.395 E10.6063 F3600
G0 X138.736 Y101.829 F7200
G1 X139.508 Y101.057 E10.6427 F3600
G0 X139.508 Y100.492 F7200
G1 X138.736 Y101.264 E10.6790 F3600
G0 X138.736 Y100.698 F7200
G1 X139.508 Y99.926 E10.7153 F3600
G0 X139.508 Y99.360 F7200
G1 X138.736 Y100.132 E10.7516 F3600
G0 X138.736 Y99.567 F7200
G1 X139.508 Y98.794 E10.7880 F3600
G0 X139.508 Y98.229 F7200
G1 X138.736 Y99.001 E10.8243 F3600
G0 X138.736 Y98.435 F7200
G1 X139.508 Y97.663 E10.8606 F3600
G0 X139.508 Y97.097 F7200
G1 X138.736 Y97.870 E10.8969 F3600
G0 X138.736 Y97.304 F7200
G1 X139.508 Y96.532 E10.9332 F3600
G0 X139.508 Y95.966 F7200
G1 X138.736 Y96.738 E10.9696 F3600
G0 X138.736 Y96.173 F7200
G1 X139.508 Y95.400 E11.0059 F3600
G0 X139.508 Y94.835 F7200
G1 X138.736 Y95.607 E11.0422 F3600
G0 X138.736 Y95.041 F7200
G1 X139.508 Y94.269 E11.0785 F3600
G0 X137.689 Y90.997 F7200
G1 X137.259 Y91.427 E11.0988 F3600
G0 X137.259 Y91.993 F7200
G1 X138.031 Y91.220 E11.1351 F3600
G0 X138.031 Y91.786 F7200
G1 X137.259 Y92.558 E11.1715 F3600
G0 X137.259 Y93.124 F7200
G1 X138.031 Y92.351 E11.2078 F3600
G0 X138.031 Y92.917 F7200
G1 X137.259 Y93.690 E11.2442 F3600
G0 X137.259 Y94.255 F7200
G1 X138.031 Y93.483 E11.2805 F3600
G0 X138.031 Y94.048 F7200
G1 X137.259 Y94.821 E11.3169 F3600
G0 X137.259 Y95.387 F7200
G1 X138.031 Y94.614 E11.3532 F3600
G0 X138.031 Y95.180 F7200
G1 X137.259 Y95.953 E11.3896 F3600
G0 X137.259 Y96.518 F7200
G1 X138.031 Y95.746 E11.4259 F3600
G0 X138.031 Y96.311 F7200
G1 X137.259 Y97.084 E11.4622 F3600
G0 X137.259 Y97.650 F7200
G1 X138.031 Y96.877 E11.4986 F3600
G0 X138.031 Y97.443 F7200
G1 X137.259 Y98.215 E11.5349 F3600
G0 X137.259 Y98.781 F7200
G1 X138.031 Y98.008 E11.5713 F3600
G0 X138.031 Y98.574 F7200
G1 X137.259 Y99.347 E11.6076 F3600
G0 X137.259 Y99.912 F7200
G1 X138.031 Y99.140 E11.6440 F3600
G0 X138.031 Y99.705 F7200
G1 X137.259 Y100.478 E11.6803 F3600
G0 X137.259 Y101.044 F7200
G1 X138.031 Y100.271 E11.7167 F3600
G0 X138.031 Y100.837 F7200
G1 X137.259 Y101.609 E11.7530 F3600
G0 X137.259 Y102.175 F7200
G1 X138.031 Y101.402 E11.7894 F3600
G0 X138.031 Y101.968 F7200
G1 X137.259 Y102.741 E11.8257 F3600
G0 X137.259 Y103.306 F7200
G1 X138.031 Y102.534 E11.8621 F3600
G0 X138.031 Y103.099 F7200
G1 X137.259 Y103.872 E11.8984 F3600
G0 X137.259 Y104.438 F7200
G1 X138.031 Y103.665 E11.9347 F3600
G0 X138.031 Y104.231 F7200
G1 X137.259 Y105.004 E11.9711 F3600
G0 X137.259 Y105.569 F7200
G1 X138.031 Y104.796 E12.0074 F3600
G0 X138.031 Y105.362 F7200
G1 X137.259 Y106.135 E12.0438 F3600
G0 X137.259 Y106.701 F7200
G1 X138.031 Y105.928 E12.0801 F3600
G0 X138.031 Y106.494 F7200
G1 X137.259 Y107.266 E12.1165 F3600
G0 X137.259 Y107.832 F7200
G1 X138.031 Y107.059 E12.1528 F3600
G0 X138.031 Y107.625 F7200
G1 X137.259 Y108.398 E12.1892 F3600
G0 X137.259 Y108.963 F7200
G1 X138.031 Y108.191 E12.2255 F3600
; ------------------------------------
; Layer #6
; ------------------------------------
G92 E0 ;reset extr
;segType:HShell
G0 F3000 E-1.0000
G0 F1200 Z1.400
G0 X138.225 Y94.232 F7200
G0 F3000 E0.0000
G1 X137.452 Y93.459 E0.0364 F3600
G0 X137.452 Y92.893 F7200
G1 X138.225 Y93.666 E0.0727 F3600
G0 X138.225 Y93.100 F7200
G1 X137.452 Y92.327 E0.1091 F3600
G0 X137.452 Y91.762 F7200
G1 X138.225 Y92.535 E0.1454 F3600
G0 X138.225 Y91.969 F7200
G1 X137.452 Y91.196 E0.1818 F3600
G0 X137.833 Y91.012 F7200
G1 X138.225 Y91.403 E0.2002 F3600
;segType:Infill
G0 X138.225 Y91.969 F7200
G1 X138.929 Y92.673 E0.2400 F4500
G0 X138.225 Y96.494 F7200
G1 X138.929 Y97.199 E0.2797 F4500
G0 X138.225 Y101.020 F7200
G1 X138.929 Y101.724 E0.3195 F4500
G0 X138.225 Y105.545 F7200
G1 X138.929 Y106.250 E0.3592 F4500
;segType:Perimeter
G0 X140.195 Y108.628 F7200
G1 X140.402 Y109.401 E0.3858 F2160
G1 X139.221 Y109.609 E0.4257
G1 X137.836 Y109.752 E0.4720
G1 X136.691 Y109.791 E0.5101
G1 X136.691 Y90.209 E1.1614
G1 X137.837 Y90.248 E1.1995
G1 X139.221 Y90.391 E1.2458
G1 X140.461 Y90.610 E1.2877
G1 X140.461 Y109.331 E1.9104
G0 X139.664 Y109.261 F7200
;segType:Loop
G0 X139.308 Y109.188
G1 X139.166 Y109.213 E1.9152 F3600
G1 X137.809 Y109.353 E1.9605
G1 X137.091 Y109.377 E1.9844
G1 X137.091 Y90.623 E2.6082
G1 X137.809 Y90.647 E2.6321
G1 X139.166 Y90.787 E2.6774
G1 X140.061 Y90.945 E2.7077
G1 X140.061 Y109.055 E3.3100
G1 X139.505 Y109.153 E3.3288
;segType:HShell
G0 X138.232 Y108.947 F7200
G1 X137.452 Y108.167 E3.3655 F3600
G0 X137.452 Y107.601 F7200
G1 X138.225 Y108.374 E3.4018 F3600
G0 X139.249 Y108.833 F7200
G1 X138.929 Y108.512 E3.4169 F3600
G0 X138.929 Y107.947 F7200
G1 X139.701 Y108.719 E3.4532 F3600
G0 X139.701 Y108.153 F7200
G1 X138.929 Y107.381 E3.4895 F3600
G0 X138.929 Y106.815 F7200
G1 X139.701 Y107.587 E3.5258 F3600
G0 X139.701 Y107.022 F7200
G1 X138.929 Y106.250 E3.5621 F3600
G0 X138.929 Y105.684 F7200
G1 X139.701 Y106.456 E3.5985 F3600
G0 X139.701 Y105.890 F7200
G1 X138.929 Y105.118 E3.6348 F3600
G0 X138.929 Y104.553 F7200
G1 X139.701 Y105.325 E3.6711 F3600
G0 X139.701 Y104.759 F7200
G1 X138.929 Y103.987 E3.7074 F3600
G0 X138.929 Y103.421 F7200
G1 X139.701 Y104.193 E3.7437 F3600
G0 X139.701 Y103.628 F7200
G1 X138.929 Y102.856 E3.7800 F3600
G0 X138.929 Y102.290 F7200
G1 X139.701 Y103.062 E3.8163 F3600
G0 X139.701 Y102.496 F7200
G1 X138.929 Y101.724 E3.8526 F3600
G0 X138.929 Y101.159 F7200
G1 X139.701 Y101.930 E3.8889 F3600
G0 X139.701 Y101.365 F7200
G1 X138.929 Y100.593 E3.9252 F3600
G0 X138.929 Y100.027 F7200
G1 X139.701 Y100.799 E3.9616 F3600
G0 X139.701 Y100.233 F7200
G1 X138.929 Y99.461 E3.9979 F3600
G0 X138.929 Y98.896 F7200
G1 X139.701 Y99.668 E4.0342 F3600
G0 X139.701 Y99.102 F7200
G1 X138.929 Y98.330 E4.0705 F3600
G0 X138.929 Y97.764 F7200
G1 X139.701 Y98.536 E4.1068 F3600
G0 X139.701 Y97.971 F7200
G1 X138.929 Y97.199 E4.1431 F3600
G0 X138.929 Y96.633 F7200
G1 X139.701 Y97.405 E4.1794 F3600
G0 X139.701 Y96.839 F7200
G1 X138.929 Y96.067 E4.2157 F3600
G0 X138.929 Y95.502 F7200
G1 X139.701 Y96.274 E4.2520 F3600
G0 X139.701 Y95.708 F7200
G1 X138.929 Y94.936 E4.2884 F3600
G0 X138.929 Y94.370 F7200
G1 X139.701 Y95.142 E4.3247 F3600
G0 X139.701 Y94.577 F7200
G1 X138.929 Y93.805 E4.3610 F3600
G0 X138.929 Y93.239 F7200
G1 X139.701 Y94.011 E4.3973 F3600
G0 X139.701 Y93.445 F7200
G1 X138.929 Y92.673 E4.4336 F3600
G0 X138.929 Y92.108 F7200
G1 X139.701 Y92.880 E4.4699 F3600
G0 X139.701 Y92.314 F7200
G1 X138.929 Y91.542 E4.5062 F3600
G0 X139.094 Y91.142 F7200
G1 X139.701 Y91.748 E4.5347 F3600
G0 X138.225 Y94.797 F7200
G1 X137.452 Y94.024 E4.5711 F3600
G0 X137.452 Y94.590 F7200
G1 X138.225 Y95.363 E4.6075 F3600
G0 X138.225 Y95.929 F7200
G1 X137.452 Y95.156 E4.6438 F3600
G0 X137.452 Y95.721 F7200
G1 X138.225 Y96.494 E4.6802 F3600
G0 X138.225 Y97.060 F7200
G1 X137.452 Y96.287 E4.7165 F3600
G0 X137.452 Y96.853 F7200
G1 X138.225 Y97.626 E4.7529 F3600
G0 X138.225 Y98.191 F7200
G1 X137.452 Y97.418 E4.7892 F3600
G0 X137.452 Y97.984 F7200
G1 X138.225 Y98.757 E4.8256 F3600
G0 X138.225 Y99.323 F7200
G1 X137.452 Y98.550 E4.8620 F3600
G0 X137.452 Y99.116 F7200
G1 X138.225 Y99.889 E4.8983 F3600
G0 X138.225 Y100.454 F7200
G1 X137.452 Y99.681 E4.9347 F3600
G0 X137.452 Y100.247 F7200
G1 X138.225 Y101.020 E4.9710 F3600
G0 X138.225 Y101.586 F7200
G1 X137.452 Y100.813 E5.0074 F3600
G0 X137.452 Y101.378 F7200
G1 X138.225 Y102.151 E5.0438 F3600
G0 X138.225 Y102.717 F7200
G1 X137.452 Y101.944 E5.0801 F3600
G0 X137.452 Y102.510 F7200
G1 X138.225 Y103.283 E5.1165 F3600
G0 X138.225 Y103.848 F7200
G1 X137.452 Y103.075 E5.1528 F3600
G0 X137.452 Y103.641 F7200
G1 X138.225 Y104.414 E5.1892 F3600
G0 X138.225 Y104.980 F7200
G1 X137.452 Y104.207 E5.2255 F3600
G0 X137.452 Y104.772 F7200
G1 X138.225 Y105.545 E5.2619 F3600
G0 X138.225 Y106.111 F7200
G1 X137.452 Y105.338 E5.2983 F3600
G0 X137.452 Y105.904 F7200
G1 X138.225 Y106.677 E5.3346 F3600
G0 X138.225 Y107.242 F7200
G1 X137.452 Y106.469 E5.3710 F3600
G0 X137.452 Y107.035 F7200
G1 X138.225 Y107.808 E5.4073 F3600
G0 F3000 E4.4073
G0 X133.113 Y95.909 F7200
G0 F3000 E5.4073
G1 X133.913 Y96.709 E5.4450 F3600
G0 X133.913 Y96.143 F7200
G1 X133.113 Y95.343 E5.4826 F3600
G0 X133.113 Y94.777 F7200
G1 X133.913 Y95.577 E5.5202 F3600
G0 X133.913 Y95.012 F7200
G1 X133.113 Y94.212 E5.5579 F3600
G0 X133.113 Y93.646 F7200
G1 X133.913 Y94.446 E5.5955 F3600
G0 X133.913 Y93.880 F7200
G1 X133.113 Y93.080 E5.6331 F3600
G0 X133.113 Y92.515 F7200
G1 X133.913 Y93.315 E5.6708 F3600
G0 X133.913 Y92.749 F7200
G1 X133.113 Y91.949 E5.7084 F3600
G0 X133.142 Y91.412 F7200
G1 X133.913 Y92.183 E5.7447 F3600
G0 X133.492 Y91.196 F7200
G1 X133.913 Y91.618 E5.7645 F3600
;segType:Perimeter
G0 X133.927 Y90.633 F7200
G1 X134.674 Y90.346 E5.7911 F2160
G1 X134.674 Y109.714 E6.4353
G1 X133.680 Y109.609 E6.4685
G1 X132.346 Y109.373 E6.5136
G1 X131.054 Y109.047 E6.5579
G1 X129.815 Y108.631 E6.6013
G1 X128.639 Y108.134 E6.6438
G1 X127.539 Y107.557 E6.6851
G1 X126.526 Y106.907 E6.7252
G1 X125.609 Y106.192 E6.7638
G1 X124.798 Y105.418 E6.8011
G1 X124.098 Y104.593 E6.8371
G1 X123.517 Y103.726 E6.8718
G1 X123.061 Y102.824 E6.9054
G1 X122.733 Y101.897 E6.9382
G1 X122.535 Y100.952 E6.9702
G1 X122.469 Y100.000 E7.0020
G1 X122.535 Y99.048 E7.0338
G1 X122.733 Y98.103 E7.0659
G1 X123.061 Y97.176 E7.0986
G1 X123.517 Y96.274 E7.1322
G1 X124.098 Y95.407 E7.1669
G1 X124.798 Y94.582 E7.2029
G1 X125.609 Y93.808 E7.2402
G1 X126.526 Y93.093 E7.2788
G1 X127.539 Y92.443 E7.3189
G1 X128.639 Y91.866 E7.3602
G1 X129.815 Y91.369 E7.4027
G1 X131.054 Y90.953 E7.4461
G1 X132.346 Y90.627 E7.4904
G1 X133.680 Y90.391 E7.5355
G1 X134.614 Y90.292 E7.5667
G0 X134.407 Y91.065 F7200
;segType:Loop
G0 X134.274 Y91.386
G1 X134.274 Y109.270 E8.1615 F3600
G1 X133.736 Y109.213 E8.1795
G1 X132.430 Y108.982 E8.2236
G1 X131.167 Y108.662 E8.2669
G1 X129.957 Y108.257 E8.3094
G1 X128.811 Y107.772 E8.3508
G1 X127.740 Y107.210 E8.3910
G1 X126.757 Y106.581 E8.4298
G1 X125.871 Y105.889 E8.4672
G1 X125.089 Y105.143 E8.5031
G1 X124.418 Y104.352 E8.5377
G1 X123.863 Y103.523 E8.5708
G1 X123.430 Y102.667 E8.6028
G1 X123.119 Y101.789 E8.6337
G1 X122.932 Y100.897 E8.6640
G1 X122.870 Y100.000 E8.6939
G1 X122.932 Y99.103 E8.7239
G1 X123.119 Y98.211 E8.7542
G1 X123.430 Y97.334 E8.7851
G1 X123.863 Y96.477 E8.8171
G1 X124.418 Y95.648 E8.8502
G1 X125.089 Y94.857 E8.8847
G1 X125.871 Y94.111 E8.9207
G1 X126.757 Y93.419 E8.9581
G1 X127.740 Y92.790 E8.9969
G1 X128.811 Y92.228 E9.0371
G1 X129.957 Y91.743 E9.0785
G1 X131.167 Y91.338 E9.1210
G1 X132.430 Y91.018 E9.1643
G1 X133.736 Y90.787 E9.2084
G1 X134.274 Y90.730 E9.2264
G1 X134.274 Y91.186 E9.2415
;segType:Infill
G0 X129.761 Y92.556 F7200
G1 X133.113 Y95.909 E9.4308 F4500
G0 X131.883 Y108.254 F7200
G1 X124.061 Y100.433 E9.8722 F4500
G0 X124.920 Y96.766 F7200
G1 X133.113 Y104.960 E10.3347 F4500
G0 X133.113 Y100.434 F7200
G1 X126.994 Y94.315 E10.6801 F4500
;segType:HShell
G0 X133.913 Y97.275 F7200
G1 X133.113 Y96.475 E10.7177 F3600
G0 X133.113 Y97.040 F7200
G1 X133.913 Y97.840 E10.7554 F3600
G0 X133.913 Y98.406 F7200
G1 X133.113 Y97.606 E10.7930 F3600
G0 X133.113 Y98.172 F7200
G1 X133.913 Y98.972 E10.8306 F3600
G0 X133.913 Y99.537 F7200
G1 X133.113 Y98.737 E10.8683 F3600
G0 X133.113 Y99.303 F7200
G1 X133.913 Y100.103 E10.9059 F3600
G0 X133.913 Y100.669 F7200
G1 X133.113 Y99.869 E10.9435 F3600
G0 X133.113 Y100.434 F7200
G1 X133.913 Y101.234 E10.9811 F3600
G0 X133.913 Y101.800 F7200
G1 X133.113 Y101.000 E11.0188 F3600
G0 X133.113 Y101.566 F7200
G1 X133.913 Y102.366 E11.0564 F3600
G0 X133.913 Y102.931 F7200
G1 X133.113 Y102.131 E11.0940 F3600
G0 X133.113 Y102.697 F7200
G1 X133.913 Y103.497 E11.1317 F3600
G0 X133.913 Y104.063 F7200
G1 X133.113 Y103.263 E11.1693 F3600
G0 X133.113 Y103.828 F7200
G1 X133.913 Y104.628 E11.2069 F3600
G0 X133.913 Y105.194 F7200
G1 X133.113 Y104.394 E11.2446 F3600
G0 X133.113 Y104.960 F7200
G1 X133.913 Y105.760 E11.2822 F3600
G0 X133.913 Y106.326 F7200
G1 X133.113 Y105.525 E11.3198 F3600
G0 X133.113 Y106.091 F7200
G1 X133.913 Y106.891 E11.3575 F3600
G0 X133.913 Y107.457 F7200
G1 X133.113 Y106.657 E11.3951 F3600
G0 X133.113 Y107.223 F7200
G1 X133.913 Y108.023 E11.4327 F3600
G0 X133.913 Y108.588 F7200
G1 X133.113 Y107.788 E11.4704 F3600
G0 X133.113 Y108.354 F7200
G1 X133.579 Y108.820 E11.4923 F3600
G0 X132.430 Y108.519 F7200
G1 X131.224 Y108.162 E11.5201 F3600
G1 X130.329 Y107.832 E11.5519
G0 X128.950 Y107.018 F7200
G1 X129.680 Y107.749 E11.5862 F3600
G0 X128.642 Y107.277 F7200
G1 X127.248 Y105.882 E11.6518 F3600
G0 X127.301 Y106.501 F7200
G1 X124.243 Y103.443 E11.7957 F3600
G0 X123.691 Y102.326 F7200
G1 X125.541 Y104.175 E11.8827 F3600
G0 X124.670 Y102.739 F7200
G1 X123.426 Y101.495 E11.9412 F3600
G0 X123.286 Y100.789 F7200
G1 X124.310 Y101.813 E11.9894 F3600
G0 X124.138 Y101.075 F7200
G1 X123.243 Y100.181 E12.0314 F3600
G0 X123.257 Y99.628 F7200
G1 X124.061 Y100.433 E12.0693 F3600
G0 X124.041 Y99.848 F7200
G1 X123.300 Y99.106 E12.1042 F3600
G0 X123.398 Y98.638 F7200
G1 X124.078 Y99.319 E12.1362 F3600
G0 X124.157 Y98.832 F7200
G1 X123.511 Y98.185 E12.1666 F3600
G0 X123.658 Y97.767 F7200
G1 X124.255 Y98.364 E12.1946 F3600
G0 X124.397 Y97.941 F7200
G1 X123.819 Y97.362 E12.2219 F3600
G0 X124.182 Y97.442 F7200
G1 X124.467 Y96.879 E12.2471 F3600
G1 X124.675 Y96.522 E12.2718
G1 X124.897 Y96.178 E12.2949
G1 X125.137 Y95.852 E12.3174
G1 X125.386 Y95.535 E12.3387
G1 X125.650 Y95.234 E12.3591
G1 X125.925 Y94.942 E12.3790
G1 X126.212 Y94.665 E12.3976
G1 X126.512 Y94.398 E12.4159
G1 X126.819 Y94.140 E12.4334
G1 X127.137 Y93.892 E12.4499
G1 X127.468 Y93.658 E12.4664
G1 X127.807 Y93.431 E12.4816
G1 X128.155 Y93.213 E12.4963
; ------------------------------------
; Layer #7
; ------------------------------------
G92 E0 ;reset extr
;segType:Infill
G0 F3000 E-1.0000
G0 F1200 Z1.600
G0 X124.093 Y101.764 F7200
G0 F3000 E0.0000
G1 X133.311 Y92.547 E0.5203 F4500
;segType:Perimeter
G0 X134.089 Y90.472 F7200
G1 X134.874 Y90.317 E0.5469 F2160
G1 X134.874 Y109.685 E1.1911
G1 X134.800 Y109.748 E1.1943
G1 X133.480 Y109.609 E1.2385
G1 X132.146 Y109.373 E1.2835
G1 X130.854 Y109.047 E1.3278
G1 X129.615 Y108.631 E1.3713
G1 X128.439 Y108.134 E1.4138
G1 X127.339 Y107.557 E1.4551
G1 X126.326 Y106.907 E1.4951
G1 X125.409 Y106.192 E1.5338
G1 X124.598 Y105.418 E1.5711
G1 X123.898 Y104.593 E1.6071
G1 X123.317 Y103.726 E1.6418
G1 X122.861 Y102.824 E1.6754
G1 X122.533 Y101.897 E1.7081
G1 X122.335 Y100.952 E1.7402
G1 X122.269 Y100.000 E1.7720
G1 X122.335 Y99.048 E1.8037
G1 X122.533 Y98.103 E1.8358
G1 X122.861 Y97.176 E1.8685
G1 X123.317 Y96.274 E1.9021
G1 X123.898 Y95.407 E1.9368
G1 X124.598 Y94.582 E1.9728
G1 X125.409 Y93.808 E2.0101
G1 X126.326 Y93.093 E2.0488
G1 X127.339 Y92.443 E2.0888
G1 X128.439 Y91.866 E2.1301
G1 X129.615 Y91.369 E2.1726
G1 X130.854 Y90.953 E2.2161
G1 X132.146 Y90.627 E2.2604
G1 X133.480 Y90.391 E2.3054
G1 X134.800 Y90.252 E2.3496
G1 X134.814 Y90.253 E2.3500
G0 X134.607 Y91.026 F7200
;segType:Loop
G0 X134.474 Y91.357
G1 X134.474 Y109.228 E2.9445 F3600
G1 X134.458 Y109.310 E2.9472
G1 X133.536 Y109.213 E2.9780
G1 X132.230 Y108.982 E3.0221
G1 X130.967 Y108.662 E3.0655
G1 X129.757 Y108.257 E3.1079
G1 X128.611 Y107.772 E3.1493
G1 X127.540 Y107.210 E3.1895
G1 X126.557 Y106.581 E3.2284
G1 X125.671 Y105.889 E3.2657
G1 X124.889 Y105.143 E3.3017
G1 X124.218 Y104.352 E3.3362
G1 X123.663 Y103.523 E3.3694
G1 X123.230 Y102.667 E3.4013
G1 X122.919 Y101.789 E3.4323
G1 X122.732 Y100.897 E3.4626
G1 X122.670 Y100.000 E3.4925
G1 X122.732 Y99.103 E3.5224
G1 X122.919 Y98.211 E3.5527
G1 X123.230 Y97.334 E3.5837
G1 X123.663 Y96.477 E3.6156
G1 X124.218 Y95.648 E3.6487
G1 X124.889 Y94.857 E3.6833
G1 X125.671 Y94.111 E3.7192
G1 X126.557 Y93.419 E3.7566
G1 X127.540 Y92.790 E3.7954
G1 X128.611 Y92.228 E3.8356
G1 X129.757 Y91.743 E3.8770
G1 X130.967 Y91.338 E3.9195
G1 X132.230 Y91.018 E3.9628
G1 X133.536 Y90.787 E4.0069
G1 X134.458 Y90.690 E4.0377
G1 X134.474 Y90.714 E4.0387
G1 X134.474 Y91.157 E4.0534
;segType:Infill
G0 X133.305 Y97.077 F7200
G1 X125.738 Y104.644 E4.4805 F4500
G0 X133.295 Y106.139 F7200
G1 X131.306 Y108.128 E4.5928 F4500
G0 X128.209 Y106.699 F7200
G1 X133.300 Y101.608 E4.8802 F4500
G0 X127.712 Y93.620 F7200
G1 X124.981 Y96.351 E5.0343 F4500
;segType:HShell
G0 X134.114 Y91.178 F7200
G1 X133.311 Y91.980 E5.0720 F3600
G0 X133.311 Y92.547 F7200
G1 X134.114 Y91.744 E5.1098 F3600
G0 X134.114 Y92.309 F7200
G1 X133.310 Y93.113 E5.1476 F3600
G0 X133.309 Y93.679 F7200
G1 X134.114 Y92.875 E5.1854 F3600
G0 X134.114 Y93.441 F7200
G1 X133.309 Y94.246 E5.2232 F3600
G0 X133.308 Y94.812 F7200
G1 X134.114 Y94.007 E5.2611 F3600
G0 X134.114 Y94.572 F7200
G1 X133.307 Y95.378 E5.2990 F3600
G0 X133.307 Y95.945 F7200
G1 X134.114 Y95.138 E5.3370 F3600
G0 X134.114 Y95.704 F7200
G1 X133.306 Y96.511 E5.3750 F3600
G0 X133.305 Y97.077 F7200
G1 X134.114 Y96.269 E5.4130 F3600
G0 X134.113 Y96.835 F7200
G1 X133.305 Y97.644 E5.4510 F3600
G0 X133.304 Y98.210 F7200
G1 X134.114 Y97.401 E5.4891 F3600
G0 X134.114 Y97.966 F7200
G1 X133.303 Y98.776 E5.5272 F3600
G0 X133.303 Y99.343 F7200
G1 X134.113 Y98.532 E5.5653 F3600
G0 X134.113 Y99.098 F7200
G1 X133.302 Y99.909 E5.6035 F3600
G0 X133.301 Y100.475 F7200
G1 X134.114 Y99.663 E5.6417 F3600
G0 X134.113 Y100.229 F7200
G1 X133.301 Y101.042 E5.6799 F3600
G0 X133.300 Y101.608 F7200
G1 X134.113 Y100.795 E5.7182 F3600
G0 X134.113 Y101.360 F7200
G1 X133.299 Y102.175 E5.7565 F3600
G0 X133.299 Y102.741 F7200
G1 X134.113 Y101.926 E5.7948 F3600
G0 X134.113 Y102.492 F7200
G1 X133.298 Y103.307 E5.8332 F3600
G0 X133.297 Y103.874 F7200
G1 X134.113 Y103.057 E5.8715 F3600
G0 X134.113 Y103.623 F7200
G1 X133.297 Y104.440 E5.9100 F3600
G0 X133.296 Y105.006 F7200
G1 X134.113 Y104.189 E5.9484 F3600
G0 X134.113 Y104.755 F7200
G1 X133.295 Y105.573 E5.9869 F3600
G0 X133.295 Y106.139 F7200
G1 X134.113 Y105.320 E6.0254 F3600
G0 X134.113 Y105.886 F7200
G1 X133.294 Y106.705 E6.0639 F3600
G0 X133.293 Y107.272 F7200
G1 X134.113 Y106.452 E6.1025 F3600
G0 X134.113 Y107.017 F7200
G1 X133.293 Y107.838 E6.1411 F3600
G0 X133.292 Y108.404 F7200
G1 X134.113 Y107.583 E6.1798 F3600
G0 X134.113 Y108.149 F7200
G1 X133.433 Y108.829 E6.2118 F3600
G0 X128.236 Y106.956 F7200
G1 X127.708 Y106.634 E6.2258 F3600
G1 X127.365 Y106.411 E6.2405
G1 X127.034 Y106.177 E6.2554
G1 X126.713 Y105.933 E6.2715
G1 X126.401 Y105.679 E6.2880
G1 X126.097 Y105.417 E6.3051
G1 X125.808 Y105.141 E6.3234
G1 X125.531 Y104.852 E6.3418
G1 X125.262 Y104.555 E6.3614
G1 X125.008 Y104.243 E6.3817
G1 X124.765 Y103.921 E6.4026
G1 X124.537 Y103.583 E6.4250
G1 X124.328 Y103.226 E6.4475
G1 X124.130 Y102.858 E6.4718
G0 X124.241 Y102.182 F7200
G1 X123.675 Y102.748 E6.4984 F3600
G0 X123.502 Y102.356 F7200
G1 X124.093 Y101.764 E6.5262 F3600
G0 X123.986 Y101.306 F7200
G1 X123.354 Y101.938 E6.5560 F3600
G0 X123.227 Y101.499 F7200
G1 X123.889 Y100.837 E6.5871 F3600
G0 X123.852 Y100.308 F7200
G1 X123.128 Y101.032 E6.6212 F3600
G0 X123.067 Y100.527 F7200
G1 X123.848 Y99.746 E6.6579 F3600
G0 X123.893 Y99.136 F7200
G1 X123.031 Y99.998 E6.6984 F3600
G0 X123.073 Y99.390 F7200
G1 X124.044 Y98.419 E6.7441 F3600
G0 X124.328 Y97.569 F7200
G1 X123.181 Y98.716 E6.7980 F3600
G0 X123.400 Y97.932 F7200
G1 X124.981 Y96.351 E6.8724 F3600
G0 X123.839 Y96.927 F7200
G1 X127.564 Y93.202 E7.0476 F3600
G0 X127.712 Y93.620 F7200
G1 X128.787 Y92.544 E7.0982 F3600
G0 X129.768 Y92.129 F7200
G1 X129.099 Y92.798 E7.1297 F3600
G0 X129.967 Y92.213 F7200
G1 X131.261 Y91.768 E7.1600 F3600
G0 F3000 E6.1600
G0 X139.122 Y94.655 F7200
G0 F3000 E7.1600
G1 X139.894 Y93.883 E7.1964 F3600
G0 X139.894 Y93.317 F7200
G1 X139.122 Y94.089 E7.2327 F3600
G0 X139.122 Y93.524 F7200
G1 X139.894 Y92.751 E7.2690 F3600
G0 X139.894 Y92.186 F7200
G1 X139.122 Y92.958 E7.3054 F3600
G0 X139.122 Y92.392 F7200
G1 X139.894 Y91.620 E7.3417 F3600
G0 X139.672 Y91.277 F7200
G1 X139.122 Y91.827 E7.3676 F3600
;segType:Infill
G0 X139.066 Y91.317 F7200
G1 X138.417 Y91.965 E7.4042 F4500
G0 X139.122 Y95.786 F7200
G1 X138.417 Y96.491 E7.4439 F4500
G0 X139.122 Y100.312 F7200
G1 X138.417 Y101.016 E7.4837 F4500
G0 X139.122 Y104.837 F7200
G1 X138.417 Y105.542 E7.5234 F4500
;segType:Perimeter
G0 X140.389 Y108.544 F7200
G1 X140.596 Y109.317 E7.5500 F2160
G1 X140.371 Y109.373 E7.5578
G1 X139.014 Y109.609 E7.6036
G1 X137.629 Y109.752 E7.6499
G1 X136.885 Y109.777 E7.6746
G1 X136.885 Y90.223 E8.3250
G1 X137.629 Y90.248 E8.3498
G1 X139.014 Y90.391 E8.3961
G1 X140.371 Y90.627 E8.4419
G1 X140.654 Y90.698 E8.4516
G1 X140.654 Y109.242 E9.0684
G0 X139.855 Y109.228 F7200
;segType:Loop
G0 X139.506 Y109.118
G1 X138.959 Y109.213 E9.0869 F3600
G1 X137.602 Y109.353 E9.1323
G1 X137.285 Y109.364 E9.1428
G1 X137.285 Y90.637 E9.7657
G1 X137.602 Y90.647 E9.7763
G1 X138.959 Y90.787 E9.8216
G1 X140.172 Y90.999 E9.8626
G1 X140.254 Y91.057 E9.8659
G1 X140.254 Y108.885 E10.4589
G1 X140.172 Y109.001 E10.4637
G1 X139.703 Y109.083 E10.4795
;segType:HShell
G0 X139.118 Y108.801 F7200
G1 X139.894 Y108.025 E10.5160 F3600
G0 X139.894 Y107.459 F7200
G1 X139.122 Y108.232 E10.5523 F3600
G0 X139.122 Y107.666 F7200
G1 X139.894 Y106.893 E10.5887 F3600
G0 X139.894 Y106.328 F7200
G1 X139.122 Y107.100 E10.6250 F3600
G0 X139.122 Y106.534 F7200
G1 X139.894 Y105.762 E10.6613 F3600
G0 X139.894 Y105.196 F7200
G1 X139.122 Y105.969 E10.6977 F3600
G0 X139.122 Y105.403 F7200
G1 X139.894 Y104.631 E10.7340 F3600
G0 X139.894 Y104.065 F7200
G1 X139.122 Y104.837 E10.7703 F3600
G0 X139.122 Y104.272 F7200
G1 X139.894 Y103.499 E10.8067 F3600
G0 X139.894 Y102.934 F7200
G1 X139.122 Y103.706 E10.8430 F3600
G0 X139.122 Y103.140 F7200
G1 X139.894 Y102.368 E10.8793 F3600
G0 X139.894 Y101.802 F7200
G1 X139.122 Y102.575 E10.9157 F3600
G0 X139.122 Y102.009 F7200
G1 X139.894 Y101.237 E10.9520 F3600
G0 X139.894 Y100.671 F7200
G1 X139.122 Y101.443 E10.9884 F3600
G0 X139.122 Y100.878 F7200
G1 X139.894 Y100.105 E11.0247 F3600
G0 X139.894 Y99.539 F7200
G1 X139.122 Y100.312 E11.0610 F3600
G0 X139.122 Y99.746 F7200
G1 X139.894 Y98.974 E11.0974 F3600
G0 X139.894 Y98.408 F7200
G1 X139.122 Y99.181 E11.1337 F3600
G0 X139.122 Y98.615 F7200
G1 X139.894 Y97.842 E11.1700 F3600
G0 X139.894 Y97.277 F7200
G1 X139.122 Y98.049 E11.2064 F3600
G0 X139.122 Y97.484 F7200
G1 X139.894 Y96.711 E11.2427 F3600
G0 X139.894 Y96.145 F7200
G1 X139.122 Y96.918 E11.2790 F3600
G0 X139.122 Y96.352 F7200
G1 X139.894 Y95.580 E11.3154 F3600
G0 X139.894 Y95.014 F7200
G1 X139.122 Y95.786 E11.3517 F3600
G0 X139.122 Y95.221 F7200
G1 X139.894 Y94.448 E11.3880 F3600
G0 X137.645 Y91.606 F7200
G1 X138.182 Y91.069 E11.4133 F3600
G0 X138.417 Y91.400 F7200
G1 X137.645 Y92.172 E11.4496 F3600
G0 X137.645 Y92.738 F7200
G1 X138.417 Y91.965 E11.4860 F3600
G0 X138.417 Y92.531 F7200
G1 X137.645 Y93.303 E11.5223 F3600
G0 X137.645 Y93.869 F7200
G1 X138.417 Y93.097 E11.5587 F3600
G0 X138.417 Y93.662 F7200
G1 X137.645 Y94.435 E11.5950 F3600
G0 X137.645 Y95.001 F7200
G1 X138.417 Y94.228 E11.6313 F3600
G0 X138.417 Y94.794 F7200
G1 X137.645 Y95.566 E11.6677 F3600
G0 X137.645 Y96.132 F7200
G1 X138.417 Y95.359 E11.7040 F3600
G0 X138.417 Y95.925 F7200
G1 X137.645 Y96.698 E11.7403 F3600
G0 X137.645 Y97.263 F7200
G1 X138.417 Y96.491 E11.7767 F3600
G0 X138.417 Y97.056 F7200
G1 X137.645 Y97.829 E11.8130 F3600
G0 X137.645 Y98.395 F7200
G1 X138.417 Y97.622 E11.8493 F3600
G0 X138.417 Y98.188 F7200
G1 X137.645 Y98.960 E11.8857 F3600
G0 X137.645 Y99.526 F7200
G1 X138.417 Y98.754 E11.9220 F3600
G0 X138.417 Y99.319 F7200
G1 X137.645 Y100.092 E11.9583 F3600
G0 X137.645 Y100.657 F7200
G1 X138.417 Y99.885 E11.9947 F3600
G0 X138.417 Y100.451 F7200
G1 X137.645 Y101.223 E12.0310 F3600
G0 X137.645 Y101.789 F7200
G1 X138.417 Y101.016 E12.0673 F3600
G0 X138.417 Y101.582 F7200
G1 X137.645 Y102.354 E12.1037 F3600
G0 X137.645 Y102.920 F7200
G1 X138.417 Y102.148 E12.1400 F3600
G0 X138.417 Y102.713 F7200
G1 X137.645 Y103.486 E12.1763 F3600
G0 X137.645 Y104.051 F7200
G1 X138.417 Y103.279 E12.2127 F3600
G0 X138.417 Y103.845 F7200
G1 X137.645 Y104.617 E12.2490 F3600
G0 X137.645 Y105.183 F7200
G1 X138.417 Y104.410 E12.2854 F3600
G0 X138.417 Y104.976 F7200
G1 X137.645 Y105.749 E12.3217 F3600
G0 X137.645 Y106.314 F7200
G1 X138.417 Y105.542 E12.3580 F3600
G0 X138.417 Y106.107 F7200
G1 X137.645 Y106.880 E12.3944 F3600
G0 X137.645 Y107.446 F7200
G1 X138.417 Y106.673 E12.4307 F3600
G0 X138.417 Y107.239 F7200
G1 X137.645 Y108.011 E12.4670 F3600
G0 X137.645 Y108.577 F7200
G1 X138.417 Y107.805 E12.5034 F3600
G0 X138.417 Y108.370 F7200
G1 X137.819 Y108.968 E12.5315 F3600
; ------------------------------------
; Layer #8
; ------------------------------------
G92 E0 ;reset extr
;segType:HShell
G0 F3000 E-1.0000
G0 F1200 Z1.800
G0 X139.315 Y91.928 F7200
G0 F3000 E0.0000
G1 X140.088 Y92.701 E0.0364 F3600
G0 X140.088 Y92.135 F7200
G1 X139.180 Y91.227 E0.0791 F3600
G0 X137.881 Y91.059 F7200
G1 X138.611 Y91.789 E0.1134 F3600
G0 X138.611 Y92.355 F7200
G1 X137.838 Y91.583 E0.1497 F3600
G0 X137.838 Y92.148 F7200
G1 X138.611 Y92.921 E0.1861 F3600
;segType:Infill
G0 X138.611 Y92.355 F7200
G1 X139.315 Y93.059 E0.2258 F4500
G0 X138.611 Y96.881 F7200
G1 X139.315 Y97.585 E0.2655 F4500
G0 X138.611 Y101.406 F7200
G1 X139.315 Y102.110 E0.3053 F4500
G0 X138.611 Y105.931 F7200
G1 X139.315 Y106.636 E0.3450 F4500
;segType:Perimeter
G0 X140.582 Y108.445 F7200
G1 X140.790 Y109.218 E0.3716 F2160
G1 X140.164 Y109.373 E0.3931
G1 X138.807 Y109.609 E0.4389
G1 X137.422 Y109.752 E0.4852
G1 X137.078 Y109.764 E0.4966
G1 X137.078 Y90.236 E1.1461
G1 X137.422 Y90.248 E1.1576
G1 X138.807 Y90.391 E1.2039
G1 X140.164 Y90.627 E1.2497
G1 X140.848 Y90.797 E1.2731
G1 X140.848 Y109.143 E1.8833
G0 X140.048 Y109.128 F7200
;segType:Loop
G0 X139.706 Y109.047
G1 X138.752 Y109.213 E1.9155 F3600
G1 X137.543 Y109.337 E1.9559
G1 X137.478 Y109.343 E1.9581
G1 X137.478 Y90.714 E2.5777
G1 X137.543 Y90.663 E2.5805
G1 X138.752 Y90.787 E2.6209
G1 X140.081 Y91.019 E2.6658
G1 X140.448 Y91.110 E2.6783
G1 X140.448 Y108.890 E3.2697
G1 X140.081 Y108.981 E3.2823
G1 X139.903 Y109.012 E3.2883
;segType:HShell
G0 X139.315 Y108.333 F7200
G1 X139.669 Y108.687 E3.3050 F3600
G0 X140.088 Y108.540 F7200
G1 X139.315 Y107.767 E3.3413 F3600
G0 X139.315 Y107.201 F7200
G1 X140.088 Y107.974 E3.3777 F3600
G0 X140.088 Y107.409 F7200
G1 X139.315 Y106.636 E3.4140 F3600
G0 X139.315 Y106.070 F7200
G1 X140.088 Y106.843 E3.4504 F3600
G0 X140.088 Y106.277 F7200
G1 X139.315 Y105.504 E3.4868 F3600
G0 X139.315 Y104.938 F7200
G1 X140.088 Y105.711 E3.5231 F3600
G0 X140.088 Y105.146 F7200
G1 X139.315 Y104.373 E3.5595 F3600
G0 X139.315 Y103.807 F7200
G1 X140.088 Y104.580 E3.5958 F3600
G0 X140.088 Y104.014 F7200
G1 X139.315 Y103.241 E3.6322 F3600
G0 X139.315 Y102.676 F7200
G1 X140.088 Y103.449 E3.6686 F3600
G0 X140.088 Y102.883 F7200
G1 X139.315 Y102.110 E3.7049 F3600
G0 X139.315 Y101.544 F7200
G1 X140.088 Y102.317 E3.7413 F3600
G0 X140.088 Y101.752 F7200
G1 X139.315 Y100.979 E3.7776 F3600
G0 X139.315 Y100.413 F7200
G1 X140.088 Y101.186 E3.8140 F3600
G0 X140.088 Y100.620 F7200
G1 X139.315 Y99.847 E3.8503 F3600
G0 X139.315 Y99.282 F7200
G1 X140.088 Y100.055 E3.8867 F3600
G0 X140.088 Y99.489 F7200
G1 X139.315 Y98.716 E3.9231 F3600
G0 X139.315 Y98.150 F7200
G1 X140.088 Y98.923 E3.9594 F3600
G0 X140.088 Y98.358 F7200
G1 X139.315 Y97.585 E3.9958 F3600
G0 X139.315 Y97.019 F7200
G1 X140.088 Y97.792 E4.0321 F3600
G0 X140.088 Y97.226 F7200
G1 X139.315 Y96.453 E4.0685 F3600
G0 X139.315 Y95.888 F7200
G1 X140.088 Y96.660 E4.1049 F3600
G0 X140.088 Y96.095 F7200
G1 X139.315 Y95.322 E4.1412 F3600
G0 X139.315 Y94.756 F7200
G1 X140.088 Y95.529 E4.1776 F3600
G0 X140.088 Y94.963 F7200
G1 X139.315 Y94.190 E4.2139 F3600
G0 X139.315 Y93.625 F7200
G1 X140.088 Y94.398 E4.2503 F3600
G0 X140.088 Y93.832 F7200
G1 X139.315 Y93.059 E4.2866 F3600
G0 X139.315 Y92.493 F7200
G1 X140.088 Y93.266 E4.3230 F3600
G0 X138.611 Y93.486 F7200
G1 X137.838 Y92.714 E4.3593 F3600
G0 X137.838 Y93.280 F7200
G1 X138.611 Y94.052 E4.3957 F3600
G0 X138.611 Y94.618 F7200
G1 X137.838 Y93.845 E4.4320 F3600
G0 X137.838 Y94.411 F7200
G1 X138.611 Y95.183 E4.4683 F3600
G0 X138.611 Y95.749 F7200
G1 X137.838 Y94.977 E4.5047 F3600
G0 X137.838 Y95.542 F7200
G1 X138.611 Y96.315 E4.5410 F3600
G0 X138.611 Y96.881 F7200
G1 X137.838 Y96.108 E4.5773 F3600
G0 X137.838 Y96.674 F7200
G1 X138.611 Y97.446 E4.6137 F3600
G0 X138.611 Y98.012 F7200
G1 X137.838 Y97.239 E4.6500 F3600
G0 X137.838 Y97.805 F7200
G1 X138.611 Y98.578 E4.6864 F3600
G0 X138.611 Y99.143 F7200
G1 X137.838 Y98.371 E4.7227 F3600
G0 X137.838 Y98.936 F7200
G1 X138.611 Y99.709 E4.7590 F3600
G0 X138.611 Y100.275 F7200
G1 X137.838 Y99.502 E4.7954 F3600
G0 X137.838 Y100.068 F7200
G1 X138.611 Y100.840 E4.8317 F3600
G0 X138.611 Y101.406 F7200
G1 X137.838 Y100.634 E4.8680 F3600
G0 X137.838 Y101.199 F7200
G1 X138.611 Y101.972 E4.9044 F3600
G0 X138.611 Y102.537 F7200
G1 X137.838 Y101.765 E4.9407 F3600
G0 X137.838 Y102.331 F7200
G1 X138.611 Y103.103 E4.9770 F3600
G0 X138.611 Y103.669 F7200
G1 X137.838 Y102.896 E5.0134 F3600
G0 X137.838 Y103.462 F7200
G1 X138.611 Y104.234 E5.0497 F3600
G0 X138.611 Y104.800 F7200
G1 X137.838 Y104.028 E5.0860 F3600
G0 X137.838 Y104.593 F7200
G1 X138.611 Y105.366 E5.1224 F3600
G0 X138.611 Y105.931 F7200
G1 X137.838 Y105.159 E5.1587 F3600
G0 X137.838 Y105.725 F7200
G1 X138.611 Y106.497 E5.1950 F3600
G0 X138.611 Y107.063 F7200
G1 X137.838 Y106.290 E5.2314 F3600
G0 X137.838 Y106.856 F7200
G1 X138.611 Y107.629 E5.2677 F3600
G0 X138.611 Y108.194 F7200
G1 X137.838 Y107.422 E5.3040 F3600
G0 X137.838 Y107.987 F7200
G1 X138.706 Y108.855 E5.3449 F3600
G0 X138.193 Y108.908 F7200
G1 X137.838 Y108.553 E5.3615 F3600
G0 F3000 E4.3615
G0 X133.513 Y95.177 F7200
G0 F3000 E5.3615
G1 X134.313 Y95.977 E5.3992 F3600
G0 X134.313 Y96.543 F7200
G1 X133.513 Y95.743 E5.4368 F3600
G0 X133.513 Y96.309 F7200
G1 X134.313 Y97.109 E5.4744 F3600
G0 X134.313 Y97.675 F7200
G1 X133.513 Y96.875 E5.5121 F3600
;segType:Infill
G0 X133.513 Y96.309 F7200
G1 X129.641 Y92.437 E5.7306 F4500
G0 X133.071 Y91.341 F7200
G1 X133.513 Y91.783 E5.7556 F4500
;segType:Perimeter
G0 X135.074 Y90.293 F7200
G1 X135.074 Y109.767 E6.4033 F2160
G1 X134.638 Y109.752 E6.4178
G1 X133.280 Y109.609 E6.4632
G1 X131.946 Y109.373 E6.5082
G1 X130.654 Y109.047 E6.5526
G1 X129.415 Y108.631 E6.5960
G1 X128.239 Y108.134 E6.6385
G1 X127.139 Y107.557 E6.6798
G1 X126.126 Y106.907 E6.7198
G1 X125.209 Y106.192 E6.7585
G1 X124.398 Y105.418 E6.7958
G1 X123.698 Y104.593 E6.8318
G1 X123.117 Y103.726 E6.8665
G1 X122.661 Y102.824 E6.9001
G1 X122.333 Y101.897 E6.9328
G1 X122.135 Y100.952 E6.9649
G1 X122.069 Y100.000 E6.9967
G1 X122.135 Y99.048 E7.0284
G1 X122.333 Y98.103 E7.0605
G1 X122.661 Y97.176 E7.0932
G1 X123.117 Y96.274 E7.1269
G1 X123.698 Y95.407 E7.1616
G1 X124.398 Y94.582 E7.1976
G1 X125.209 Y93.808 E7.2348
G1 X126.126 Y93.093 E7.2735
G1 X127.139 Y92.443 E7.3135
G1 X128.239 Y91.866 E7.3549
G1 X129.415 Y91.369 E7.3973
G1 X130.654 Y90.953 E7.4408
G1 X131.946 Y90.627 E7.4851
G1 X133.280 Y90.391 E7.5302
G1 X134.638 Y90.248 E7.5756
G1 X135.014 Y90.235 E7.5881
G0 X134.807 Y91.008 F7200
;segType:Loop
G0 X134.674 Y91.333
G1 X134.674 Y109.343 E8.1871 F3600
G1 X134.572 Y109.343 E8.1905
G1 X133.336 Y109.213 E8.2318
G1 X132.030 Y108.982 E8.2759
G1 X130.767 Y108.662 E8.3192
G1 X129.557 Y108.257 E8.3617
G1 X128.411 Y107.772 E8.4031
G1 X127.340 Y107.210 E8.4433
G1 X126.357 Y106.581 E8.4821
G1 X125.471 Y105.889 E8.5195
G1 X124.689 Y105.143 E8.5554
G1 X124.018 Y104.352 E8.5900
G1 X123.463 Y103.523 E8.6231
G1 X123.030 Y102.666 E8.6551
G1 X122.719 Y101.789 E8.6860
G1 X122.532 Y100.897 E8.7163
G1 X122.470 Y100.000 E8.7462
G1 X122.532 Y99.103 E8.7762
G1 X122.719 Y98.211 E8.8065
G1 X123.030 Y97.334 E8.8374
G1 X123.463 Y96.477 E8.8694
G1 X124.018 Y95.648 E8.9025
G1 X124.689 Y94.857 E8.9371
G1 X125.471 Y94.111 E8.9730
G1 X126.357 Y93.419 E9.0104
G1 X127.340 Y92.790 E9.0492
G1 X128.411 Y92.228 E9.0894
G1 X129.557 Y91.743 E9.1308
G1 X130.767 Y91.338 E9.1733
G1 X132.030 Y91.018 E9.2166
G1 X133.336 Y90.787 E9.2607
G1 X134.572 Y90.657 E9.3020
G1 X134.674 Y90.714 E9.3059
G1 X134.674 Y91.133 E9.3198
;segType:Infill
G0 X133.513 Y100.834 F7200
G1 X126.819 Y94.140 E9.6977 F4500
G0 X124.670 Y96.516 F7200
G1 X133.513 Y105.360 E10.1968 F4500
G0 X132.038 Y108.410 F7200
G1 X123.631 Y100.003 E10.6714 F4500
;segType:HShell
G0 X133.946 Y91.085 F7200
G1 X134.313 Y91.452 E10.6887 F3600
G0 X134.313 Y92.018 F7200
G1 X133.435 Y91.139 E10.7300 F3600
G0 X133.513 Y91.783 F7200
G1 X134.313 Y92.583 E10.7676 F3600
G0 X134.313 Y93.149 F7200
G1 X133.513 Y92.349 E10.8053 F3600
G0 X133.513 Y92.915 F7200
G1 X134.313 Y93.715 E10.8429 F3600
G0 X134.313 Y94.280 F7200
G1 X133.513 Y93.480 E10.8805 F3600
G0 X133.513 Y94.046 F7200
G1 X134.313 Y94.846 E10.9182 F3600
G0 X134.313 Y95.412 F7200
G1 X133.513 Y94.612 E10.9558 F3600
G0 X133.513 Y97.440 F7200
G1 X134.313 Y98.240 E10.9934 F3600
G0 X134.313 Y98.806 F7200
G1 X133.513 Y98.006 E11.0310 F3600
G0 X133.513 Y98.572 F7200
G1 X134.313 Y99.372 E11.0687 F3600
G0 X134.313 Y99.937 F7200
G1 X133.513 Y99.137 E11.1063 F3600
G0 X133.513 Y99.703 F7200
G1 X134.313 Y100.503 E11.1439 F3600
G0 X134.313 Y101.069 F7200
G1 X133.513 Y100.269 E11.1816 F3600
G0 X133.513 Y100.834 F7200
G1 X134.313 Y101.634 E11.2192 F3600
G0 X134.313 Y102.200 F7200
G1 X133.513 Y101.400 E11.2568 F3600
G0 X133.513 Y101.966 F7200
G1 X134.313 Y102.766 E11.2945 F3600
G0 X134.313 Y103.331 F7200
G1 X133.513 Y102.531 E11.3321 F3600
G0 X133.513 Y103.097 F7200
G1 X134.313 Y103.897 E11.3697 F3600
G0 X134.313 Y104.463 F7200
G1 X133.513 Y103.663 E11.4074 F3600
G0 X133.513 Y104.228 F7200
G1 X134.313 Y105.028 E11.4450 F3600
G0 X134.313 Y105.594 F7200
G1 X133.513 Y104.794 E11.4826 F3600
G0 X133.513 Y105.360 F7200
G1 X134.313 Y106.160 E11.5202 F3600
G0 X134.313 Y106.726 F7200
G1 X133.513 Y105.925 E11.5579 F3600
G0 X133.513 Y106.491 F7200
G1 X134.313 Y107.291 E11.5955 F3600
G0 X134.313 Y107.857 F7200
G1 X133.513 Y107.057 E11.6331 F3600
G0 X133.513 Y107.623 F7200
G1 X134.313 Y108.423 E11.6708 F3600
G0 X134.253 Y108.928 F7200
G1 X133.513 Y108.188 E11.7056 F3600
G0 X131.801 Y108.455 F7200
G1 X130.576 Y108.080 E11.7340 F3600
G1 X129.661 Y107.730 E11.7666
G0 X124.179 Y103.945 F7200
G1 X126.360 Y106.126 E11.8691 F3600
G0 X128.162 Y106.797 F7200
G1 X128.993 Y107.627 E11.9082 F3600
G0 X127.894 Y107.094 F7200
G1 X123.399 Y102.600 E12.1196 F3600
G0 X123.073 Y101.707 F7200
G1 X124.439 Y103.074 E12.1839 F3600
G0 X124.001 Y102.070 F7200
G1 X122.919 Y100.988 E12.2347 F3600
G0 X122.856 Y100.359 F7200
G1 X123.782 Y101.285 E12.2783 F3600
G0 X123.673 Y100.611 F7200
G1 X122.846 Y99.783 E12.3172 F3600
G0 X122.883 Y99.254 F7200
G1 X123.631 Y100.003 E12.3524 F3600
G0 X123.667 Y99.474 F7200
G1 X122.969 Y98.775 E12.3853 F3600
G0 X123.067 Y98.308 F7200
G1 X123.728 Y98.969 E12.4164 F3600
G0 X123.827 Y98.501 F7200
G1 X123.215 Y97.890 E12.4451 F3600
G0 X123.363 Y97.472 F7200
G1 X123.954 Y98.063 E12.4729 F3600
G0 X123.737 Y97.563 F7200
G1 X124.009 Y96.987 E12.4987 F3600
G1 X124.214 Y96.626 E12.5237
G1 X124.431 Y96.277 E12.5472
G1 X124.665 Y95.946 E12.5698
G1 X124.910 Y95.625 E12.5915
G1 X125.170 Y95.319 E12.6119
G1 X125.444 Y95.028 E12.6323
G1 X125.727 Y94.745 E12.6512
G1 X126.023 Y94.475 E12.6696
G1 X126.326 Y94.213 E12.6874
G1 X126.644 Y93.965 E12.7039
G1 X126.971 Y93.726 E12.7204
G1 X127.306 Y93.496 E12.7360
G1 X127.651 Y93.275 E12.7507
G1 X128.008 Y93.066 E12.7654
; ------------------------------------
; Layer #9
; ------------------------------------
G92 E0 ;reset extr
G0 F3000 E-1.0000
G0 F1200 Z2.000
G0 X133.003 Y94.908 F7200
G0 X135.429 Y95.757
G0 X137.855 Y96.607
G0 X140.281 Y97.456
G0 F3000 E0.0000
;segType:HShell
G1 X139.508 Y98.229 E0.0364 F3600
G0 X139.508 Y97.663 F7200
G1 X140.281 Y96.890 E0.0727 F3600
G0 X140.281 Y96.324 F7200
G1 X139.508 Y97.097 E0.1091 F3600
G0 X139.508 Y96.532 F7200
G1 X140.281 Y95.759 E0.1454 F3600
G0 X140.281 Y95.193 F7200
G1 X139.508 Y95.966 E0.1818 F3600
G0 X139.508 Y95.400 F7200
G1 X140.281 Y94.627 E0.2181 F3600
G0 X140.281 Y94.062 F7200
G1 X139.508 Y94.835 E0.2545 F3600
;segType:Infill
G0 X139.508 Y95.400 F7200
G1 X138.804 Y96.104 E0.2942 F4500
G0 X139.508 Y99.926 F7200
G1 X138.804 Y100.630 E0.3340 F4500
G0 X139.508 Y104.451 F7200
G1 X138.804 Y105.155 E0.3737 F4500
;segType:Perimeter
G0 X140.776 Y108.345 F7200
G1 X140.983 Y109.118 E0.4003 F2160
G1 X139.956 Y109.373 E0.4355
G1 X138.600 Y109.609 E0.4813
G1 X137.315 Y109.742 E0.5243
G1 X137.271 Y109.685 E0.5266
G1 X137.271 Y90.257 E1.1728
G1 X137.315 Y90.258 E1.1743
G1 X138.600 Y90.391 E1.2173
G1 X139.956 Y90.627 E1.2631
G1 X141.041 Y90.896 E1.3002
G1 X141.041 Y109.044 E1.9038
G0 X140.241 Y109.029 F7200
;segType:Loop
G0 X139.877 Y108.980
G1 X139.874 Y108.981 E1.9039 F3600
G1 X138.545 Y109.213 E1.9488
G1 X137.772 Y109.293 E1.9746
G1 X137.671 Y109.228 E1.9786
G1 X137.671 Y90.699 E2.5949
G1 X138.546 Y90.787 E2.6241
G1 X139.874 Y91.019 E2.6690
G1 X140.641 Y91.209 E2.6952
G1 X140.641 Y108.791 E3.2800
G1 X140.071 Y108.932 E3.2995
;segType:HShell
G0 X139.875 Y108.610 F7200
G1 X140.281 Y108.204 E3.3186 F3600
G0 X140.281 Y107.638 F7200
G1 X139.508 Y108.411 E3.3550 F3600
G0 X139.508 Y107.845 F7200
G1 X140.281 Y107.072 E3.3913 F3600
G0 X140.281 Y106.507 F7200
G1 X139.508 Y107.280 E3.4277 F3600
G0 X139.508 Y106.714 F7200
G1 X140.281 Y105.941 E3.4641 F3600
G0 X140.281 Y105.375 F7200
G1 X139.508 Y106.148 E3.5004 F3600
G0 X139.508 Y105.583 F7200
G1 X140.281 Y104.810 E3.5368 F3600
G0 X140.281 Y104.244 F7200
G1 X139.508 Y105.017 E3.5731 F3600
G0 X139.508 Y104.451 F7200
G1 X140.281 Y103.678 E3.6095 F3600
G0 X140.281 Y103.113 F7200
G1 X139.508 Y103.886 E3.6459 F3600
G0 X139.508 Y103.320 F7200
G1 X140.281 Y102.547 E3.6822 F3600
G0 X140.281 Y101.981 F7200
G1 X139.508 Y102.754 E3.7186 F3600
G0 X139.508 Y102.189 F7200
G1 X140.281 Y101.416 E3.7549 F3600
G0 X140.281 Y100.850 F7200
G1 X139.508 Y101.623 E3.7913 F3600
G0 X139.508 Y101.057 F7200
G1 X140.281 Y100.284 E3.8276 F3600
G0 X140.281 Y99.719 F7200
G1 X139.508 Y100.492 E3.8640 F3600
G0 X139.508 Y99.926 F7200
G1 X140.281 Y99.153 E3.9004 F3600
G0 X140.281 Y98.587 F7200
G1 X139.508 Y99.360 E3.9367 F3600
G0 X139.508 Y98.794 F7200
G1 X140.281 Y98.022 E3.9731 F3600
G0 X138.804 Y108.550 F7200
G1 X138.498 Y108.856 E3.9875 F3600
G0 X138.031 Y108.756 F7200
G1 X138.804 Y107.984 E4.0238 F3600
G0 X138.804 Y107.418 F7200
G1 X138.031 Y108.191 E4.0601 F3600
G0 X138.031 Y107.625 F7200
G1 X138.804 Y106.852 E4.0965 F3600
G0 X138.804 Y106.287 F7200
G1 X138.031 Y107.059 E4.1328 F3600
G0 X138.031 Y106.494 F7200
G1 X138.804 Y105.721 E4.1691 F3600
G0 X138.804 Y105.155 F7200
G1 X138.031 Y105.928 E4.2055 F3600
G0 X138.031 Y105.362 F7200
G1 X138.804 Y104.590 E4.2418 F3600
G0 X138.804 Y104.024 F7200
G1 X138.031 Y104.797 E4.2781 F3600
G0 X138.031 Y104.231 F7200
G1 X138.804 Y103.458 E4.3145 F3600
G0 X138.804 Y102.893 F7200
G1 X138.031 Y103.665 E4.3508 F3600
G0 X138.031 Y103.099 F7200
G1 X138.804 Y102.327 E4.3872 F3600
G0 X138.804 Y101.761 F7200
G1 X138.031 Y102.534 E4.4235 F3600
G0 X138.031 Y101.968 F7200
G1 X138.804 Y101.196 E4.4598 F3600
G0 X138.804 Y100.630 F7200
G1 X138.031 Y101.402 E4.4962 F3600
G0 X138.031 Y100.837 F7200
G1 X138.804 Y100.064 E4.5325 F3600
G0 X138.804 Y99.499 F7200
G1 X138.031 Y100.271 E4.5688 F3600
G0 X138.031 Y99.705 F7200
G1 X138.804 Y98.933 E4.6052 F3600
G0 X138.804 Y98.367 F7200
G1 X138.031 Y99.140 E4.6415 F3600
G0 X138.031 Y98.574 F7200
G1 X138.804 Y97.802 E4.6778 F3600
G0 X138.804 Y97.236 F7200
G1 X138.031 Y98.008 E4.7142 F3600
G0 X138.031 Y97.443 F7200
G1 X138.804 Y96.670 E4.7505 F3600
G0 X138.804 Y96.104 F7200
G1 X138.031 Y96.877 E4.7868 F3600
G0 X138.031 Y96.311 F7200
G1 X138.804 Y95.539 E4.8232 F3600
G0 X138.804 Y94.973 F7200
G1 X138.031 Y95.746 E4.8595 F3600
G0 X138.031 Y95.180 F7200
G1 X138.804 Y94.407 E4.8958 F3600
G0 X138.804 Y93.842 F7200
G1 X138.031 Y94.614 E4.9322 F3600
G0 X138.031 Y94.048 F7200
G1 X138.804 Y93.276 E4.9685 F3600
G0 X138.804 Y92.710 F7200
G1 X138.031 Y93.483 E5.0048 F3600
G0 X138.031 Y92.917 F7200
G1 X138.804 Y92.145 E5.0412 F3600
G0 X138.804 Y91.579 F7200
G1 X138.031 Y92.351 E5.0775 F3600
G0 X138.031 Y91.786 F7200
G1 X138.647 Y91.170 E5.1065 F3600
G0 X140.074 Y91.440 F7200
G1 X139.508 Y92.006 E5.1331 F3600
G0 X139.508 Y92.572 F7200
G1 X140.281 Y91.799 E5.1695 F3600
G0 X140.281 Y92.365 F7200
G1 X139.508 Y93.138 E5.2058 F3600
G0 X139.508 Y93.703 F7200
G1 X140.281 Y92.930 E5.2422 F3600
G0 X140.281 Y93.496 F7200
G1 X139.508 Y94.269 E5.2785 F3600
;segType:Infill
G0 F3000 E4.2785
G0 X123.797 Y102.060 F7200
G0 F3000 E5.2785
G1 X133.713 Y92.144 E5.8382 F4500
;segType:Perimeter
G0 X134.509 Y90.513 F7200
G1 X135.274 Y90.279 E5.8649 F2160
G1 X135.274 Y109.781 E6.5135
G1 X134.438 Y109.752 E6.5413
G1 X133.080 Y109.609 E6.5867
G1 X131.746 Y109.373 E6.6318
G1 X130.454 Y109.047 E6.6761
G1 X129.215 Y108.631 E6.7196
G1 X128.039 Y108.134 E6.7620
G1 X126.939 Y107.557 E6.8034
G1 X125.926 Y106.907 E6.8434
G1 X125.009 Y106.192 E6.8820
G1 X124.198 Y105.418 E6.9193
G1 X123.498 Y104.593 E6.9553
G1 X122.917 Y103.726 E6.9900
G1 X122.461 Y102.824 E7.0236
G1 X122.133 Y101.897 E7.0564
G1 X121.935 Y100.952 E7.0885
G1 X121.869 Y100.000 E7.1202
G1 X121.935 Y99.048 E7.1520
G1 X122.133 Y98.103 E7.1841
G1 X122.461 Y97.176 E7.2168
G1 X122.917 Y96.274 E7.2504
G1 X123.498 Y95.407 E7.2851
G1 X124.198 Y94.582 E7.3211
G1 X125.009 Y93.808 E7.3584
G1 X125.926 Y93.093 E7.3970
G1 X126.939 Y92.443 E7.4371
G1 X128.039 Y91.866 E7.4784
G1 X129.215 Y91.369 E7.5209
G1 X130.454 Y90.953 E7.5643
G1 X131.746 Y90.627 E7.6086
G1 X133.080 Y90.391 E7.6537
G1 X134.438 Y90.248 E7.6991
G1 X135.214 Y90.221 E7.7249
G0 X135.007 Y90.994 F7200
;segType:Loop
G0 X134.874 Y91.319
G1 X134.874 Y109.367 E8.3252 F3600
G1 X134.466 Y109.353 E8.3388
G1 X133.136 Y109.213 E8.3833
G1 X131.830 Y108.982 E8.4273
G1 X130.567 Y108.662 E8.4707
G1 X129.357 Y108.257 E8.5131
G1 X128.211 Y107.772 E8.5545
G1 X127.140 Y107.210 E8.5947
G1 X126.157 Y106.581 E8.6336
G1 X125.271 Y105.889 E8.6710
G1 X124.489 Y105.143 E8.7069
G1 X123.818 Y104.352 E8.7414
G1 X123.263 Y103.523 E8.7746
G1 X122.830 Y102.666 E8.8065
G1 X122.519 Y101.789 E8.8375
G1 X122.332 Y100.897 E8.8678
G1 X122.270 Y100.000 E8.8977
G1 X122.332 Y99.103 E8.9276
G1 X122.519 Y98.211 E8.9579
G1 X122.830 Y97.334 E8.9889
G1 X123.263 Y96.477 E9.0208
G1 X123.818 Y95.648 E9.0540
G1 X124.489 Y94.857 E9.0885
G1 X125.271 Y94.111 E9.1244
G1 X126.157 Y93.419 E9.1618
G1 X127.140 Y92.790 E9.2006
G1 X128.211 Y92.228 E9.2408
G1 X129.357 Y91.743 E9.2822
G1 X130.567 Y91.338 E9.3247
G1 X131.830 Y91.018 E9.3680
G1 X133.136 Y90.787 E9.4121
G1 X134.466 Y90.647 E9.4566
G1 X134.874 Y90.633 E9.4702
G1 X134.874 Y91.119 E9.4863
;segType:Infill
G0 X133.713 Y96.669 F7200
G1 X125.522 Y104.861 E9.9487 F4500
G0 X133.713 Y105.720 F7200
G1 X131.205 Y108.228 E10.0903 F4500
G0 X128.053 Y106.855 F7200
G1 X133.713 Y101.195 E10.4098 F4500
G0 X124.069 Y97.263 F7200
G1 X128.351 Y92.981 E10.6515 F4500
;segType:HShell
G0 X134.261 Y91.031 F7200
G1 X133.713 Y91.578 E10.6772 F3600
G0 X133.713 Y92.144 F7200
G1 X134.513 Y91.344 E10.7148 F3600
G0 X134.513 Y91.909 F7200
G1 X133.713 Y92.709 E10.7525 F3600
G0 X133.713 Y93.275 F7200
G1 X134.513 Y92.475 E10.7901 F3600
G0 X134.513 Y93.041 F7200
G1 X133.713 Y93.841 E10.8277 F3600
G0 X133.713 Y94.407 F7200
G1 X134.513 Y93.607 E10.8654 F3600
G0 X134.513 Y94.172 F7200
G1 X133.713 Y94.972 E10.9030 F3600
G0 X133.713 Y95.538 F7200
G1 X134.513 Y94.738 E10.9406 F3600
G0 X134.513 Y95.304 F7200
G1 X133.713 Y96.104 E10.9783 F3600
G0 X133.713 Y96.669 F7200
G1 X134.513 Y95.869 E11.0159 F3600
G0 X134.513 Y96.435 F7200
G1 X133.713 Y97.235 E11.0535 F3600
G0 X133.713 Y97.801 F7200
G1 X134.513 Y97.001 E11.0911 F3600
G0 X134.513 Y97.566 F7200
G1 X133.713 Y98.366 E11.1288 F3600
G0 X133.713 Y98.932 F7200
G1 X134.513 Y98.132 E11.1664 F3600
G0 X134.513 Y98.698 F7200
G1 X133.713 Y99.498 E11.2040 F3600
G0 X133.713 Y100.063 F7200
G1 X134.513 Y99.263 E11.2417 F3600
G0 X134.513 Y99.829 F7200
G1 X133.713 Y100.629 E11.2793 F3600
G0 X133.713 Y101.195 F7200
G1 X134.513 Y100.395 E11.3169 F3600
G0 X134.513 Y100.960 F7200
G1 X133.713 Y101.760 E11.3546 F3600
G0 X133.713 Y102.326 F7200
G1 X134.513 Y101.526 E11.3922 F3600
G0 X134.513 Y102.092 F7200
G1 X133.713 Y102.892 E11.4298 F3600
G0 X133.713 Y103.458 F7200
G1 X134.513 Y102.657 E11.4675 F3600
G0 X134.513 Y103.223 F7200
G1 X133.713 Y104.023 E11.5051 F3600
G0 X133.713 Y104.589 F7200
G1 X134.513 Y103.789 E11.5427 F3600
G0 X134.513 Y104.355 F7200
G1 X133.713 Y105.155 E11.5804 F3600
G0 X133.713 Y105.720 F7200
G1 X134.513 Y104.920 E11.6180 F3600
G0 X134.513 Y105.486 F7200
G1 X133.713 Y106.286 E11.6556 F3600
G0 X133.713 Y106.852 F7200
G1 X134.513 Y106.052 E11.6932 F3600
G0 X134.513 Y106.617 F7200
G1 X133.713 Y107.417 E11.7309 F3600
G0 X133.713 Y107.983 F7200
G1 X134.513 Y107.183 E11.7685 F3600
G0 X134.513 Y107.749 F7200
G1 X133.713 Y108.549 E11.8061 F3600
G0 X133.897 Y108.931 F7200
G1 X134.513 Y108.314 E11.8351 F3600
G0 X127.729 Y106.897 F7200
G1 X127.207 Y106.569 E11.8496 F3600
G1 X126.868 Y106.343 E11.8643
G1 X126.537 Y106.108 E11.8795
G1 X126.219 Y105.860 E11.8960
G1 X125.912 Y105.602 E11.9125
G1 X125.613 Y105.336 E11.9299
G1 X125.325 Y105.058 E11.9483
G1 X125.050 Y104.767 E11.9668
G1 X124.786 Y104.465 E11.9868
G1 X124.537 Y104.149 E12.0072
G1 X124.297 Y103.823 E12.0285
G1 X124.076 Y103.479 E12.0510
G1 X123.867 Y103.122 E12.0740
G1 X123.677 Y102.746 E12.0988
G0 X123.219 Y102.638 F7200
G1 X123.797 Y102.060 E12.1260 F3600
G0 X123.655 Y101.636 F7200
G1 X123.058 Y102.233 E12.1541 F3600
G0 X122.911 Y101.815 F7200
G1 X123.557 Y101.169 E12.1845 F3600
G0 X123.478 Y100.682 F7200
G1 X122.798 Y101.362 E12.2165 F3600
G0 X122.700 Y100.895 F7200
G1 X123.441 Y100.153 E12.2514 F3600
G0 X123.461 Y99.568 F7200
G1 X122.657 Y100.372 E12.2892 F3600
G0 X122.643 Y99.820 F7200
G1 X123.537 Y98.926 E12.3313 F3600
G0 X123.710 Y98.188 F7200
G1 X122.686 Y99.212 E12.3794 F3600
G0 X122.825 Y98.506 F7200
G1 X124.069 Y97.263 E12.4379 F3600
G0 X124.937 Y95.829 F7200
G1 X123.091 Y97.675 E12.5248 F3600
G0 X123.642 Y96.558 F7200
G1 X126.703 Y93.498 E12.6687 F3600
G0 X126.651 Y94.115 F7200
G1 X128.044 Y92.722 E12.7343 F3600
G0 X129.081 Y92.251 F7200
G1 X128.351 Y92.981 E12.7686 F3600
G0 X129.282 Y92.332 F7200
G1 X130.625 Y91.838 E12.8003 F3600
G1 X131.429 Y91.600 E12.8282
; ------------------------------------
; Layer #10
; ------------------------------------
G92 E0 ;reset extr
G0 F3000 E-1.0000
G0 F1200 Z2.200
G0 X134.283 Y92.118 F7200
G0 X136.992 Y92.782
G0 X139.701 Y93.445
G0 F3000 E0.0000
;segType:HShell
G1 X140.474 Y94.218 E0.0364 F3600
G0 X140.474 Y93.653 F7200
G1 X139.701 Y92.880 E0.0727 F3600
G0 X139.701 Y92.314 F7200
G1 X140.474 Y93.087 E0.1091 F3600
