; GCode generated by CraftWare

G28 X0 Y0
G28 Z0


M104 S215 ;set head temp (no wait)
M190 S60 ;set bed temp (wait)
M109 S215 ;set head temp (wait)
; ------------------------------------
; Layer #0
; ------------------------------------
M106 S0 ;turn off fan
G21 ; mm
G90 ; abs
G92 E0 ;reset extr
G0 F1200 Z0.200
;segType:Skirt
G0 F3000 E-1.0000
G0 X130.842 Y71.144 F5400
G0 F3000 E0.0000
G1 X130.646 Y70.818 E0.0127 F2400
G1 X130.385 Y70.556 E0.0250
G1 X130.188 Y70.229 E0.0377
G1 X129.927 Y69.968 E0.0500
G1 X129.731 Y69.641 E0.0626
G1 X129.470 Y69.380 E0.0749
G1 X129.273 Y69.052 E0.0876
G1 X129.012 Y68.791 E0.0999
G1 X128.620 Y68.137 E0.1253
G1 X128.358 Y67.876 E0.1376
G1 X128.227 Y67.484 E0.1513
G1 X128.097 Y67.353 E0.1575
G1 X128.097 Y67.091 E0.1662
G1 X127.966 Y66.961 E0.1723
G1 X127.966 Y66.699 E0.1810
G1 X127.770 Y66.373 E0.1937
G1 X127.509 Y65.588 E0.2212
G1 X127.312 Y65.261 E0.2339
G1 X127.312 Y65.000 E0.2426
G1 X127.116 Y64.673 E0.2552
G1 X126.855 Y63.889 E0.2827
G1 X126.659 Y63.562 E0.2954
G1 X126.659 Y63.300 E0.3041
G1 X126.528 Y63.169 E0.3103
G1 X126.528 Y62.908 E0.3189
G1 X126.332 Y62.581 E0.3316
G1 X126.201 Y62.189 E0.3454
G1 X126.136 Y61.731 E0.3607
G1 X126.005 Y61.601 E0.3669
G1 X126.005 Y61.078 E0.3843
G1 X125.874 Y60.947 E0.3904
G1 X125.874 Y60.424 E0.4078
G1 X125.743 Y60.293 E0.4140
G1 X125.743 Y59.770 E0.4314
G1 X125.613 Y59.640 E0.4375
G1 X125.613 Y59.117 E0.4549
G1 X125.482 Y58.986 E0.4611
G1 X125.482 Y58.463 E0.4785
G1 X125.351 Y58.332 E0.4846
G1 X125.351 Y57.809 E0.5020
G1 X125.220 Y57.679 E0.5082
G1 X125.220 Y57.156 E0.5255
G1 X125.090 Y56.763 E0.5393
G1 X124.959 Y55.848 E0.5700
G1 X124.828 Y55.456 E0.5838
G1 X124.698 Y54.541 E0.6145
G1 X124.698 Y54.018 E0.6319
G1 X124.567 Y53.103 E0.6627
G1 X124.567 Y51.273 E0.7236
G1 X127.443 Y48.396 E0.8588
G1 X127.770 Y48.200 E0.8715
G1 X136.137 Y48.200 E1.1498
G1 X144.504 Y48.200 E1.4281
G1 X148.688 Y48.200 E1.5673
G1 X151.564 Y51.076 E1.7025
G1 X151.629 Y51.534 E1.7179
G1 X151.629 Y54.672 E1.8223
G1 X151.499 Y54.802 E1.8284
G1 X151.499 Y55.325 E1.8458
G1 X151.368 Y55.717 E1.8596
G1 X151.237 Y56.633 E1.8903
G1 X151.106 Y57.025 E1.9041
G1 X150.976 Y57.940 E1.9348
G1 X150.845 Y58.332 E1.9486
G1 X150.714 Y59.247 E1.9793
G1 X150.584 Y59.640 E1.9931
G1 X150.584 Y60.162 E2.0105
G1 X150.453 Y60.293 E2.0166
G1 X150.453 Y60.816 E2.0340
G1 X150.322 Y60.947 E2.0401
G1 X150.322 Y61.470 E2.0575
G1 X150.191 Y61.601 E2.0637
G1 X150.126 Y62.058 E2.0791
G1 X149.930 Y62.385 E2.0917
G1 X149.930 Y62.646 E2.1004
G1 X149.799 Y62.777 E2.1066
G1 X149.799 Y63.039 E2.1153
G1 X149.603 Y63.366 E2.1280
G1 X149.341 Y64.150 E2.1555
G1 X149.145 Y64.477 E2.1681
G1 X149.145 Y64.738 E2.1768
G1 X148.949 Y65.065 E2.1895
G1 X148.688 Y65.850 E2.2170
G1 X148.492 Y66.176 E2.2297
G1 X148.492 Y66.438 E2.2384
G1 X148.361 Y66.568 E2.2445
G1 X148.361 Y66.830 E2.2532
G1 X148.165 Y67.157 E2.2659
G1 X148.034 Y67.549 E2.2797
G1 X147.446 Y68.529 E2.3177
G1 X147.184 Y68.791 E2.3300
G1 X146.988 Y69.118 E2.3427
G1 X146.727 Y69.380 E2.3550
G1 X146.531 Y69.706 E2.3676
G1 X146.269 Y69.968 E2.3799
G1 X145.877 Y70.621 E2.4053
G1 X145.616 Y70.883 E2.4176
G1 X145.419 Y71.210 E2.4303
G1 X142.151 Y74.478 E2.5840
G1 X141.889 Y74.478 E2.5927
G1 X141.563 Y74.674 E2.6054
G1 X141.171 Y74.805 E2.6191
G1 X140.844 Y75.001 E2.6318
G1 X140.059 Y75.263 E2.6593
G1 X139.928 Y75.393 E2.6655
G1 X139.667 Y75.393 E2.6742
G1 X139.340 Y75.589 E2.6868
G1 X138.883 Y75.655 E2.7022
G1 X137.052 Y75.655 E2.7631
G1 X136.921 Y75.524 E2.7692
G1 X136.660 Y75.524 E2.7779
G1 X136.333 Y75.328 E2.7906
G1 X135.941 Y75.197 E2.8044
G1 X135.614 Y75.001 E2.8170
G1 X134.830 Y74.740 E2.8445
G1 X134.699 Y74.609 E2.8507
G1 X134.438 Y74.609 E2.8594
G1 X133.980 Y74.282 E2.8781
G1 X130.842 Y71.144 E3.0257
G0 X130.385 Y71.079 F5400
G1 X130.188 Y70.752 E3.0384 F2400
G1 X129.927 Y70.491 E3.0507
G1 X129.731 Y70.164 E3.0633
G1 X129.470 Y69.902 E3.0756
G1 X129.273 Y69.575 E3.0883
G1 X129.012 Y69.314 E3.1006
G1 X128.620 Y68.660 E3.1260
G1 X128.358 Y68.399 E3.1383
G1 X127.770 Y67.418 E3.1763
G1 X127.509 Y66.634 E3.2038
G1 X127.312 Y66.307 E3.2165
G1 X127.312 Y66.046 E3.2252
G1 X127.181 Y65.915 E3.2313
G1 X127.181 Y65.653 E3.2400
G1 X126.986 Y65.327 E3.2527
G1 X126.855 Y64.935 E3.2664
G1 X126.659 Y64.607 E3.2791
G1 X126.659 Y64.346 E3.2878
G1 X126.528 Y64.215 E3.2940
G1 X126.528 Y63.954 E3.3027
G1 X126.332 Y63.627 E3.3153
G1 X126.070 Y62.843 E3.3428
G1 X125.874 Y62.516 E3.3555
G1 X125.874 Y62.254 E3.3642
G1 X125.743 Y62.123 E3.3704
G1 X125.613 Y61.208 E3.4011
G1 X125.482 Y60.816 E3.4149
G1 X125.351 Y59.901 E3.4456
G1 X125.220 Y59.509 E3.4594
G1 X125.090 Y58.594 E3.4901
G1 X124.959 Y58.201 E3.5039
G1 X124.828 Y57.286 E3.5346
G1 X124.828 Y57.025 E3.5433
G1 X124.698 Y56.894 E3.5495
G1 X124.698 Y56.371 E3.5669
G1 X124.567 Y56.240 E3.5730
G1 X124.567 Y55.717 E3.5904
G1 X124.436 Y55.587 E3.5965
G1 X124.436 Y55.064 E3.6139
G1 X124.305 Y54.933 E3.6201
G1 X124.305 Y53.626 E3.6636
G1 X124.175 Y53.495 E3.6697
G1 X124.175 Y51.403 E3.7393
G1 X124.371 Y51.076 E3.7520
G1 X127.639 Y47.808 E3.9057
G1 X136.006 Y47.808 E4.1840
G1 X144.373 Y47.808 E4.4623
G1 X148.557 Y47.808 E4.6014
G1 X148.884 Y48.004 E4.6141
G1 X152.022 Y51.142 E4.7617
G1 X152.022 Y54.279 E4.8661
G1 X151.891 Y55.195 E4.8968
G1 X151.891 Y55.456 E4.9055
G1 X151.760 Y55.587 E4.9117
G1 X151.760 Y56.110 E4.9291
G1 X151.629 Y56.240 E4.9352
G1 X151.629 Y56.763 E4.9526
G1 X151.499 Y56.894 E4.9587
G1 X151.499 Y57.417 E4.9761
G1 X151.368 Y57.548 E4.9823
G1 X151.368 Y58.071 E4.9997
G1 X151.237 Y58.201 E5.0058
G1 X151.237 Y58.724 E5.0232
G1 X151.106 Y58.855 E5.0294
G1 X151.106 Y59.378 E5.0468
G1 X150.976 Y59.509 E5.0529
G1 X150.976 Y60.032 E5.0703
G1 X150.845 Y60.424 E5.0841
G1 X150.714 Y61.339 E5.1148
G1 X150.584 Y61.731 E5.1286
G1 X150.584 Y61.993 E5.1373
G1 X150.387 Y62.320 E5.1499
G1 X150.126 Y63.104 E5.1774
G1 X149.930 Y63.431 E5.1901
G1 X149.930 Y63.692 E5.1988
G1 X149.799 Y63.823 E5.2050
G1 X149.799 Y64.085 E5.2136
G1 X149.603 Y64.412 E5.2263
G1 X149.472 Y64.804 E5.2401
G1 X149.276 Y65.130 E5.2528
G1 X149.276 Y65.392 E5.2615
G1 X149.145 Y65.523 E5.2676
G1 X149.145 Y65.784 E5.2763
G1 X148.949 Y66.111 E5.2890
G1 X148.688 Y66.896 E5.3165
G1 X148.492 Y67.222 E5.3292
G1 X148.492 Y67.484 E5.3378
G1 X148.100 Y68.137 E5.3632
G1 X147.838 Y68.399 E5.3755
G1 X147.446 Y69.052 E5.4009
G1 X147.184 Y69.314 E5.4132
G1 X146.988 Y69.641 E5.4258
G1 X146.727 Y69.902 E5.4381
G1 X146.531 Y70.229 E5.4508
G1 X146.269 Y70.491 E5.4631
G1 X145.877 Y71.144 E5.4885
G1 X142.216 Y74.805 E5.6606
G1 X141.824 Y74.935 E5.6744
G1 X141.497 Y75.132 E5.6871
G1 X141.236 Y75.132 E5.6958
G1 X140.582 Y75.524 E5.7211
G1 X140.321 Y75.524 E5.7298
G1 X139.994 Y75.720 E5.7425
G1 X139.602 Y75.851 E5.7562
G1 X139.275 Y76.047 E5.7689
G1 X137.183 Y76.047 E5.8385
G1 X136.791 Y75.916 E5.8523
G1 X136.399 Y75.786 E5.8660
G1 X136.268 Y75.655 E5.8722
G1 X136.006 Y75.655 E5.8809
G1 X135.353 Y75.263 E5.9062
G1 X135.091 Y75.263 E5.9149
G1 X134.764 Y75.066 E5.9276
G1 X134.372 Y74.935 E5.9413
G1 X134.045 Y74.740 E5.9540
G1 X130.385 Y71.079 E6.1262
G0 X129.927 Y71.013 F5400
G1 X129.731 Y70.687 E6.1389 F2400
G1 X129.470 Y70.425 E6.1512
G1 X129.273 Y70.098 E6.1638
G1 X129.012 Y69.837 E6.1761
G1 X128.620 Y69.183 E6.2015
G1 X128.358 Y68.922 E6.2138
G1 X128.162 Y68.595 E6.2265
G1 X127.901 Y68.334 E6.2388
G1 X127.312 Y67.353 E6.2768
G1 X127.312 Y67.091 E6.2855
G1 X127.181 Y66.961 E6.2916
G1 X127.181 Y66.699 E6.3003
G1 X126.986 Y66.373 E6.3130
G1 X126.724 Y65.588 E6.3405
G1 X126.528 Y65.261 E6.3532
G1 X126.528 Y65.000 E6.3619
G1 X126.332 Y64.673 E6.3746
G1 X126.070 Y63.889 E6.4021
G1 X125.874 Y63.562 E6.4148
G1 X125.874 Y63.300 E6.4234
G1 X125.743 Y63.169 E6.4296
G1 X125.743 Y62.908 E6.4383
G1 X125.548 Y62.581 E6.4510
G1 X125.417 Y62.189 E6.4647
G1 X125.351 Y61.731 E6.4801
G1 X125.220 Y61.601 E6.4862
G1 X125.220 Y61.078 E6.5036
G1 X125.090 Y60.947 E6.5098
G1 X125.090 Y60.424 E6.5272
G1 X124.959 Y60.293 E6.5333
G1 X124.959 Y59.770 E6.5507
G1 X124.828 Y59.640 E6.5569
G1 X124.828 Y59.117 E6.5743
G1 X124.698 Y58.986 E6.5804
G1 X124.698 Y58.463 E6.5978
G1 X124.567 Y58.332 E6.6040
G1 X124.567 Y57.809 E6.6213
G1 X124.436 Y57.679 E6.6275
G1 X124.436 Y57.156 E6.6449
G1 X124.305 Y56.763 E6.6586
G1 X124.175 Y55.848 E6.6894
G1 X124.044 Y55.456 E6.7031
G1 X123.913 Y54.541 E6.7339
G1 X123.913 Y54.018 E6.7513
G1 X123.782 Y53.103 E6.7820
G1 X123.782 Y51.273 E6.8429
G1 X127.443 Y47.612 E7.0151
G1 X127.770 Y47.416 E7.0278
G1 X136.137 Y47.416 E7.3061
G1 X144.504 Y47.416 E7.5843
G1 X148.688 Y47.416 E7.7235
G1 X152.348 Y51.076 E7.8957
G1 X152.414 Y51.534 E7.9111
G1 X152.414 Y54.672 E8.0154
G1 X152.283 Y54.802 E8.0216
G1 X152.283 Y55.325 E8.0390
G1 X152.152 Y55.717 E8.0527
G1 X152.022 Y56.633 E8.0835
G1 X151.891 Y57.025 E8.0972
G1 X151.760 Y57.940 E8.1280
G1 X151.629 Y58.332 E8.1417
G1 X151.499 Y59.247 E8.1724
G1 X151.451 Y59.391 E8.1775
;segType:HShell
G0 F3000 E7.1775
G0 X143.032 Y66.488 F5400
G0 F3000 E8.1775
G1 X129.675 Y53.131 E8.8058 F2400
;segType:Perimeter
G0 X129.130 Y53.129 F5400
G1 X128.877 Y52.370 E8.8324 F1440
G1 X147.588 Y52.370 E9.4547
G1 X147.514 Y53.599 E9.4957
G1 X146.100 Y60.854 E9.7415
G1 X143.904 Y66.592 E9.9458
G1 X141.166 Y70.236 E10.0975
G1 X138.203 Y71.462 E10.2041
G1 X135.240 Y70.236 E10.3107
G1 X132.502 Y66.592 E10.4623
G1 X130.306 Y60.853 E10.6667
G1 X128.891 Y53.597 E10.9126
G1 X128.821 Y52.430 E10.9515
G0 X129.593 Y52.637 F5400
;segType:Loop
G0 X129.917 Y52.770
G1 X147.163 Y52.770 E11.5251 F2400
G1 X147.116 Y53.549 E11.5510
G1 X145.714 Y60.743 E11.7948
G1 X143.550 Y66.397 E11.9962
G1 X140.912 Y69.909 E12.1423
G1 X138.203 Y71.029 E12.2397
G1 X135.494 Y69.909 E12.3372
G1 X132.856 Y66.397 E12.4833
G1 X130.692 Y60.742 E12.6847
G1 X129.289 Y53.547 E12.9285
G1 X129.242 Y52.770 E12.9544
G1 X129.717 Y52.770 E12.9702
;segType:HShell
G0 X129.688 Y53.709 F5400
G1 X142.789 Y66.811 E13.5865 F2400
G0 X142.546 Y67.134 F5400
G1 X129.825 Y54.412 E14.1849 F2400
G0 X129.962 Y55.115 F5400
G1 X142.304 Y67.457 E14.7654 F2400
G0 X142.061 Y67.780 F5400
G1 X130.099 Y55.817 E15.3281 F2400
G0 X130.236 Y56.520 F5400
G1 X141.818 Y68.103 E15.8729 F2400
G0 X141.576 Y68.426 F5400
G1 X130.373 Y57.223 E16.3998 F2400
G0 X130.510 Y57.926 F5400
G1 X141.333 Y68.749 E16.9089 F2400
G0 X141.090 Y69.072 F5400
G1 X130.647 Y58.628 E17.4001 F2400
G0 X130.784 Y59.331 F5400
G1 X140.847 Y69.395 E17.8735 F2400
G0 X140.554 Y69.667 F5400
G1 X130.921 Y60.034 E18.3266 F2400
G0 X131.087 Y60.765 F5400
G1 X140.154 Y69.832 E18.7530 F2400
G0 X139.754 Y69.998 F5400
G1 X131.437 Y61.681 E19.1442 F2400
G0 X131.788 Y62.598 F5400
G1 X139.354 Y70.163 E19.5001 F2400
G0 X138.953 Y70.329 F5400
G1 X132.138 Y63.514 E19.8207 F2400
G0 X132.489 Y64.430 F5400
G1 X138.553 Y70.495 E20.1059 F2400
G0 X138.083 Y70.590 F5400
G1 X132.839 Y65.346 E20.3526 F2400
G0 X133.251 Y66.324 F5400
G1 X137.118 Y70.191 E20.5345 F2400
G0 X136.153 Y69.792 F5400
G1 X134.961 Y68.599 E20.5905 F2400
G0 X143.259 Y66.150 F5400
G1 X130.240 Y53.131 E21.2029 F2400
G0 X130.806 Y53.131 F5400
G1 X143.416 Y65.741 E21.7961 F2400
G0 X143.573 Y65.331 F5400
G1 X131.372 Y53.131 E22.3699 F2400
G0 X131.937 Y53.131 F5400
G1 X143.729 Y64.922 E22.9246 F2400
G0 X143.886 Y64.513 F5400
G1 X132.503 Y53.131 E23.4600 F2400
G0 X133.069 Y53.131 F5400
G1 X144.042 Y64.104 E23.9761 F2400
G0 X144.199 Y63.695 F5400
G1 X133.634 Y53.131 E24.4731 F2400
G0 X134.200 Y53.131 F5400
G1 X144.355 Y63.286 E24.9507 F2400
G0 X144.512 Y62.877 F5400
G1 X134.766 Y53.131 E25.4091 F2400
G0 X135.332 Y53.131 F5400
G1 X144.668 Y62.467 E25.8483 F2400
G0 X144.825 Y62.058 F5400
G1 X135.897 Y53.131 E26.2682 F2400
G0 X136.463 Y53.131 F5400
G1 X144.981 Y61.649 E26.6689 F2400
G0 X145.138 Y61.240 F5400
G1 X137.029 Y53.131 E27.0504 F2400
G0 X137.594 Y53.131 F5400
G1 X145.294 Y60.831 E27.4126 F2400
G0 X145.416 Y60.387 F5400
G1 X138.160 Y53.131 E27.7539 F2400
G0 X138.726 Y53.131 F5400
G1 X145.508 Y59.913 E28.0729 F2400
G0 X145.601 Y59.440 F5400
G1 X139.291 Y53.131 E28.3697 F2400
G0 X139.857 Y53.131 F5400
G1 X145.693 Y58.967 E28.6442 F2400
G0 X145.785 Y58.493 F5400
G1 X140.423 Y53.131 E28.8964 F2400
G0 X140.988 Y53.131 F5400
G1 X145.878 Y58.020 E29.1264 F2400
G0 X145.970 Y57.546 F5400
G1 X141.554 Y53.131 E29.3341 F2400
G0 X142.120 Y53.131 F5400
G1 X146.062 Y57.073 E29.5196 F2400
G0 X146.154 Y56.600 F5400
G1 X142.685 Y53.131 E29.6827 F2400
G0 X143.251 Y53.131 F5400
G1 X146.247 Y56.126 E29.8236 F2400
G0 X146.339 Y55.653 F5400
G1 X143.817 Y53.131 E29.9423 F2400
G0 X144.382 Y53.131 F5400
G1 X146.431 Y55.179 E30.0386 F2400
G0 X146.524 Y54.706 F5400
G1 X144.948 Y53.131 E30.1127 F2400
G0 X145.514 Y53.131 F5400
G1 X146.616 Y54.233 E30.1646 F2400
G0 X146.708 Y53.759 F5400
G1 X146.080 Y53.131 E30.1941 F2400
; ------------------------------------
; Layer #1
; ------------------------------------
M106 S0 ;turn off fan
G92 E0 ;reset extr
;segType:HShell
G0 F3000 E-1.0000
G0 F1200 Z0.400
G0 X132.673 Y53.213 F7200
G0 F3000 E0.0000
G1 X130.173 Y55.713 E0.1176 F3600
G0 X130.080 Y55.240 F7200
G1 X132.107 Y53.213 E0.2129 F3600
G0 X131.541 Y53.213 F7200
G1 X129.988 Y54.767 E0.2860 F3600
G0 X129.896 Y54.293 F7200
G1 X130.976 Y53.213 E0.3368 F3600
G0 X130.410 Y53.213 F7200
G1 X129.803 Y53.820 E0.3653 F3600
;segType:Perimeter
G0 X128.911 Y52.453 F7200
G1 X147.554 Y52.453 E0.9854 F2160
G1 X147.514 Y53.117 E1.0075
G1 X146.100 Y60.371 E1.2533
G1 X143.904 Y66.110 E1.4577
G1 X141.166 Y69.754 E1.6093
G1 X138.203 Y70.979 E1.7159
G1 X135.240 Y69.754 E1.8226
G1 X132.502 Y66.110 E1.9742
G1 X130.306 Y60.370 E2.1786
G1 X128.891 Y53.115 E2.4244
G1 X128.855 Y52.513 E2.4445
G0 X129.628 Y52.720 F7200
;segType:Loop
G0 X129.951 Y52.853
G1 X147.129 Y52.853 E3.0158 F3600
G1 X147.116 Y53.066 E3.0229
G1 X145.714 Y60.261 E3.2667
G1 X143.550 Y65.914 E3.4680
G1 X140.912 Y69.426 E3.6141
G1 X138.203 Y70.546 E3.7116
G1 X135.494 Y69.426 E3.8091
G1 X132.856 Y65.914 E3.9552
G1 X130.692 Y60.259 E4.1566
G1 X129.289 Y53.064 E4.4004
G1 X129.276 Y52.853 E4.4074
G1 X129.751 Y52.853 E4.4232
;segType:HShell
G0 X130.265 Y56.187 F7200
G1 X133.238 Y53.213 E4.5631 F3600
G0 X133.804 Y53.213 F7200
G1 X130.357 Y56.660 E4.7252 F3600
G0 X130.450 Y57.133 F7200
G1 X134.370 Y53.213 E4.9096 F3600
G0 X134.935 Y53.213 F7200
G1 X130.542 Y57.607 E5.1163 F3600
G0 X130.634 Y58.080 F7200
G1 X135.501 Y53.213 E5.3452 F3600
G0 X136.067 Y53.213 F7200
G1 X130.727 Y58.554 E5.5964 F3600
G0 X130.819 Y59.027 F7200
G1 X136.633 Y53.213 E5.8699 F3600
G0 X137.198 Y53.213 F7200
G1 X130.911 Y59.500 E6.1656 F3600
G0 X131.004 Y59.974 F7200
G1 X137.764 Y53.213 E6.4836 F3600
G0 X138.330 Y53.213 F7200
G1 X131.135 Y60.408 E6.8220 F3600
G0 X131.291 Y60.817 F7200
G1 X138.895 Y53.213 E7.1797 F3600
G0 X139.461 Y53.213 F7200
G1 X131.448 Y61.226 E7.5566 F3600
G0 X131.604 Y61.636 F7200
G1 X140.027 Y53.213 E7.9527 F3600
G0 X140.592 Y53.213 F7200
G1 X131.761 Y62.045 E8.3681 F3600
G0 X131.917 Y62.454 F7200
G1 X141.158 Y53.213 E8.8028 F3600
G0 X141.724 Y53.213 F7200
G1 X132.074 Y62.863 E9.2567 F3600
G0 X132.231 Y63.272 F7200
G1 X142.289 Y53.213 E9.7298 F3600
G0 X142.855 Y53.213 F7200
G1 X132.387 Y63.681 E10.2222 F3600
G0 X132.544 Y64.090 F7200
G1 X143.421 Y53.213 E10.7338 F3600
G0 X143.986 Y53.213 F7200
G1 X132.700 Y64.500 E11.2647 F3600
G0 X132.857 Y64.909 F7200
G1 X144.552 Y53.213 E11.8148 F3600
G0 X145.118 Y53.213 F7200
G1 X133.013 Y65.318 E12.3842 F3600
G0 X133.170 Y65.727 F7200
G1 X145.683 Y53.213 E12.9728 F3600
G0 X146.249 Y53.213 F7200
G1 X133.410 Y66.052 E13.5767 F3600
G0 X133.653 Y66.375 F7200
G1 X146.698 Y53.331 E14.1903 F3600
G0 X146.561 Y54.033 F7200
G1 X133.895 Y66.698 E14.7860 F3600
G0 X134.138 Y67.021 F7200
G1 X146.424 Y54.736 E15.3639 F3600
G0 X146.287 Y55.439 F7200
G1 X134.381 Y67.344 E15.9239 F3600
G0 X134.623 Y67.667 F7200
G1 X146.150 Y56.141 E16.4660 F3600
G0 X146.013 Y56.844 F7200
G1 X134.866 Y67.990 E16.9903 F3600
G0 X135.109 Y68.313 F7200
G1 X145.876 Y57.547 E17.4968 F3600
G0 X145.739 Y58.249 F7200
G1 X135.351 Y68.637 E17.9854 F3600
G0 X135.594 Y68.960 F7200
G1 X145.602 Y58.952 E18.4561 F3600
G0 X145.465 Y59.655 F7200
G1 X135.911 Y69.209 E18.9055 F3600
G0 X136.311 Y69.374 F7200
G1 X145.268 Y60.417 E19.3268 F3600
G0 X144.918 Y61.333 F7200
G1 X136.711 Y69.540 E19.7128 F3600
G0 X137.111 Y69.705 F7200
G1 X144.567 Y62.249 E20.0635 F3600
G0 X144.216 Y63.166 F7200
G1 X137.511 Y69.871 E20.3789 F3600
G0 X137.912 Y70.036 F7200
G1 X143.866 Y64.082 E20.6589 F3600
G0 X143.515 Y64.998 F7200
G1 X138.465 Y70.048 E20.8965 F3600
G0 X139.430 Y69.649 F7200
G1 X142.903 Y66.176 E21.0598 F3600
G0 X141.194 Y68.451 F7200
G1 X140.395 Y69.250 E21.0974 F3600
; ------------------------------------
; Layer #2
; ------------------------------------
M106 S0 ;turn off fan
G92 E0 ;reset extr
;segType:HShell
G0 F3000 E-1.0000
G0 F1200 Z0.600
G0 X142.617 Y66.073 F7200
G0 F3000 E0.0000
G1 X129.852 Y53.308 E0.6004 F3600
;segType:Perimeter
G0 X129.199 Y53.295 F7200
G1 X128.945 Y52.536 E0.6270 F2160
G1 X147.520 Y52.536 E1.2448
G1 X147.514 Y52.634 E1.2481
G1 X146.100 Y59.888 E1.4939
G1 X143.904 Y65.627 E1.6983
G1 X141.166 Y69.271 E1.8499
G1 X138.203 Y70.496 E1.9565
G1 X135.240 Y69.271 E2.0631
G1 X132.502 Y65.627 E2.2148
G1 X130.306 Y59.888 E2.4191
G1 X128.891 Y52.632 E2.6650
G1 X128.889 Y52.596 E2.6662
G0 X129.662 Y52.803 F7200
;segType:Loop
G0 X129.985 Y52.936
G1 X147.001 Y52.936 E3.2321 F3600
G1 X147.026 Y53.045 E3.2359
G1 X145.714 Y59.778 E3.4640
G1 X143.550 Y65.431 E3.6653
G1 X140.912 Y68.943 E3.8114
G1 X138.203 Y70.063 E3.9089
G1 X135.494 Y68.943 E4.0064
G1 X132.856 Y65.431 E4.1525
G1 X130.692 Y59.777 E4.3539
G1 X129.379 Y53.045 E4.5820
G1 X129.401 Y52.936 E4.5857
G1 X129.785 Y52.936 E4.5985
;segType:HShell
G0 X130.406 Y53.296 F7200
G1 X142.860 Y65.750 E5.1843 F3600
G0 X143.103 Y65.427 F7200
G1 X130.972 Y53.296 E5.7549 F3600
G0 X131.537 Y53.296 F7200
G1 X143.305 Y65.064 E6.3084 F3600
G0 X143.462 Y64.655 F7200
G1 X132.103 Y53.296 E6.8427 F3600
G0 X132.669 Y53.296 F7200
G1 X143.618 Y64.246 E7.3577 F3600
G0 X143.775 Y63.837 F7200
G1 X133.234 Y53.296 E7.8535 F3600
G0 X133.800 Y53.296 F7200
G1 X143.931 Y63.428 E8.3301 F3600
G0 X144.088 Y63.018 F7200
G1 X134.366 Y53.296 E8.7874 F3600
G0 X134.932 Y53.296 F7200
G1 X144.245 Y62.609 E9.2254 F3600
G0 X144.401 Y62.200 F7200
G1 X135.497 Y53.296 E9.6442 F3600
G0 X136.063 Y53.296 F7200
G1 X144.558 Y61.791 E10.0438 F3600
G0 X144.714 Y61.382 F7200
G1 X136.629 Y53.296 E10.4241 F3600
G0 X137.194 Y53.296 F7200
G1 X144.871 Y60.973 E10.7852 F3600
G0 X145.027 Y60.564 F7200
G1 X137.760 Y53.296 E11.1270 F3600
G0 X138.326 Y53.296 F7200
G1 X145.184 Y60.154 E11.4496 F3600
G0 X145.340 Y59.745 F7200
G1 X138.891 Y53.296 E11.7529 F3600
G0 X139.457 Y53.296 F7200
G1 X145.443 Y59.282 E12.0345 F3600
G0 X145.535 Y58.809 F7200
G1 X140.023 Y53.296 E12.2938 F3600
G0 X140.588 Y53.296 F7200
G1 X145.628 Y58.336 E12.5309 F3600
G0 X145.720 Y57.862 F7200
G1 X141.154 Y53.296 E12.7456 F3600
G0 X141.720 Y53.296 F7200
G1 X145.812 Y57.389 E12.9381 F3600
G0 X145.905 Y56.915 F7200
G1 X142.285 Y53.296 E13.1084 F3600
G0 X142.851 Y53.296 F7200
G1 X145.997 Y56.442 E13.2563 F3600
G0 X146.089 Y55.969 F7200
G1 X143.417 Y53.296 E13.3820 F3600
G0 X143.982 Y53.296 F7200
G1 X146.181 Y55.495 E13.4855 F3600
G0 X146.274 Y55.022 F7200
G1 X144.548 Y53.296 E13.5666 F3600
G0 X145.114 Y53.296 F7200
G1 X146.366 Y54.548 E13.6255 F3600
G0 X146.458 Y54.075 F7200
G1 X145.680 Y53.296 E13.6621 F3600
G0 X146.245 Y53.296 F7200
G1 X146.551 Y53.602 E13.6765 F3600
G0 X142.375 Y66.396 F7200
G1 X129.921 Y53.943 E14.2623 F3600
G0 X130.059 Y54.646 F7200
G1 X142.132 Y66.719 E14.8302 F3600
G0 X141.889 Y67.042 F7200
G1 X130.196 Y55.349 E15.3802 F3600
G0 X130.333 Y56.051 F7200
G1 X141.647 Y67.365 E15.9124 F3600
G0 X141.404 Y67.688 F7200
G1 X130.470 Y56.754 E16.4267 F3600
G0 X130.607 Y57.457 F7200
G1 X141.161 Y68.011 E16.9232 F3600
G0 X140.919 Y68.334 F7200
G1 X130.744 Y58.160 E17.4018 F3600
G0 X130.881 Y58.862 F7200
G1 X140.671 Y68.653 E17.8623 F3600
G0 X140.271 Y68.818 F7200
G1 X131.018 Y59.565 E18.2975 F3600
G0 X131.334 Y60.447 F7200
G1 X139.871 Y68.984 E18.6991 F3600
G0 X139.471 Y69.149 F7200
G1 X131.685 Y61.363 E19.0653 F3600
G0 X132.035 Y62.280 F7200
G1 X139.071 Y69.315 E19.3962 F3600
G0 X138.671 Y69.480 F7200
G1 X132.386 Y63.196 E19.6918 F3600
G0 X132.737 Y64.112 F7200
G1 X138.270 Y69.646 E19.9521 F3600
G0 X137.401 Y69.342 F7200
G1 X133.087 Y65.028 E20.1550 F3600
G0 X134.459 Y66.966 F7200
G1 X136.436 Y68.943 E20.2480 F3600
; ------------------------------------
; Layer #3
; ------------------------------------
M106 S255 ;set fan speed
G92 E0 ;reset extr
;segType:HShell
G0 F3000 E-1.0000
G0 F1200 Z0.800
G0 X130.422 Y56.029 F7200
G0 F3000 E0.0000
G1 X133.073 Y53.379 E0.1247 F3600
G0 X132.507 Y53.379 F7200
G1 X130.330 Y55.556 E0.2271 F3600
G0 X130.238 Y55.083 F7200
G1 X131.941 Y53.379 E0.3072 F3600
G0 X131.376 Y53.379 F7200
G1 X130.145 Y54.609 E0.3651 F3600
G0 X130.053 Y54.136 F7200
G1 X130.810 Y53.379 E0.4007 F3600
G0 X130.244 Y53.379 F7200
G1 X129.961 Y53.663 E0.4140 F3600
;segType:Perimeter
G0 X129.394 Y53.338 F7200
G1 X129.043 Y52.619 E0.4406 F2160
G1 X147.422 Y52.619 E1.0519
G1 X146.100 Y59.405 E1.2819
G1 X143.904 Y65.144 E1.4862
G1 X141.166 Y68.788 E1.6378
G1 X138.203 Y70.014 E1.7445
G1 X135.240 Y68.788 E1.8511
G1 X132.502 Y65.144 E2.0027
G1 X130.306 Y59.405 E2.2071
G1 X128.994 Y52.678 E2.4351
G0 X129.767 Y52.885 F7200
;segType:Loop
G0 X130.083 Y53.019
G1 X146.937 Y53.019 E2.9956 F3600
G1 X145.714 Y59.294 E3.2083
G1 X143.550 Y64.948 E3.4096
G1 X140.912 Y68.460 E3.5557
G1 X138.203 Y69.581 E3.6532
G1 X135.494 Y68.460 E3.7507
G1 X132.856 Y64.948 E3.8968
G1 X130.692 Y59.294 E4.0982
G1 X129.468 Y53.019 E4.3108
G1 X129.883 Y53.019 E4.3246
;segType:HShell
G0 X130.515 Y56.503 F7200
G1 X133.638 Y53.379 E4.4715 F3600
G0 X134.204 Y53.379 F7200
G1 X130.607 Y56.976 E4.6407 F3600
G0 X130.699 Y57.449 F7200
G1 X134.770 Y53.379 E4.8322 F3600
G0 X135.335 Y53.379 F7200
G1 X130.792 Y57.923 E5.0459 F3600
G0 X130.884 Y58.396 F7200
G1 X135.901 Y53.379 E5.2819 F3600
G0 X136.467 Y53.379 F7200
G1 X130.976 Y58.869 E5.5401 F3600
G0 X131.089 Y59.323 F7200
G1 X137.032 Y53.379 E5.8197 F3600
G0 X137.598 Y53.379 F7200
G1 X131.245 Y59.732 E6.1185 F3600
G0 X131.402 Y60.141 F7200
G1 X138.164 Y53.379 E6.4366 F3600
G0 X138.730 Y53.379 F7200
G1 X131.558 Y60.550 E6.7739 F3600
G0 X131.715 Y60.959 F7200
G1 X139.295 Y53.379 E7.1304 F3600
G0 X139.861 Y53.379 F7200
G1 X131.872 Y61.368 E7.5062 F3600
G0 X132.028 Y61.778 F7200
G1 X140.427 Y53.379 E7.9013 F3600
G0 X140.992 Y53.379 F7200
G1 X132.185 Y62.187 E8.3156 F3600
G0 X132.341 Y62.596 F7200
G1 X141.558 Y53.379 E8.7491 F3600
G0 X142.124 Y53.379 F7200
G1 X132.498 Y63.005 E9.2019 F3600
G0 X132.654 Y63.414 F7200
G1 X142.689 Y53.379 E9.6739 F3600
G0 X143.255 Y53.379 F7200
G1 X132.811 Y63.823 E10.1652 F3600
G0 X132.967 Y64.232 F7200
G1 X143.821 Y53.379 E10.6757 F3600
G0 X144.386 Y53.379 F7200
G1 X133.124 Y64.641 E11.2054 F3600
G0 X133.339 Y64.992 F7200
G1 X144.952 Y53.379 E11.7517 F3600
G0 X145.518 Y53.379 F7200
G1 X133.582 Y65.315 E12.3131 F3600
G0 X133.824 Y65.638 F7200
G1 X146.083 Y53.379 E12.8897 F3600
G0 X146.463 Y53.565 F7200
G1 X134.067 Y65.961 E13.4728 F3600
G0 X134.310 Y66.284 F7200
G1 X146.326 Y54.267 E14.0380 F3600
G0 X146.189 Y54.970 F7200
G1 X134.552 Y66.607 E14.5854 F3600
G0 X134.795 Y66.930 F7200
G1 X146.053 Y55.673 E15.1149 F3600
G0 X145.916 Y56.375 F7200
G1 X135.038 Y67.253 E15.6266 F3600
G0 X135.280 Y67.576 F7200
G1 X145.779 Y57.078 E16.1204 F3600
G0 X145.642 Y57.780 F7200
G1 X135.523 Y67.899 E16.5964 F3600
G0 X135.794 Y68.194 F7200
G1 X145.505 Y58.483 E17.0532 F3600
G0 X145.368 Y59.186 F7200
G1 X136.194 Y68.360 E17.4847 F3600
G0 X136.594 Y68.525 F7200
G1 X145.020 Y60.099 E17.8810 F3600
G0 X144.670 Y61.015 F7200
G1 X136.994 Y68.691 E18.2421 F3600
G0 X137.394 Y68.857 F7200
G1 X144.319 Y61.932 E18.5678 F3600
G0 X143.968 Y62.848 F7200
G1 X137.794 Y69.022 E18.8582 F3600
G0 X138.194 Y69.188 F7200
G1 X143.618 Y63.764 E19.1133 F3600
G0 X143.267 Y64.680 F7200
G1 X139.147 Y68.801 E19.3071 F3600
G0 X140.112 Y68.401 F7200
G1 X141.694 Y66.819 E19.3815 F3600
; ------------------------------------
; Layer #4
; ------------------------------------
G92 E0 ;reset extr
;segType:Infill
G0 X141.860 Y64.185 F7200
G0 F1200 Z1.000
G1 X131.468 Y53.793 E0.5865 F4500
;segType:Perimeter
G0 X129.504 Y53.420 F7200
G1 X129.153 Y52.702 E0.6132 F2160
G1 X147.312 Y52.702 E1.2171
G1 X146.100 Y58.922 E1.4279
G1 X143.904 Y64.661 E1.6323
G1 X141.166 Y68.305 E1.7839
G1 X138.203 Y69.531 E1.8905
G1 X135.240 Y68.305 E1.9972
G1 X132.502 Y64.661 E2.1488
G1 X130.306 Y58.922 E2.3532
G1 X129.104 Y52.760 E2.5620
G0 X129.877 Y52.968 F7200
;segType:Loop
G0 X130.193 Y53.102
G1 X146.827 Y53.102 E3.1152 F3600
G1 X145.714 Y58.812 E3.3087
G1 X143.550 Y64.466 E3.5100
G1 X140.912 Y67.977 E3.6561
G1 X138.203 Y69.098 E3.7536
G1 X135.494 Y67.977 E3.8511
G1 X132.856 Y64.466 E3.9972
G1 X130.692 Y58.812 E4.1986
G1 X129.579 Y53.102 E4.3921
G1 X129.993 Y53.102 E4.4059
;segType:Infill
G0 X131.727 Y58.577 F7200
G1 X139.422 Y66.273 E4.8402 F4500
G0 X143.599 Y61.398 F7200
G1 X135.994 Y53.793 E5.2695 F4500
G0 X140.519 Y53.793 F7200
G1 X144.852 Y58.125 E5.5140 F4500
G0 X145.801 Y54.549 F7200
G1 X145.045 Y53.793 E5.5567 F4500
;segType:HShell
G0 X131.933 Y61.046 F7200
G1 X133.130 Y62.242 E5.6130 F3600
G0 X132.779 Y61.326 F7200
G1 X131.582 Y60.129 E5.6693 F3600
G0 X131.232 Y59.213 F7200
G1 X132.429 Y60.410 E5.7256 F3600
G0 X132.078 Y59.494 F7200
G1 X130.978 Y58.394 E5.7774 F3600
G0 X130.841 Y57.691 F7200
G1 X131.727 Y58.577 E5.8191 F3600
G0 X131.377 Y57.661 F7200
G1 X130.704 Y56.988 E5.8507 F3600
G0 X130.869 Y56.871 F7200
G1 X130.663 Y55.816 E5.8746 F3600
G1 X130.526 Y55.114 E5.8984
G1 X130.389 Y54.411 E5.9222
G1 X130.252 Y53.708 E5.9460
G1 X130.737 Y53.627 E5.9680
G1 X131.303 Y53.627 E5.9868
G1 X131.868 Y53.627 E6.0056
G1 X132.434 Y53.627 E6.0245
G1 X133.000 Y53.627 E6.0433
G1 X133.566 Y53.627 E6.0621
G1 X134.131 Y53.627 E6.0809
G1 X134.697 Y53.627 E6.0997
G1 X135.263 Y53.627 E6.1185
G1 X135.828 Y53.627 E6.1373
G1 X136.394 Y53.627 E6.1562
G1 X136.960 Y53.627 E6.1750
G1 X137.525 Y53.627 E6.1938
G1 X138.091 Y53.627 E6.2126
G1 X138.657 Y53.627 E6.2314
G1 X139.222 Y53.627 E6.2502
G1 X139.788 Y53.627 E6.2691
G1 X140.354 Y53.627 E6.2879
G1 X140.919 Y53.627 E6.3067
G1 X141.485 Y53.627 E6.3255
G1 X142.051 Y53.627 E6.3443
G1 X142.616 Y53.627 E6.3631
G1 X143.182 Y53.627 E6.3819
G1 X143.748 Y53.627 E6.4008
G1 X144.314 Y53.627 E6.4196
G1 X144.879 Y53.627 E6.4384
G1 X145.445 Y53.627 E6.4572
G0 X146.084 Y53.418 F7200
G1 X146.051 Y54.233 E6.4786 F3600
G1 X145.959 Y54.707 E6.4947
G1 X145.866 Y55.180 E6.5107
G1 X145.774 Y55.654 E6.5268
G1 X145.682 Y56.127 E6.5428
G1 X145.590 Y56.600 E6.5589
G1 X145.488 Y57.065 E6.5747
G1 X145.364 Y57.506 E6.5903
G1 X145.239 Y57.947 E6.6091
G1 X145.115 Y58.388 E6.6308
G1 X144.962 Y58.802 E6.6555
G1 X144.806 Y59.211 E6.6807
G1 X144.649 Y59.620 E6.7058
G1 X144.493 Y60.029 E6.7310
G1 X144.336 Y60.438 E6.7561
G1 X144.180 Y60.847 E6.7812
G1 X144.023 Y61.257 E6.8064
G1 X143.867 Y61.666 E6.8315
G1 X143.710 Y62.075 E6.8567
G1 X143.554 Y62.484 E6.8818
G0 X143.073 Y62.569 F7200
G1 X143.664 Y63.160 E6.9096 F3600
G0 X143.508 Y63.569 F7200
G1 X142.831 Y62.892 E6.9414 F3600
G0 X142.588 Y63.216 F7200
G1 X143.351 Y63.979 E6.9773 F3600
G0 X143.174 Y64.367 F7200
G1 X142.345 Y63.539 E7.0163 F3600
G0 X142.103 Y63.862 F7200
G1 X142.931 Y64.690 E7.0553 F3600
G0 X142.689 Y65.013 F7200
G1 X141.860 Y64.185 E7.0942 F3600
G0 X141.617 Y64.508 F7200
G1 X142.446 Y65.336 E7.1332 F3600
G0 X142.203 Y65.659 F7200
G1 X141.375 Y64.831 E7.1722 F3600
G0 X141.132 Y65.154 F7200
G1 X141.960 Y65.982 E7.2112 F3600
G0 X141.718 Y66.305 F7200
G1 X140.889 Y65.477 E7.2501 F3600
G0 X140.623 Y65.776 F7200
G1 X141.475 Y66.628 E7.2902 F3600
G0 X141.232 Y66.951 F7200
G1 X140.223 Y65.941 E7.3377 F3600
G0 X139.823 Y66.107 F7200
G1 X140.990 Y67.274 E7.3926 F3600
G0 X140.747 Y67.597 F7200
G1 X139.422 Y66.273 E7.4549 F3600
G0 X139.022 Y66.438 F7200
G1 X140.388 Y67.804 E7.5191 F3600
G0 X139.988 Y67.970 F7200
G1 X138.622 Y66.604 E7.5834 F3600
G0 X138.222 Y66.769 F7200
G1 X139.588 Y68.135 E7.6477 F3600
G0 X139.188 Y68.301 F7200
G1 X137.284 Y66.397 E7.7372 F3600
G0 X136.319 Y65.998 F7200
G1 X138.788 Y68.466 E7.8533 F3600
G0 X138.388 Y68.632 F7200
G1 X132.634 Y62.878 E8.1240 F3600
G0 X132.984 Y63.794 F7200
G1 X137.684 Y68.493 E8.3450 F3600
G0 X136.719 Y68.094 F7200
G1 X133.959 Y65.334 E8.4748 F3600
G0 X134.667 Y64.345 F7200
G1 X132.283 Y61.962 E8.5869 F3600
; ------------------------------------
; Layer #5
; ------------------------------------
G92 E0 ;reset extr
;segType:HShell
G0 F3000 E-1.0000
G0 F1200 Z1.200
G0 X140.944 Y53.710 F7200
G0 F3000 E0.0000
G1 X140.096 Y53.710 E0.0188 F3600
G1 X139.530 Y53.710 E0.0376
G1 X138.964 Y53.710 E0.0564
G1 X138.398 Y53.710 E0.0753
G1 X137.833 Y53.710 E0.0941
G1 X137.267 Y53.710 E0.1129
G1 X136.701 Y53.710 E0.1317
G1 X136.136 Y53.710 E0.1505
G1 X135.570 Y53.710 E0.1693
G1 X135.004 Y53.710 E0.1881
G1 X134.439 Y53.710 E0.2070
G1 X133.873 Y53.710 E0.2258
G1 X133.307 Y53.710 E0.2446
G1 X132.742 Y53.710 E0.2634
;segType:Infill
G0 X133.142 Y53.876 F7200
G1 X130.988 Y56.030 E0.3850 F4500
;segType:Perimeter
G0 X129.263 Y52.784 F7200
G1 X147.202 Y52.784 E0.9816 F2160
G1 X146.100 Y58.439 E1.1733
G1 X143.904 Y64.178 E1.3776
G1 X141.166 Y67.822 E1.5292
G1 X138.203 Y69.048 E1.6359
G1 X135.240 Y67.822 E1.7425
G1 X132.502 Y64.178 E1.8941
G1 X130.306 Y58.439 E2.0985
G1 X129.215 Y52.843 E2.2881
G0 X129.988 Y53.050 F7200
;segType:Loop
G0 X130.303 Y53.184
G1 X146.716 Y53.184 E2.8340 F3600
G1 X145.714 Y58.329 E3.0084
G1 X143.550 Y63.983 E3.2097
G1 X140.912 Y67.495 E3.3558
G1 X138.203 Y68.615 E3.4533
G1 X135.494 Y67.495 E3.5508
G1 X132.856 Y63.983 E3.6969
G1 X130.692 Y58.329 E3.8982
G1 X129.689 Y53.184 E4.0726
G1 X130.103 Y53.184 E4.0864
;segType:Infill
G0 X132.204 Y59.339 F7200
G1 X137.667 Y53.876 E4.3947 F4500
G0 X142.193 Y53.876 F7200
G1 X133.611 Y62.457 E4.8791 F4500
G0 X135.552 Y65.041 F7200
G1 X145.625 Y54.969 E5.4477 F4500
G0 X143.196 Y61.923 F7200
G1 X139.264 Y65.855 E5.6697 F4500
;segType:HShell
G0 X130.411 Y53.495 F7200
G1 X130.461 Y54.294 E5.6901 F3600
G1 X130.553 Y54.767 E5.7061
G1 X130.645 Y55.241 E5.7221
G1 X130.738 Y55.714 E5.7382
G1 X130.830 Y56.187 E5.7542
G1 X130.936 Y56.647 E5.7699
G1 X131.061 Y57.088 E5.7860
G1 X131.185 Y57.529 E5.8052
G1 X131.310 Y57.970 E5.8274
G1 X131.467 Y58.379 E5.8525
G1 X131.623 Y58.788 E5.8777
G1 X131.780 Y59.197 E5.9028
G1 X131.936 Y59.606 E5.9279
G1 X132.093 Y60.016 E5.9531
G1 X132.249 Y60.425 E5.9782
G1 X132.406 Y60.834 E6.0034
G1 X132.563 Y61.243 E6.0285
G1 X132.719 Y61.652 E6.0537
G1 X132.876 Y62.061 E6.0788
G0 X133.368 Y62.134 F7200
G1 X132.765 Y62.738 E6.1072 F3600
G0 X132.922 Y63.147 F7200
G1 X133.611 Y62.457 E6.1396 F3600
G0 X133.854 Y62.780 F7200
G1 X133.078 Y63.556 E6.1761 F3600
G0 X133.268 Y63.932 F7200
G1 X134.096 Y63.103 E6.2151 F3600
G0 X134.339 Y63.426 F7200
G1 X133.511 Y64.255 E6.2540 F3600
G0 X133.753 Y64.578 F7200
G1 X134.582 Y63.749 E6.2930 F3600
G0 X134.824 Y64.072 F7200
G1 X133.996 Y64.901 E6.3320 F3600
G0 X134.239 Y65.224 F7200
G1 X135.067 Y64.395 E6.3710 F3600
G0 X135.310 Y64.718 F7200
G1 X134.481 Y65.547 E6.4099 F3600
G0 X134.724 Y65.870 F7200
G1 X135.552 Y65.041 E6.4489 F3600
G0 X135.842 Y65.318 F7200
G1 X134.967 Y66.193 E6.4901 F3600
G0 X135.209 Y66.516 F7200
G1 X136.242 Y65.483 E6.5387 F3600
G0 X136.642 Y65.649 F7200
G1 X135.452 Y66.839 E6.5947 F3600
G0 X135.695 Y67.162 F7200
G1 X137.042 Y65.814 E6.6580 F3600
G0 X137.443 Y65.980 F7200
G1 X136.076 Y67.346 E6.7223 F3600
G0 X136.477 Y67.511 F7200
G1 X137.843 Y66.145 E6.7866 F3600
G0 X138.299 Y66.255 F7200
G1 X136.877 Y67.677 E6.8535 F3600
G0 X137.277 Y67.842 F7200
G1 X139.264 Y65.855 E6.9469 F3600
G0 X140.229 Y65.456 F7200
G1 X137.677 Y68.008 E7.0669 F3600
G0 X138.077 Y68.173 F7200
G1 X143.721 Y62.530 E7.3324 F3600
G0 X143.370 Y63.446 F7200
G1 X138.865 Y67.952 E7.5443 F3600
G0 X139.829 Y67.553 F7200
G1 X142.195 Y65.187 E7.6556 F3600
G0 X141.487 Y64.198 F7200
G1 X144.071 Y61.614 E7.7771 F3600
G0 X143.196 Y61.923 F7200
G1 X144.422 Y60.698 E7.8347 F3600
G0 X144.772 Y59.781 F7200
G1 X143.575 Y60.978 E7.8910 F3600
G0 X143.926 Y60.062 F7200
G1 X145.123 Y58.865 E7.9473 F3600
G0 X145.408 Y58.014 F7200
G1 X144.277 Y59.146 E8.0006 F3600
G0 X144.627 Y58.229 F7200
G1 X145.545 Y57.311 E8.0437 F3600
G0 X145.682 Y56.609 F7200
G1 X144.978 Y57.313 E8.0769 F3600
G0 X145.499 Y56.509 F7200
G1 X145.722 Y55.437 E8.1011 F3600
G1 X145.859 Y54.735 E8.1250
G1 X145.996 Y54.032 E8.1488
G1 X145.752 Y53.710 E8.1708
G1 X145.187 Y53.710 E8.1896
G1 X144.621 Y53.710 E8.2084
G1 X144.055 Y53.710 E8.2272
G1 X143.490 Y53.710 E8.2460
G1 X142.924 Y53.710 E8.2648
G1 X142.358 Y53.710 E8.2836
G1 X141.793 Y53.710 E8.3025
G1 X141.227 Y53.710 E8.3213
G0 X132.459 Y53.710 F7200
G1 X131.610 Y53.710 E8.3401 F3600
G1 X131.045 Y53.710 E8.3589
; ------------------------------------
; Layer #6
; ------------------------------------
G92 E0 ;reset extr
;segType:Infill
G0 F3000 E-1.0000
G0 F1200 Z1.400
G0 X141.446 Y63.770 F7200
G0 F3000 E0.0000
G1 X131.634 Y53.958 E0.5538 F4500
;segType:Perimeter
G0 X129.725 Y53.586 F7200
G1 X129.374 Y52.867 E0.5804 F2160
G1 X147.092 Y52.867 E1.1697
G1 X146.100 Y57.957 E1.3422
G1 X143.904 Y63.695 E1.5466
G1 X141.166 Y67.340 E1.6982
G1 X138.203 Y68.565 E1.8048
G1 X135.240 Y67.340 E1.9115
G1 X132.502 Y63.695 E2.0631
G1 X130.306 Y57.956 E2.2674
G1 X129.325 Y52.926 E2.4379
G0 X130.098 Y53.133 F7200
;segType:Loop
G0 X130.414 Y53.267
G1 X146.606 Y53.267 E2.9765 F3600
G1 X145.714 Y57.846 E3.1316
G1 X143.550 Y63.500 E3.3330
G1 X140.912 Y67.012 E3.4791
G1 X138.203 Y68.132 E3.5766
G1 X135.494 Y67.012 E3.6741
G1 X132.856 Y63.500 E3.8202
G1 X130.692 Y57.846 E4.0215
G1 X129.799 Y53.267 E4.1767
G1 X130.214 Y53.267 E4.1905
;segType:Infill
G0 X132.326 Y59.176 F7200
G1 X138.739 Y65.590 E4.5525 F4500
G0 X143.332 Y61.131 F7200
G1 X136.159 Y53.958 E4.9573 F4500
G0 X140.685 Y53.958 F7200
G1 X144.584 Y57.858 E5.1774 F4500
G0 X145.644 Y54.392 F7200
G1 X145.210 Y53.958 E5.2019 F4500
;segType:HShell
G0 X132.181 Y60.728 F7200
G1 X134.166 Y62.713 E5.2953 F3600
G0 X136.037 Y66.846 F7200
G1 X135.167 Y65.977 E5.3362 F3600
G0 X133.458 Y63.703 F7200
G1 X137.001 Y67.245 E5.5028 F3600
G0 X137.966 Y67.645 F7200
G1 X132.882 Y62.560 E5.7420 F3600
G0 X132.531 Y61.644 F7200
G1 X138.505 Y67.618 E6.0229 F3600
G0 X138.905 Y67.452 F7200
G1 X136.602 Y65.149 E6.1313 F3600
G0 X137.567 Y65.548 F7200
G1 X139.305 Y67.287 E6.2130 F3600
G0 X139.705 Y67.121 F7200
G1 X138.339 Y65.755 E6.2773 F3600
G0 X138.739 Y65.590 F7200
G1 X140.106 Y66.956 E6.3415 F3600
G0 X140.506 Y66.790 F7200
G1 X139.140 Y65.424 E6.4058 F3600
G0 X139.540 Y65.258 F7200
G1 X140.818 Y66.537 E6.4659 F3600
G0 X141.061 Y66.214 F7200
G1 X139.940 Y65.093 E6.5186 F3600
G0 X140.340 Y64.927 F7200
G1 X141.303 Y65.891 E6.5640 F3600
G0 X141.546 Y65.568 F7200
G1 X140.718 Y64.739 E6.6029 F3600
G0 X140.960 Y64.416 F7200
G1 X141.789 Y65.245 E6.6419 F3600
G0 X142.032 Y64.922 F7200
G1 X141.203 Y64.093 E6.6809 F3600
G0 X141.446 Y63.770 F7200
G1 X142.274 Y64.599 E6.7198 F3600
G0 X142.517 Y64.276 F7200
G1 X141.688 Y63.447 E6.7588 F3600
G0 X141.931 Y63.124 F7200
G1 X142.760 Y63.953 E6.7978 F3600
G0 X143.002 Y63.630 F7200
G1 X142.174 Y62.801 E6.8368 F3600
G0 X142.416 Y62.478 F7200
G1 X143.240 Y63.302 E6.8755 F3600
G0 X143.397 Y62.893 F7200
G1 X142.659 Y62.155 E6.9102 F3600
G0 X142.902 Y61.832 F7200
G1 X143.554 Y62.484 E6.9409 F3600
G0 X143.341 Y61.989 F7200
G1 X143.599 Y61.398 E6.9675 F3600
G1 X143.756 Y60.989 E6.9926
G1 X143.912 Y60.580 E7.0178
G1 X144.069 Y60.171 E7.0429
G1 X144.226 Y59.762 E7.0680
G1 X144.382 Y59.353 E7.0932
G1 X144.539 Y58.944 E7.1183
G1 X144.695 Y58.534 E7.1435
G1 X144.852 Y58.125 E7.1686
G1 X145.008 Y57.716 E7.1937
G1 X145.151 Y57.293 E7.2189
G1 X145.276 Y56.852 E7.2427
G1 X145.400 Y56.411 E7.2636
G1 X145.524 Y55.969 E7.2814
G1 X145.617 Y55.496 E7.2975
G1 X145.709 Y55.023 E7.3135
G1 X145.801 Y54.549 E7.3295
G0 X146.051 Y54.233 F7200
G1 X145.445 Y53.627 E7.3581 F3600
G0 X145.328 Y53.793 F7200
G1 X144.479 Y53.793 E7.3769 F3600
G1 X143.913 Y53.793 E7.3957
G1 X143.348 Y53.793 E7.4145
G1 X142.782 Y53.793 E7.4333
G1 X142.216 Y53.793 E7.4521
G1 X141.651 Y53.793 E7.4709
G1 X141.085 Y53.793 E7.4898
G1 X140.519 Y53.793 E7.5086
G1 X139.954 Y53.793 E7.5274
G1 X139.388 Y53.793 E7.5462
G1 X138.822 Y53.793 E7.5650
G1 X138.256 Y53.793 E7.5838
G1 X137.691 Y53.793 E7.6026
G1 X137.125 Y53.793 E7.6215
G1 X136.559 Y53.793 E7.6403
G1 X135.994 Y53.793 E7.6591
G1 X135.428 Y53.793 E7.6779
G1 X134.862 Y53.793 E7.6967
G1 X134.297 Y53.793 E7.7155
G1 X133.731 Y53.793 E7.7344
G1 X133.165 Y53.793 E7.7532
G1 X132.600 Y53.793 E7.7720
G1 X132.034 Y53.793 E7.7908
G1 X131.468 Y53.793 E7.8096
G1 X130.903 Y53.793 E7.8284
G1 X130.486 Y53.942 E7.8440
G1 X130.623 Y54.645 E7.8678
G1 X130.760 Y55.348 E7.8916
G0 X131.274 Y56.427 F7200
G1 X130.664 Y55.817 E7.9204 F3600
G0 X130.801 Y56.519 F7200
G1 X131.625 Y57.343 E7.9591 F3600
G0 X131.975 Y58.260 F7200
G1 X130.938 Y57.222 E8.0079 F3600
G0 X131.129 Y57.979 F7200
G1 X132.326 Y59.176 E8.0642 F3600
G0 X132.676 Y60.092 F7200
G1 X131.480 Y58.895 E8.1205 F3600
G0 X131.830 Y59.811 F7200
G1 X133.027 Y61.008 E8.1768 F3600
; ------------------------------------
; Layer #7
; ------------------------------------
G92 E0 ;reset extr
;segType:HShell
G0 F3000 E-1.0000
G0 F1200 Z1.600
G0 X131.375 Y56.208 F7200
G0 F3000 E0.0000
G1 X130.922 Y56.661 E0.0213 F3600
G0 X131.219 Y55.799 F7200
G1 X130.830 Y56.187 E0.0396 F3600
G0 X130.738 Y55.714 F7200
G1 X131.062 Y55.390 E0.0548 F3600
G0 X130.961 Y54.925 F7200
G1 X130.645 Y55.241 E0.0697 F3600
G0 X130.553 Y54.767 F7200
G1 X130.868 Y54.452 E0.0845 F3600
G0 X130.461 Y54.294 F7200
G1 X131.044 Y53.710 E0.1120 F3600
G0 X131.162 Y53.876 F7200
G1 X132.010 Y53.876 E0.1308 F3600
G1 X132.576 Y53.876 E0.1496
G1 X133.142 Y53.876 E0.1684
G1 X133.707 Y53.876 E0.1872
;segType:Infill
G0 X132.976 Y54.041 F7200
G1 X131.219 Y55.799 E0.2864 F4500
;segType:Perimeter
G0 X129.484 Y52.950 F7200
G1 X146.981 Y52.950 E0.8684 F2160
G1 X146.100 Y57.474 E1.0217
G1 X143.904 Y63.212 E1.2260
G1 X141.166 Y66.857 E1.3776
G1 X138.203 Y68.082 E1.4843
G1 X135.240 Y66.857 E1.5909
G1 X132.502 Y63.212 E1.7425
G1 X130.306 Y57.474 E1.9469
G1 X129.436 Y53.009 E2.0982
G0 X130.208 Y53.216 F7200
;segType:Loop
G0 X130.524 Y53.350
G1 X146.496 Y53.350 E2.6294 F3600
G1 X145.714 Y57.363 E2.7654
G1 X143.550 Y63.017 E2.9667
G1 X140.912 Y66.529 E3.1129
G1 X138.203 Y67.649 E3.2103
G1 X135.494 Y66.529 E3.3078
G1 X132.856 Y63.017 E3.4539
G1 X130.692 Y57.363 E3.6553
G1 X129.910 Y53.350 E3.7913
G1 X130.324 Y53.350 E3.8051
;segType:Infill
G0 X132.471 Y59.072 F7200
G1 X137.502 Y54.041 E4.0890 F4500
G0 X145.391 Y55.202 F7200
G1 X136.125 Y64.469 E4.6121 F4500
G0 X134.025 Y62.043 F7200
G1 X142.027 Y54.041 E5.0637 F4500
;segType:HShell
G0 X133.990 Y53.876 F7200
G1 X134.839 Y53.876 E5.0826 F3600
G1 X135.404 Y53.876 E5.1014
G1 X135.970 Y53.876 E5.1202
G1 X136.536 Y53.876 E5.1390
G1 X137.102 Y53.876 E5.1578
G1 X137.667 Y53.876 E5.1766
G1 X138.233 Y53.876 E5.1954
G1 X138.799 Y53.876 E5.2143
G1 X139.364 Y53.876 E5.2331
G1 X139.930 Y53.876 E5.2519
G1 X140.496 Y53.876 E5.2707
G1 X141.061 Y53.876 E5.2895
G1 X141.627 Y53.876 E5.3083
G1 X142.193 Y53.876 E5.3271
G1 X142.758 Y53.876 E5.3460
G1 X143.324 Y53.876 E5.3648
G1 X143.890 Y53.876 E5.3836
G1 X144.455 Y53.876 E5.4024
G1 X145.021 Y53.876 E5.4212
G1 X145.587 Y53.876 E5.4400
G1 X145.762 Y54.266 E5.4556
G1 X145.625 Y54.969 E5.4794
G0 X145.722 Y55.438 F7200
G1 X145.081 Y56.079 E5.5096 F3600
G0 X144.730 Y56.995 F7200
G1 X145.585 Y56.140 E5.5498 F3600
G0 X145.448 Y56.843 F7200
G1 X144.379 Y57.912 E5.6001 F3600
G0 X144.029 Y58.828 F7200
G1 X145.226 Y57.631 E5.6564 F3600
G0 X144.875 Y58.547 F7200
G1 X143.678 Y59.744 E5.7127 F3600
G0 X143.328 Y60.660 F7200
G1 X144.524 Y59.464 E5.7690 F3600
G0 X144.174 Y60.380 F7200
G1 X141.988 Y62.565 E5.8718 F3600
G0 X142.696 Y63.555 F7200
G1 X139.547 Y66.704 E6.0199 F3600
G0 X140.511 Y66.305 F7200
G1 X140.987 Y65.830 E6.0422 F3600
G0 X138.582 Y67.103 F7200
G1 X143.473 Y62.212 E6.2723 F3600
G0 X143.823 Y61.296 F7200
G1 X137.960 Y67.159 E6.5481 F3600
G0 X137.560 Y66.994 F7200
G1 X139.946 Y64.607 E6.6603 F3600
G0 X138.981 Y65.007 F7200
G1 X137.160 Y66.828 E6.7460 F3600
G0 X136.760 Y66.663 F7200
G1 X138.126 Y65.297 E6.8103 F3600
G0 X137.726 Y65.131 F7200
G1 X136.359 Y66.497 E6.8745 F3600
G0 X135.959 Y66.332 F7200
G1 X137.325 Y64.965 E6.9388 F3600
G0 X136.925 Y64.800 F7200
G1 X135.624 Y66.102 E7.0000 F3600
G0 X135.381 Y65.779 F7200
G1 X136.525 Y64.634 E7.0538 F3600
G0 X136.125 Y64.469 F7200
G1 X135.138 Y65.456 E7.1002 F3600
G0 X134.896 Y65.133 F7200
G1 X135.725 Y64.303 E7.1392 F3600
G0 X135.481 Y63.981 F7200
G1 X134.653 Y64.810 E7.1782 F3600
G0 X134.410 Y64.487 F7200
G1 X135.239 Y63.658 E7.2172 F3600
G0 X134.996 Y63.335 F7200
G1 X134.168 Y64.164 E7.2562 F3600
G0 X133.925 Y63.841 F7200
G1 X134.753 Y63.012 E7.2951 F3600
G0 X134.511 Y62.689 F7200
G1 X133.682 Y63.518 E7.3341 F3600
G0 X133.440 Y63.195 F7200
G1 X134.268 Y62.366 E7.3731 F3600
G0 X134.025 Y62.043 F7200
G1 X133.197 Y62.872 E7.4120 F3600
G0 X133.032 Y62.470 F7200
G1 X133.783 Y61.720 E7.4473 F3600
G0 X133.540 Y61.397 F7200
G1 X132.876 Y62.061 E7.4786 F3600
G0 X132.719 Y61.652 F7200
G1 X133.297 Y61.074 E7.5058 F3600
G0 X132.908 Y61.180 F7200
G1 X132.673 Y60.567 E7.5309 F3600
G1 X132.517 Y60.158 E7.5560
G1 X132.360 Y59.748 E7.5812
G1 X132.204 Y59.339 E7.6063
G1 X132.047 Y58.930 E7.6315
G1 X131.891 Y58.521 E7.6566
G1 X131.734 Y58.112 E7.6817
G1 X131.577 Y57.703 E7.7069
G1 X131.421 Y57.294 E7.7320
G1 X131.273 Y56.876 E7.7572
; ------------------------------------
; Layer #8
; ------------------------------------
G92 E0 ;reset extr
;segType:Infill
G0 F3000 E-1.0000
G0 F1200 Z1.800
G0 X141.032 Y63.356 F7200
G0 F3000 E0.0000
G1 X131.799 Y54.124 E0.5211 F4500
;segType:Perimeter
G0 X129.946 Y53.752 F7200
G1 X129.594 Y53.033 E0.5477 F2160
G1 X146.871 Y53.033 E1.1223
G1 X146.100 Y56.991 E1.2565
G1 X143.904 Y62.730 E1.4608
G1 X141.166 Y66.374 E1.6124
G1 X138.203 Y67.599 E1.7191
G1 X135.240 Y66.374 E1.8257
G1 X132.502 Y62.730 E1.9773
G1 X130.306 Y56.991 E2.1817
G1 X129.546 Y53.092 E2.3138
G0 X130.319 Y53.299 F7200
;segType:Loop
G0 X130.634 Y53.433
G1 X146.385 Y53.433 E2.8377 F3600
G1 X145.714 Y56.880 E2.9545
G1 X143.550 Y62.534 E3.1559
G1 X140.912 Y66.046 E3.3020
G1 X138.203 Y67.167 E3.3995
G1 X135.494 Y66.046 E3.4970
G1 X132.856 Y62.534 E3.6431
G1 X130.692 Y56.880 E3.8444
G1 X130.020 Y53.433 E3.9612
G1 X130.434 Y53.433 E3.9750
;segType:Infill
G0 X136.325 Y54.124 F7200
G1 X142.973 Y60.772 E4.3503 F4500
G0 X144.317 Y57.591 F7200
G1 X140.850 Y54.124 E4.5460 F4500
G0 X137.850 Y64.700 F7200
G1 X132.924 Y59.774 E4.8240 F4500
;segType:HShell
G0 X131.727 Y58.577 F7200
G1 X132.924 Y59.774 E4.8803 F3600
G0 X132.574 Y58.858 F7200
G1 X131.377 Y57.661 E4.9366 F3600
G0 X131.035 Y56.753 F7200
G1 X132.223 Y57.942 E4.9925 F3600
G0 X131.873 Y57.026 F7200
G1 X130.897 Y56.050 E5.0384 F3600
G0 X130.760 Y55.348 F7200
G1 X131.522 Y56.109 E5.0742 F3600
G0 X130.986 Y55.291 F7200
G1 X130.720 Y54.176 E5.1000 F3600
G1 X131.068 Y53.958 E5.1220
G1 X131.634 Y53.958 E5.1408
G1 X132.200 Y53.958 E5.1596
G1 X132.765 Y53.958 E5.1784
G1 X133.331 Y53.958 E5.1973
G1 X133.897 Y53.958 E5.2161
G1 X134.462 Y53.958 E5.2349
G1 X135.028 Y53.958 E5.2537
G1 X135.594 Y53.958 E5.2725
G1 X136.159 Y53.958 E5.2913
G1 X136.725 Y53.958 E5.3101
G1 X137.291 Y53.958 E5.3290
G1 X137.856 Y53.958 E5.3478
G1 X138.422 Y53.958 E5.3666
G1 X138.988 Y53.958 E5.3854
G1 X139.553 Y53.958 E5.4042
G1 X140.119 Y53.958 E5.4230
G1 X140.685 Y53.958 E5.4418
G1 X141.250 Y53.958 E5.4607
G1 X141.816 Y53.958 E5.4795
G1 X142.382 Y53.958 E5.4983
G1 X142.948 Y53.958 E5.5171
G1 X143.513 Y53.958 E5.5359
G1 X144.079 Y53.958 E5.5547
G1 X144.645 Y53.958 E5.5736
G1 X145.210 Y53.958 E5.5924
G0 X145.690 Y54.155 F7200
G1 X145.551 Y54.865 E5.6084 F3600
G1 X145.437 Y55.316 E5.6239
G1 X145.312 Y55.757 E5.6408
G1 X145.188 Y56.199 E5.6608
G1 X145.054 Y56.631 E5.6837
G1 X144.898 Y57.040 E5.7089
G1 X144.741 Y57.449 E5.7340
G1 X144.585 Y57.858 E5.7592
G1 X144.428 Y58.267 E5.7843
G1 X144.271 Y58.676 E5.8094
G1 X144.115 Y59.085 E5.8346
G1 X143.958 Y59.495 E5.8597
G1 X143.802 Y59.904 E5.8848
G1 X143.645 Y60.313 E5.9100
G1 X143.486 Y60.719 E5.9351
G0 X142.973 Y60.772 F7200
G1 X143.599 Y61.398 E5.9646 F3600
G0 X143.443 Y61.808 F7200
G1 X142.730 Y61.095 E5.9981 F3600
G0 X142.488 Y61.418 F7200
G1 X143.286 Y62.217 E6.0357 F3600
G0 X143.073 Y62.569 F7200
G1 X142.245 Y61.741 E6.0746 F3600
G0 X142.002 Y62.064 F7200
G1 X142.831 Y62.892 E6.1136 F3600
G0 X142.588 Y63.215 F7200
G1 X141.760 Y62.387 E6.1526 F3600
G0 X141.517 Y62.710 F7200
G1 X142.345 Y63.538 E6.1915 F3600
G0 X142.103 Y63.862 F7200
G1 X141.274 Y63.033 E6.2305 F3600
G0 X141.032 Y63.356 F7200
G1 X141.860 Y64.185 E6.2695 F3600
G0 X141.617 Y64.508 F7200
G1 X140.789 Y63.679 E6.3084 F3600
G0 X140.457 Y63.913 F7200
G1 X141.375 Y64.831 E6.3516 F3600
G0 X141.132 Y65.154 F7200
G1 X140.057 Y64.079 E6.4021 F3600
G0 X139.657 Y64.244 F7200
G1 X140.889 Y65.477 E6.4601 F3600
G0 X140.623 Y65.776 F7200
G1 X139.257 Y64.410 E6.5244 F3600
G0 X138.857 Y64.575 F7200
G1 X140.223 Y65.941 E6.5886 F3600
G0 X139.823 Y66.107 F7200
G1 X138.457 Y64.741 E6.6529 F3600
G0 X137.850 Y64.700 F7200
G1 X139.422 Y66.272 E6.7269 F3600
G0 X139.022 Y66.438 F7200
G1 X136.885 Y64.301 E6.8274 F3600
G0 X135.920 Y63.902 F7200
G1 X138.622 Y66.604 E6.9545 F3600
G0 X138.222 Y66.769 F7200
G1 X132.779 Y61.326 E7.2105 F3600
G0 X133.130 Y62.242 F7200
G1 X137.284 Y66.397 E7.4059 F3600
G0 X136.319 Y65.998 F7200
G1 X134.667 Y64.345 E7.4836 F3600
G0 X135.374 Y63.355 F7200
G1 X132.429 Y60.410 E7.6222 F3600
G0 X133.665 Y61.081 F7200
G1 X132.078 Y59.494 E7.6968 F3600
; ------------------------------------
; Layer #9
; ------------------------------------
G92 E0 ;reset extr
;segType:Infill
G0 F3000 E-1.0000
G0 F1200 Z2.000
G0 X136.808 Y63.786 F7200
G0 F3000 E0.0000
G1 X144.833 Y55.761 E0.4529 F4500
G0 X146.755 Y53.116 F7200
G0 X146.761 Y53.116
G0 X146.775 Y53.045
G0 X146.763 Y53.104
G0 X146.763 Y53.104
G0 X146.775 Y53.045
G0 X146.763 Y53.104
G0 X146.763 Y53.104
G0 X146.771 Y53.093
;segType:Perimeter
G0 X146.763 Y53.104
G1 X146.100 Y56.508 E0.5683 F2160
G1 X143.904 Y62.247 E0.7727
G1 X141.166 Y65.891 E0.9243
G1 X138.203 Y67.117 E1.0309
G1 X135.240 Y65.891 E1.1375
G1 X132.502 Y62.247 E1.2892
G1 X130.306 Y56.508 E1.4935
G1 X129.645 Y53.116 E1.6085
G1 X146.761 Y53.116 E2.1778
G1 X146.763 Y53.104 E2.1782
G0 X146.763 Y53.104 F7200
G0 X146.775 Y53.045
G0 X146.763 Y53.104
G0 X146.763 Y53.104
G0 X146.775 Y53.045
G0 X146.761 Y53.116
G0 X146.756 Y53.116
G0 X146.756 Y53.116
G0 X146.165 Y54.059
;segType:Loop
G0 X146.172 Y54.048
G1 X145.714 Y56.397 E2.2578 F3600
G1 X143.550 Y62.051 E2.4591
G1 X140.912 Y65.564 E2.6052
G1 X138.203 Y66.684 E2.7027
G1 X135.494 Y65.564 E2.8002
G1 X132.856 Y62.051 E2.9463
G1 X130.692 Y56.397 E3.1477
G1 X130.130 Y53.516 E3.2453
G1 X146.275 Y53.516 E3.7823
G1 X146.210 Y53.852 E3.7937
;segType:Infill
G0 X141.862 Y54.207 F7200
G1 X134.440 Y61.629 E4.2127 F4500
G0 X132.738 Y58.805 F7200
G1 X137.336 Y54.207 E4.4722 F4500
G0 X132.811 Y54.207 F7200
G1 X131.486 Y55.532 E4.5470 F4500
;segType:HShell
G0 X130.996 Y54.041 F7200
G1 X131.845 Y54.041 E4.5658 F3600
G1 X132.411 Y54.041 E4.5846
G1 X132.976 Y54.041 E4.6034
G1 X133.542 Y54.041 E4.6223
G1 X134.108 Y54.041 E4.6411
G1 X134.673 Y54.041 E4.6599
G1 X135.239 Y54.041 E4.6787
G1 X135.805 Y54.041 E4.6975
G1 X136.370 Y54.041 E4.7163
G1 X136.936 Y54.041 E4.7352
G1 X137.502 Y54.041 E4.7540
G1 X138.067 Y54.041 E4.7728
G1 X138.633 Y54.041 E4.7916
G1 X139.199 Y54.041 E4.8104
G1 X139.765 Y54.041 E4.8292
G1 X140.330 Y54.041 E4.8480
G1 X140.896 Y54.041 E4.8669
G1 X141.462 Y54.041 E4.8857
G1 X142.027 Y54.041 E4.9045
G1 X142.593 Y54.041 E4.9233
G1 X143.159 Y54.041 E4.9421
G1 X143.724 Y54.041 E4.9609
G1 X144.290 Y54.041 E4.9797
G1 X144.856 Y54.041 E4.9986
G1 X145.421 Y54.041 E5.0174
G0 X145.762 Y54.266 F7200
G1 X145.183 Y54.845 E5.0446 F3600
G0 X144.833 Y55.761 F7200
G1 X145.625 Y54.969 E5.0819 F3600
G0 X145.488 Y55.671 F7200
G1 X144.482 Y56.678 E5.1292 F3600
G0 X144.131 Y57.594 F7200
G1 X145.328 Y56.397 E5.1855 F3600
G0 X144.978 Y57.313 F7200
G1 X143.781 Y58.510 E5.2418 F3600
G0 X143.430 Y59.426 F7200
G1 X144.627 Y58.230 E5.2981 F3600
G0 X144.276 Y59.146 F7200
G1 X142.489 Y60.933 E5.3822 F3600
G0 X143.196 Y61.923 F7200
G1 X139.264 Y65.855 E5.5672 F3600
G0 X138.299 Y66.255 F7200
G1 X143.575 Y60.978 E5.8153 F3600
G0 X143.926 Y60.062 F7200
G1 X140.780 Y63.208 E5.9633 F3600
G0 X141.487 Y64.198 F7200
G1 X140.229 Y65.456 E6.0225 F3600
G0 X140.628 Y63.360 F7200
G1 X137.843 Y66.145 E6.1535 F3600
G0 X137.443 Y65.980 F7200
G1 X139.663 Y63.759 E6.2580 F3600
G0 X138.699 Y64.158 F7200
G1 X137.042 Y65.814 E6.3359 F3600
G0 X136.642 Y65.649 F7200
G1 X138.008 Y64.282 E6.4001 F3600
G0 X137.608 Y64.117 F7200
G1 X136.242 Y65.483 E6.4644 F3600
G0 X135.842 Y65.318 F7200
G1 X137.208 Y63.951 E6.5287 F3600
G0 X136.808 Y63.786 F7200
G1 X135.553 Y65.041 E6.5877 F3600
G0 X135.310 Y64.718 F7200
G1 X136.408 Y63.620 E6.6394 F3600
G0 X136.008 Y63.455 F7200
G1 X135.067 Y64.395 E6.6836 F3600
G0 X134.825 Y64.072 F7200
G1 X135.653 Y63.244 E6.7226 F3600
G0 X135.410 Y62.921 F7200
G1 X134.582 Y63.749 E6.7615 F3600
G0 X134.339 Y63.426 F7200
G1 X135.168 Y62.598 E6.8005 F3600
G0 X134.925 Y62.275 F7200
G1 X134.096 Y63.103 E6.8395 F3600
G0 X133.854 Y62.780 F7200
G1 X134.682 Y61.952 E6.8784 F3600
G0 X134.440 Y61.629 F7200
G1 X133.611 Y62.457 E6.9174 F3600
G0 X133.368 Y62.134 F7200
G1 X134.197 Y61.306 E6.9564 F3600
G0 X133.954 Y60.983 F7200
G1 X133.143 Y61.794 E6.9945 F3600
G0 X132.986 Y61.385 F7200
G1 X133.712 Y60.660 E7.0286 F3600
G0 X133.469 Y60.337 F7200
G1 X132.830 Y60.976 E7.0587 F3600
G0 X133.033 Y60.490 F7200
G1 X132.784 Y59.890 E7.0847 F3600
G1 X132.627 Y59.481 E7.1098
G1 X132.471 Y59.072 E7.1350
G1 X132.314 Y58.663 E7.1601
G1 X132.158 Y58.254 E7.1852
G1 X132.001 Y57.845 E7.2104
G1 X131.845 Y57.435 E7.2355
G1 X131.688 Y57.026 E7.2607
G1 X131.532 Y56.617 E7.2858
G1 X131.375 Y56.208 E7.3109
G1 X131.237 Y55.781 E7.3361
G1 X131.112 Y55.339 E7.3595
G1 X130.988 Y54.898 E7.3799
G1 X130.868 Y54.452 E7.3973
; ------------------------------------
; Layer #10
; ------------------------------------
G92 E0 ;reset extr
;segType:HShell
G0 F3000 E-1.0000
G0 F1200 Z2.200
G0 X143.456 Y59.841 F7200
G0 F3000 E0.0000
G1 X143.691 Y59.227 E0.0251 F3600
G1 X143.848 Y58.818 E0.0503
G1 X144.004 Y58.409 E0.0754
G1 X144.161 Y58.000 E0.1005
G1 X144.317 Y57.591 E0.1257
G1 X144.474 Y57.182 E0.1508
G1 X144.630 Y56.773 E0.1760
G1 X144.787 Y56.363 E0.2011
G1 X144.943 Y55.954 E0.2262
G1 X145.100 Y55.545 E0.2514
G1 X145.224 Y55.104 E0.2765
G1 X145.349 Y54.662 E0.2986
G1 X145.427 Y54.175 E0.3177
;segType:Perimeter
G0 X146.647 Y53.218 F7200
G1 X146.100 Y56.025 E0.4128 F2160
G1 X143.904 Y61.764 E0.6171
G1 X141.166 Y65.408 E0.7688
G1 X138.203 Y66.634 E0.8754
G1 X135.240 Y65.408 E0.9820
G1 X132.502 Y61.764 E1.1336
G1 X130.306 Y56.025 E1.3380
G1 X129.755 Y53.198 E1.4338
G1 X146.630 Y53.198 E1.9951
;segType:Loop
G0 X146.055 Y54.163 F7200
G1 X145.714 Y55.915 E2.0544 F3600
G1 X143.550 Y61.568 E2.2558
G1 X140.912 Y65.081 E2.4019
G1 X138.203 Y66.201 E2.4994
G1 X135.494 Y65.081 E2.5969
G1 X132.856 Y61.569 E2.7430
G1 X130.692 Y55.914 E2.9444
G1 X130.241 Y53.598 E3.0228
G1 X146.165 Y53.598 E3.5525
G1 X146.093 Y53.966 E3.5650
;segType:Infill
G0 X141.016 Y54.290 F7200
G1 X144.050 Y57.324 E3.7362 F4500
G0 X140.575 Y62.899 F7200
G1 X131.965 Y54.290 E4.2222 F4500
G0 X134.873 Y61.723 F7200
G1 X136.203 Y63.053 E4.2972 F4500
G0 X136.491 Y54.290 F7200
G1 X142.559 Y60.358 E4.6397 F4500
;segType:HShell
G0 X145.093 Y54.124 F7200
G1 X144.245 Y54.124 E4.6585 F3600
G1 X143.679 Y54.124 E4.6774
G1 X143.113 Y54.124 E4.6962
G1 X142.547 Y54.124 E4.7150
G1 X141.982 Y54.124 E4.7338
G1 X141.416 Y54.124 E4.7526
G1 X140.850 Y54.124 E4.7714
G1 X140.285 Y54.124 E4.7902
G1 X139.719 Y54.124 E4.8091
G1 X139.153 Y54.124 E4.8279
G1 X138.588 Y54.124 E4.8467
G1 X138.022 Y54.124 E4.8655
G1 X137.456 Y54.124 E4.8843
G1 X136.891 Y54.124 E4.9031
G1 X136.325 Y54.124 E4.9220
G1 X135.759 Y54.124 E4.9408
G1 X135.194 Y54.124 E4.9596
G1 X134.628 Y54.124 E4.9784
G1 X134.062 Y54.124 E4.9972
G1 X133.496 Y54.124 E5.0160
G1 X132.931 Y54.124 E5.0348
G1 X132.365 Y54.124 E5.0537
G1 X131.799 Y54.124 E5.0725
G1 X131.234 Y54.124 E5.0913
G0 X130.720 Y54.176 F7200
G1 X131.420 Y54.875 E5.1242 F3600
G0 X131.770 Y55.792 F7200
G1 X130.857 Y54.879 E5.1671 F3600
G0 X130.994 Y55.582 F7200
G1 X132.121 Y56.708 E5.2201 F3600
G0 X132.471 Y57.624 F7200
G1 X131.274 Y56.427 E5.2764 F3600
G0 X131.625 Y57.343 F7200
G1 X132.822 Y58.540 E5.3327 F3600
G0 X133.172 Y59.456 F7200
G1 X131.975 Y58.260 E5.3890 F3600
G0 X132.326 Y59.176 F7200
G1 X134.873 Y61.723 E5.5088 F3600
G0 X134.166 Y62.713 F7200
G1 X136.602 Y65.149 E5.6234 F3600
G0 X137.567 Y65.548 F7200
G1 X133.027 Y61.008 E5.8369 F3600
G0 X132.676 Y60.092 F7200
G1 X138.339 Y65.755 E6.1033 F3600
G0 X136.203 Y63.053 F7200
G1 X138.739 Y65.590 E6.2226 F3600
G0 X139.140 Y65.424 F7200
G1 X137.167 Y63.452 E6.3154 F3600
G0 X138.132 Y63.851 F7200
G1 X139.540 Y65.258 E6.3816 F3600
G0 X139.940 Y65.093 F7200
G1 X138.574 Y63.727 E6.4459 F3600
G0 X138.974 Y63.561 F7200
G1 X140.340 Y64.927 E6.5101 F3600
G0 X140.718 Y64.739 F7200
G1 X139.374 Y63.396 E6.5733 F3600
G0 X139.774 Y63.230 F7200
G1 X140.960 Y64.416 E6.6291 F3600
G0 X141.203 Y64.093 F7200
G1 X140.174 Y63.065 E6.6775 F3600
G0 X140.575 Y62.899 F7200
G1 X141.446 Y63.770 E6.7185 F3600
G0 X141.688 Y63.447 F7200
G1 X140.860 Y62.619 E6.7574 F3600
G0 X141.103 Y62.296 F7200
G1 X141.931 Y63.124 E6.7964 F3600
G0 X142.174 Y62.801 F7200
G1 X141.345 Y61.973 E6.8354 F3600
G0 X141.588 Y61.650 F7200
G1 X142.416 Y62.478 E6.8743 F3600
G0 X142.659 Y62.155 F7200
G1 X141.831 Y61.327 E6.9133 F3600
G0 X142.073 Y61.004 F7200
G1 X142.902 Y61.832 E6.9523 F3600
G0 X143.144 Y61.509 F7200
G1 X142.316 Y60.681 E6.9913 F3600
G0 X142.559 Y60.358 F7200
G1 X143.332 Y61.131 E7.0276 F3600
G0 X143.489 Y60.722 F7200
G1 X142.801 Y60.035 E7.0600 F3600
G0 X143.044 Y59.712 F7200
G1 X143.645 Y60.313 E7.0882 F3600
; ------------------------------------
; Layer #11
; ------------------------------------
G92 E0 ;reset extr
;segType:Infill
G0 F3000 E-1.0000
G0 F1200 Z2.400
G0 X141.696 Y54.372 F7200
G0 F3000 E0.0000
G1 X134.854 Y61.214 E0.3862 F4500
G0 X137.491 Y63.103 F7200
G1 X144.234 Y56.360 E0.7668 F4500
;segType:Perimeter
G0 X145.756 Y53.547 F7200
G1 X146.529 Y53.340 E0.7934 F2160
G1 X146.100 Y55.543 E0.8681
G1 X143.904 Y61.281 E1.0724
G1 X141.166 Y64.926 E1.2240
G1 X138.203 Y66.151 E1.3307
G1 X135.240 Y64.926 E1.4373
G1 X132.502 Y61.281 E1.5889
G1 X130.306 Y55.542 E1.7933
G1 X129.865 Y53.281 E1.8699
G1 X146.480 Y53.281 E2.4225
G0 X146.129 Y54.000 F7200
;segType:Loop
G0 X145.937 Y54.284
G1 X145.714 Y55.432 E2.4615 F3600
G1 X143.550 Y61.086 E2.6628
G1 X140.912 Y64.598 E2.8089
G1 X138.203 Y65.718 E2.9064
G1 X135.494 Y64.598 E3.0039
G1 X132.856 Y61.086 E3.1500
G1 X130.692 Y55.431 E3.3514
G1 X130.351 Y53.681 E3.4107
G1 X146.055 Y53.681 E3.9330
G1 X145.976 Y54.088 E3.9468
;segType:Infill
G0 X137.171 Y54.372 F7200
G1 X133.005 Y58.538 E4.1819 F4500
G0 X131.753 Y55.264 F7200
G1 X132.645 Y54.372 E4.2322 F4500
;segType:HShell
G0 X141.281 Y61.576 F7200
G1 X144.029 Y58.828 E4.3615 F3600
G0 X144.379 Y57.911 F7200
G1 X142.990 Y59.301 E4.4268 F3600
G0 X143.533 Y58.192 F7200
G1 X144.730 Y56.995 E4.4831 F3600
G0 X145.081 Y56.079 F7200
G1 X143.884 Y57.276 E4.5394 F3600
G0 X144.234 Y56.360 F7200
G1 X145.391 Y55.202 E4.5939 F3600
G0 X145.528 Y54.500 F7200
G1 X144.585 Y55.443 E4.6383 F3600
G0 X145.422 Y54.323 F7200
G1 X144.690 Y54.207 E4.6611 F3600
G1 X144.124 Y54.207 E4.6799
G1 X143.559 Y54.207 E4.6988
G1 X142.993 Y54.207 E4.7176
G1 X142.427 Y54.207 E4.7364
G1 X141.862 Y54.207 E4.7552
G1 X141.296 Y54.207 E4.7740
G1 X140.730 Y54.207 E4.7928
G1 X140.165 Y54.207 E4.8117
G1 X139.599 Y54.207 E4.8305
G1 X139.033 Y54.207 E4.8493
G1 X138.468 Y54.207 E4.8681
G1 X137.902 Y54.207 E4.8869
G1 X137.336 Y54.207 E4.9057
G1 X136.770 Y54.207 E4.9245
G1 X136.205 Y54.207 E4.9434
G1 X135.639 Y54.207 E4.9622
G1 X135.073 Y54.207 E4.9810
G1 X134.508 Y54.207 E4.9998
G1 X133.942 Y54.207 E5.0186
G1 X133.376 Y54.207 E5.0374
G1 X132.811 Y54.207 E5.0562
G1 X132.245 Y54.207 E5.0751
G1 X131.679 Y54.207 E5.0939
G0 X131.010 Y54.027 F7200
G1 X131.200 Y54.686 E5.1132 F3600
G1 X131.329 Y55.122 E5.1358
G1 X131.486 Y55.532 E5.1609
G1 X131.642 Y55.941 E5.1860
G1 X131.799 Y56.350 E5.2112
G1 X131.955 Y56.759 E5.2363
G1 X132.112 Y57.168 E5.2614
G1 X132.268 Y57.577 E5.2866
G1 X132.425 Y57.986 E5.3117
G1 X132.582 Y58.396 E5.3369
G1 X132.738 Y58.805 E5.3620
G1 X132.895 Y59.214 E5.3871
G0 X133.398 Y59.276 F7200
G1 X132.784 Y59.890 E5.4160 F3600
G0 X132.940 Y60.299 F7200
G1 X133.640 Y59.599 E5.4489 F3600
G0 X133.883 Y59.922 F7200
G1 X133.097 Y60.709 E5.4859 F3600
G0 X133.297 Y61.074 F7200
G1 X134.126 Y60.245 E5.5249 F3600
G0 X134.368 Y60.568 F7200
G1 X133.540 Y61.397 E5.5639 F3600
G0 X133.783 Y61.720 F7200
G1 X134.611 Y60.891 E5.6028 F3600
G0 X134.854 Y61.214 F7200
G1 X134.025 Y62.043 E5.6418 F3600
G0 X134.268 Y62.366 F7200
G1 X135.097 Y61.538 E5.6808 F3600
G0 X135.339 Y61.861 F7200
G1 X134.511 Y62.689 E5.7198 F3600
G0 X134.753 Y63.012 F7200
G1 X135.582 Y62.184 E5.7587 F3600
G0 X135.890 Y62.441 F7200
G1 X134.996 Y63.335 E5.8008 F3600
G0 X135.239 Y63.658 F7200
G1 X136.290 Y62.606 E5.8503 F3600
G0 X136.691 Y62.772 F7200
G1 X135.481 Y63.981 E5.9072 F3600
G0 X135.725 Y64.303 F7200
G1 X137.091 Y62.937 E5.9714 F3600
G0 X137.491 Y63.103 F7200
G1 X136.125 Y64.469 E6.0357 F3600
G0 X136.525 Y64.634 F7200
G1 X137.891 Y63.268 E6.0999 F3600
G0 X138.416 Y63.309 F7200
G1 X136.925 Y64.800 E6.1700 F3600
G0 X137.325 Y64.966 F7200
G1 X139.381 Y62.910 E6.2667 F3600
G0 X140.345 Y62.511 F7200
G1 X137.726 Y65.131 E6.3899 F3600
G0 X138.126 Y65.297 F7200
G1 X143.678 Y59.744 E6.6511 F3600
G0 X143.328 Y60.660 F7200
G1 X138.981 Y65.007 E6.8555 F3600
G0 X139.946 Y64.607 F7200
G1 X141.988 Y62.565 E6.9516 F3600
; ------------------------------------
; Layer #12
; ------------------------------------
G92 E0 ;reset extr
;segType:HShell
G0 F3000 E-1.0000
G0 F1200 Z2.600
G0 X132.813 Y54.289 F7200
G0 F3000 E0.0000
G1 X133.662 Y54.289 E0.0188 F3600
G1 X134.228 Y54.289 E0.0376
G1 X134.793 Y54.289 E0.0564
G1 X135.359 Y54.289 E0.0753
G1 X135.925 Y54.289 E0.0941
G1 X136.490 Y54.289 E0.1129
G1 X137.056 Y54.289 E0.1317
G1 X137.622 Y54.289 E0.1505
G1 X138.187 Y54.289 E0.1693
G1 X138.753 Y54.289 E0.1881
G1 X139.319 Y54.289 E0.2070
G1 X139.884 Y54.289 E0.2258
G1 X140.450 Y54.289 E0.2446
;segType:Infill
G0 X141.181 Y54.455 F7200
G1 X143.783 Y57.056 E0.3914 F4500
;segType:Perimeter
G0 X145.646 Y53.630 F7200
G1 X146.419 Y53.423 E0.4180 F2160
G1 X146.100 Y55.060 E0.4735
G1 X143.904 Y60.798 E0.6779
G1 X141.166 Y64.443 E0.8295
G1 X138.203 Y65.668 E0.9361
G1 X135.240 Y64.443 E1.0428
G1 X132.502 Y60.798 E1.1944
G1 X130.306 Y55.059 E1.3988
G1 X129.976 Y53.364 E1.4562
G1 X146.370 Y53.364 E2.0015
G0 X146.019 Y54.083 F7200
;segType:Loop
G0 X145.827 Y54.367
G1 X145.714 Y54.949 E2.0212 F3600
G1 X143.550 Y60.603 E2.2226
G1 X140.912 Y64.115 E2.3687
G1 X138.203 Y65.235 E2.4662
G1 X135.494 Y64.115 E2.5637
G1 X132.856 Y60.603 E2.7098
G1 X130.692 Y54.948 E2.9111
G1 X130.461 Y53.764 E2.9513
G1 X145.945 Y53.764 E3.4663
G1 X145.865 Y54.171 E3.4800
;segType:Infill
G0 X142.144 Y59.943 F7200
G1 X136.656 Y54.455 E3.7898 F4500
G0 X132.130 Y54.455 F7200
G1 X139.892 Y62.216 E4.2279 F4500
;segType:HShell
G0 X144.810 Y54.124 F7200
G1 X145.394 Y54.708 E4.2554 F3600
G0 X145.068 Y54.664 F7200
G1 X144.833 Y55.278 E4.2805 F3600
G1 X144.676 Y55.687 E4.3056
G1 X144.520 Y56.096 E4.3308
G1 X144.363 Y56.505 E4.3559
G1 X144.207 Y56.914 E4.3811
G1 X144.050 Y57.324 E4.4062
G1 X143.894 Y57.733 E4.4313
G1 X143.737 Y58.142 E4.4565
G1 X143.580 Y58.551 E4.4816
G0 X143.691 Y59.227 F7200
G1 X143.115 Y58.651 E4.5087 F3600
G0 X142.872 Y58.974 F7200
G1 X143.535 Y59.637 E4.5399 F3600
G0 X143.378 Y60.046 F7200
G1 X142.630 Y59.297 E4.5751 F3600
G0 X142.387 Y59.620 F7200
G1 X143.216 Y60.449 E4.6140 F3600
G0 X142.973 Y60.772 F7200
G1 X142.144 Y59.943 E4.6530 F3600
G0 X141.902 Y60.266 F7200
G1 X142.730 Y61.095 E4.6920 F3600
G0 X142.488 Y61.418 F7200
G1 X141.659 Y60.589 E4.7310 F3600
G0 X141.416 Y60.912 F7200
G1 X142.245 Y61.741 E4.7699 F3600
G0 X142.002 Y62.064 F7200
G1 X141.174 Y61.235 E4.8089 F3600
G0 X140.931 Y61.558 F7200
G1 X141.760 Y62.387 E4.8479 F3600
G0 X141.517 Y62.710 F7200
G1 X140.688 Y61.881 E4.8869 F3600
G0 X140.292 Y62.051 F7200
G1 X141.274 Y63.033 E4.9331 F3600
G0 X141.032 Y63.356 F7200
G1 X139.892 Y62.216 E4.9867 F3600
G0 X139.491 Y62.382 F7200
G1 X140.789 Y63.679 E5.0477 F3600
G0 X140.457 Y63.913 F7200
G1 X139.091 Y62.547 E5.1120 F3600
G0 X138.691 Y62.713 F7200
G1 X140.057 Y64.079 E5.1762 F3600
G0 X139.657 Y64.244 F7200
G1 X138.291 Y62.878 E5.2405 F3600
G0 X137.450 Y62.603 F7200
G1 X139.257 Y64.410 E5.3255 F3600
G0 X138.857 Y64.575 F7200
G1 X136.485 Y62.204 E5.4370 F3600
G0 X135.374 Y63.355 F7200
G1 X135.920 Y63.902 E5.4627 F3600
G0 X136.885 Y64.301 F7200
G1 X133.665 Y61.081 E5.6142 F3600
G0 X134.373 Y60.092 F7200
G1 X132.223 Y57.942 E5.7153 F3600
G0 X132.574 Y58.858 F7200
G1 X138.457 Y64.741 E5.9920 F3600
G0 X137.850 Y64.700 F7200
G1 X132.924 Y59.774 E6.2237 F3600
G0 X131.873 Y57.026 F7200
G1 X133.069 Y58.222 E6.2799 F3600
G0 X132.719 Y57.306 F7200
G1 X131.522 Y56.109 E6.3362 F3600
G0 X131.172 Y55.193 F7200
G1 X132.368 Y56.390 E6.3925 F3600
G0 X132.018 Y55.474 F7200
G1 X130.954 Y54.410 E6.4425 F3600
G0 X131.193 Y54.366 F7200
G1 X131.965 Y54.289 E6.4629 F3600
G1 X132.531 Y54.289 E6.4818
G0 X140.733 Y54.289 F7200
G1 X141.582 Y54.289 E6.5006 F3600
G1 X142.147 Y54.289 E6.5194
G1 X142.713 Y54.289 E6.5382
G1 X143.279 Y54.289 E6.5570
G1 X143.844 Y54.289 E6.5758
G1 X144.410 Y54.289 E6.5946
; ------------------------------------
; Layer #13
; ------------------------------------
G92 E0 ;reset extr
;segType:HShell
G0 X141.413 Y54.372 F7200
G0 F1200 Z2.800
G1 X140.565 Y54.372 E0.0188 F3600
G1 X139.999 Y54.372 E0.0376
G1 X139.433 Y54.372 E0.0564
G1 X138.868 Y54.372 E0.0753
G1 X138.302 Y54.372 E0.0941
G1 X137.736 Y54.372 E0.1129
G1 X137.170 Y54.372 E0.1317
G1 X136.605 Y54.372 E0.1505
;segType:Infill
G0 X137.005 Y54.538 F7200
G1 X133.327 Y58.216 E0.3581 F4500
G0 X132.479 Y54.538 F7200
G1 X132.020 Y54.997 E0.3840 F4500
G0 X130.086 Y53.446 F7200
G0 X130.086 Y53.446
G0 X130.075 Y53.388
G0 X130.086 Y53.446
G0 X130.086 Y53.446
G0 X130.075 Y53.388
G0 X130.086 Y53.446
G0 X130.086 Y53.446
G0 X130.076 Y53.438
;segType:Perimeter
G0 X130.086 Y53.446
G1 X146.320 Y53.446 E0.9240 F2160
G1 X146.331 Y53.388 E0.9260
G1 X146.100 Y54.577 E0.9663
G1 X143.904 Y60.316 E1.1706
G1 X141.166 Y63.960 E1.3222
G1 X138.203 Y65.185 E1.4289
G1 X135.240 Y63.960 E1.5355
G1 X132.502 Y60.316 E1.6871
G1 X130.306 Y54.576 E1.8915
G1 X130.086 Y53.447 E1.9298
;segType:Loop
G0 X131.126 Y53.846 F7200
G1 X145.834 Y53.846 E2.4190 F3600
G1 X145.714 Y54.466 E2.4400
G1 X143.550 Y60.120 E2.6413
G1 X140.912 Y63.632 E2.7874
G1 X138.203 Y64.753 E2.8849
G1 X135.494 Y63.632 E2.9824
G1 X132.856 Y60.120 E3.1285
G1 X130.692 Y54.465 E3.3299
G1 X130.572 Y53.846 E3.3509
G1 X130.926 Y53.846 E3.3627
;segType:Infill
G0 X135.268 Y60.800 F7200
G1 X141.530 Y54.538 E3.7161 F4500
G0 X143.636 Y56.958 F7200
G1 X138.174 Y62.420 E4.0244 F4500
;segType:HShell
G0 X131.341 Y54.262 F7200
G1 X131.596 Y54.855 E4.0482 F3600
G1 X131.753 Y55.264 E4.0734
G1 X131.909 Y55.673 E4.0985
G1 X132.066 Y56.083 E4.1236
G1 X132.223 Y56.492 E4.1488
G1 X132.379 Y56.901 E4.1739
G1 X132.536 Y57.310 E4.1990
G1 X132.692 Y57.719 E4.2242
G1 X132.849 Y58.128 E4.2493
G0 X133.327 Y58.216 F7200
G1 X132.738 Y58.805 E4.2770 F3600
G0 X132.895 Y59.214 F7200
G1 X133.569 Y58.539 E4.3087 F3600
G0 X133.812 Y58.862 F7200
G1 X133.051 Y59.623 E4.3445 F3600
G0 X133.226 Y60.014 F7200
G1 X134.055 Y59.185 E4.3835 F3600
G0 X134.297 Y59.508 F7200
G1 X133.469 Y60.337 E4.4225 F3600
G0 X133.711 Y60.660 F7200
G1 X134.540 Y59.831 E4.4614 F3600
G0 X134.783 Y60.154 F7200
G1 X133.954 Y60.983 E4.5004 F3600
G0 X134.197 Y61.306 F7200
G1 X135.025 Y60.477 E4.5394 F3600
G0 X135.268 Y60.800 F7200
G1 X134.440 Y61.629 E4.5784 F3600
G0 X134.682 Y61.952 F7200
G1 X135.511 Y61.123 E4.6173 F3600
G0 X135.773 Y61.427 F7200
G1 X134.925 Y62.275 E4.6572 F3600
G0 X135.168 Y62.598 F7200
G1 X136.173 Y61.592 E4.7045 F3600
G0 X136.573 Y61.758 F7200
G1 X135.410 Y62.921 E4.7592 F3600
G0 X135.653 Y63.244 F7200
G1 X136.974 Y61.923 E4.8214 F3600
G0 X137.374 Y62.089 F7200
G1 X136.007 Y63.455 E4.8856 F3600
G0 X136.408 Y63.620 F7200
G1 X137.774 Y62.254 E4.9499 F3600
G0 X138.174 Y62.420 F7200
G1 X136.808 Y63.786 E5.0141 F3600
G0 X137.208 Y63.951 F7200
G1 X139.098 Y62.062 E5.1030 F3600
G0 X140.063 Y61.662 F7200
G1 X137.608 Y64.117 E5.2185 F3600
G0 X138.008 Y64.282 F7200
G1 X143.781 Y58.510 E5.4900 F3600
G0 X143.430 Y59.426 F7200
G1 X138.699 Y64.158 E5.7126 F3600
G0 X139.663 Y63.759 F7200
G1 X142.489 Y60.933 E5.8455 F3600
G0 X141.782 Y59.944 F7200
G1 X144.131 Y57.594 E5.9561 F3600
G0 X143.285 Y57.874 F7200
G1 X144.482 Y56.677 E6.0124 F3600
G0 X144.833 Y55.761 F7200
G1 X143.636 Y56.958 E6.0687 F3600
G0 X143.986 Y56.042 F7200
G1 X145.183 Y54.845 E6.1250 F3600
G0 X145.256 Y54.207 F7200
G1 X144.337 Y55.125 E6.1682 F3600
G0 X144.807 Y54.372 F7200
G1 X143.959 Y54.372 E6.1870 F3600
G1 X143.393 Y54.372 E6.2058
G1 X142.827 Y54.372 E6.2246
G1 X142.262 Y54.372 E6.2434
G1 X141.696 Y54.372 E6.2623
G0 X136.322 Y54.372 F7200
G1 X135.473 Y54.372 E6.2811 F3600
G1 X134.908 Y54.372 E6.2999
G1 X134.342 Y54.372 E6.3187
G1 X133.776 Y54.372 E6.3375
G1 X133.211 Y54.372 E6.3563
G1 X132.645 Y54.372 E6.3751
G1 X132.079 Y54.372 E6.3940
; ------------------------------------
; Layer #14
; ------------------------------------
G92 E0 ;reset extr
;segType:Infill
G0 F3000 E-1.0000
G0 F1200 Z3.000
G0 X136.822 Y54.621 F7200
G0 F3000 E0.0000
G1 X141.730 Y59.529 E0.2771 F4500
G0 X139.208 Y61.533 F7200
G1 X132.296 Y54.621 E0.6672 F4500
;segType:Perimeter
G0 X130.229 Y53.529 F7200
G1 X146.210 Y53.529 E1.1987 F2160
G1 X146.215 Y53.502 E1.1997
G1 X146.100 Y54.094 E1.2197
G1 X143.904 Y59.833 E1.4241
G1 X141.166 Y63.477 E1.5757
G1 X138.203 Y64.703 E1.6823
G1 X135.240 Y63.477 E1.7890
G1 X132.502 Y59.833 E1.9406
G1 X130.306 Y54.093 E2.1450
G1 X130.202 Y53.561 E2.1630
;segType:Loop
G0 X130.696 Y53.929 F7200
G1 X145.724 Y53.929 E2.6628 F3600
G1 X145.741 Y53.845 E2.6657
G1 X145.714 Y53.984 E2.6704
G1 X143.550 Y59.637 E2.8717
G1 X140.912 Y63.149 E3.0178
G1 X138.203 Y64.270 E3.1153
G1 X135.494 Y63.150 E3.2128
G1 X132.856 Y59.637 E3.3589
G1 X130.692 Y53.983 E3.5603
G1 X130.685 Y53.943 E3.5616
;segType:Infill
G0 X143.516 Y56.789 F7200
G1 X141.347 Y54.621 E3.6840 F4500
;segType:HShell
G0 X132.471 Y57.624 F7200
G1 X135.580 Y60.733 E3.8303 F3600
G0 X134.873 Y61.723 F7200
G1 X136.203 Y63.053 E3.8928 F3600
G0 X137.167 Y63.452 F7200
G1 X133.172 Y59.456 E4.0807 F3600
G0 X132.822 Y58.540 F7200
G1 X138.132 Y63.851 E4.3305 F3600
G0 X138.574 Y63.727 F7200
G1 X135.804 Y60.957 E4.4608 F3600
G0 X136.768 Y61.356 F7200
G1 X138.974 Y63.561 E4.5645 F3600
G0 X139.374 Y63.396 F7200
G1 X137.733 Y61.754 E4.6417 F3600
G0 X138.408 Y61.864 F7200
G1 X139.774 Y63.230 E4.7060 F3600
G0 X140.174 Y63.065 F7200
G1 X138.808 Y61.699 E4.7703 F3600
G0 X139.208 Y61.533 F7200
G1 X140.575 Y62.899 E4.8345 F3600
G0 X140.860 Y62.619 F7200
G1 X139.609 Y61.368 E4.8934 F3600
G0 X140.009 Y61.202 F7200
G1 X141.103 Y62.296 E4.9448 F3600
G0 X141.345 Y61.973 F7200
G1 X140.409 Y61.036 E4.9889 F3600
G0 X140.759 Y60.821 F7200
G1 X141.588 Y61.650 E5.0278 F3600
G0 X141.831 Y61.327 F7200
G1 X141.002 Y60.498 E5.0668 F3600
G0 X141.245 Y60.175 F7200
G1 X142.073 Y61.004 E5.1058 F3600
G0 X142.316 Y60.681 F7200
G1 X141.487 Y59.852 E5.1447 F3600
G0 X141.730 Y59.529 F7200
G1 X142.559 Y60.358 E5.1837 F3600
G0 X142.801 Y60.035 F7200
G1 X141.973 Y59.206 E5.2227 F3600
G0 X142.216 Y58.883 F7200
G1 X143.044 Y59.712 E5.2616 F3600
G0 X143.267 Y59.369 F7200
G1 X142.458 Y58.560 E5.2997 F3600
G0 X142.701 Y58.237 F7200
G1 X143.424 Y58.960 E5.3337 F3600
G0 X143.580 Y58.551 F7200
G1 X142.944 Y57.914 E5.3637 F3600
G0 X143.379 Y58.067 F7200
G1 X143.626 Y57.466 E5.3896 F3600
G1 X143.783 Y57.056 E5.4147
G1 X143.939 Y56.647 E5.4399
G1 X144.096 Y56.238 E5.4650
G1 X144.252 Y55.829 E5.4901
G1 X144.409 Y55.420 E5.5153
G1 X144.565 Y55.011 E5.5404
G0 X144.410 Y54.290 F7200
G1 X144.989 Y54.869 E5.5677 F3600
G0 X144.293 Y54.455 F7200
G1 X143.444 Y54.455 E5.5865 F3600
G1 X142.879 Y54.455 E5.6053
G1 X142.313 Y54.455 E5.6241
G1 X141.747 Y54.455 E5.6429
G1 X141.182 Y54.455 E5.6618
G1 X140.616 Y54.455 E5.6806
G1 X140.050 Y54.455 E5.6994
G1 X139.485 Y54.455 E5.7182
G1 X138.919 Y54.455 E5.7370
G1 X138.353 Y54.455 E5.7558
G1 X137.787 Y54.455 E5.7747
G1 X137.222 Y54.455 E5.7935
G1 X136.656 Y54.455 E5.8123
G1 X136.090 Y54.455 E5.8311
G1 X135.525 Y54.455 E5.8499
G1 X134.959 Y54.455 E5.8687
G1 X134.393 Y54.455 E5.8875
G1 X133.828 Y54.455 E5.9064
G1 X133.262 Y54.455 E5.9252
G1 X132.696 Y54.455 E5.9440
G1 X132.131 Y54.455 E5.9628
G0 X132.266 Y55.156 F7200
G1 X131.399 Y54.290 E6.0035 F3600
G0 X131.420 Y54.875 F7200
G1 X132.616 Y56.072 E6.0598 F3600
G0 X132.967 Y56.988 F7200
G1 X131.770 Y55.792 E6.1161 F3600
G0 X132.121 Y56.708 F7200
G1 X133.872 Y58.459 E6.1985 F3600
; ------------------------------------
; Layer #15
; ------------------------------------
G92 E0 ;reset extr
;segType:Infill
G0 X135.682 Y60.386 F7200
G0 F1200 Z3.200
G1 X141.365 Y54.704 E0.3207 F4500
G0 X142.282 Y58.312 F7200
G1 X139.780 Y60.814 E0.4620 F4500
;segType:Perimeter
G0 X138.783 Y63.710 F7200
G1 X138.148 Y64.197 E0.4886 F2160
G1 X135.240 Y62.994 E0.5932
G1 X132.502 Y59.350 E0.7448
G1 X130.306 Y53.610 E0.9492
G1 X130.201 Y53.539 E0.9519
G1 X130.315 Y53.618 E0.9566
G1 X130.429 Y53.612 E0.9605
G1 X145.972 Y53.612 E1.4774
G1 X146.087 Y53.621 E1.4814
G1 X146.201 Y53.542 E1.4844
G1 X146.099 Y53.611 E1.4885
G1 X143.904 Y59.350 E1.6928
G1 X141.166 Y62.994 E1.8444
G1 X138.259 Y64.197 E1.9491
G0 X137.624 Y63.710 F7200
;segType:Loop
G0 X137.339 Y63.430
G1 X135.494 Y62.667 E2.0155 F3600
G1 X132.856 Y59.155 E2.1616
G1 X130.868 Y53.959 E2.3466
G1 X130.772 Y53.932 E2.3486
G1 X130.887 Y54.011 E2.3532
G1 X131.001 Y54.012 E2.3570
G1 X145.401 Y54.012 E2.8359
G1 X145.515 Y54.014 E2.8398
G1 X145.629 Y53.935 E2.8426
G1 X145.538 Y53.959 E2.8458
G1 X143.550 Y59.154 E3.0308
G1 X140.912 Y62.667 E3.1769
G1 X138.203 Y63.787 E3.2744
G1 X137.524 Y63.506 E3.2988
;segType:Infill
G0 X133.741 Y57.802 F7200
G1 X136.839 Y54.704 E3.4737 F4500
;segType:HShell
G0 X137.491 Y63.103 F7200
G1 X139.780 Y60.814 E3.5813 F3600
G0 X138.815 Y61.213 F7200
G1 X137.091 Y62.937 E3.6625 F3600
G0 X136.691 Y62.772 F7200
G1 X138.057 Y61.406 E3.7267 F3600
G0 X137.657 Y61.240 F7200
G1 X136.291 Y62.606 E3.7910 F3600
G0 X135.890 Y62.441 F7200
G1 X137.257 Y61.075 E3.8552 F3600
G0 X136.856 Y60.909 F7200
G1 X135.582 Y62.184 E3.9152 F3600
G0 X135.339 Y61.861 F7200
G1 X136.456 Y60.744 E3.9677 F3600
G0 X136.056 Y60.578 F7200
G1 X135.097 Y61.538 E4.0129 F3600
G0 X134.854 Y61.215 F7200
G1 X135.682 Y60.386 E4.0518 F3600
G0 X135.440 Y60.063 F7200
G1 X134.611 Y60.892 E4.0908 F3600
G0 X134.369 Y60.569 F7200
G1 X135.197 Y59.740 E4.1298 F3600
G0 X134.954 Y59.417 F7200
G1 X134.126 Y60.245 E4.1687 F3600
G0 X133.883 Y59.922 F7200
G1 X134.712 Y59.094 E4.2077 F3600
G0 X134.469 Y58.771 F7200
G1 X133.640 Y59.599 E4.2467 F3600
G0 X133.398 Y59.276 F7200
G1 X134.226 Y58.448 E4.2856 F3600
G0 X133.984 Y58.125 F7200
G1 X133.162 Y58.947 E4.3243 F3600
G0 X133.005 Y58.538 F7200
G1 X133.741 Y57.802 E4.3589 F3600
G0 X133.498 Y57.479 F7200
G1 X132.849 Y58.128 E4.3894 F3600
G0 X133.059 Y57.635 F7200
G1 X132.803 Y57.043 E4.4159 F3600
G1 X132.646 Y56.634 E4.4411
G1 X132.490 Y56.225 E4.4662
G1 X132.333 Y55.815 E4.4913
G1 X132.177 Y55.406 E4.5165
G1 X132.020 Y54.997 E4.5416
G1 X131.838 Y54.614 E4.5668
G0 X132.197 Y54.538 F7200
G1 X133.045 Y54.538 E4.5856 F3600
G1 X133.611 Y54.538 E4.6044
G1 X134.176 Y54.538 E4.6232
G1 X134.742 Y54.538 E4.6420
G1 X135.308 Y54.538 E4.6608
G1 X135.874 Y54.538 E4.6796
G1 X136.439 Y54.538 E4.6985
G1 X137.005 Y54.538 E4.7173
G1 X137.571 Y54.538 E4.7361
G1 X138.136 Y54.538 E4.7549
G1 X138.702 Y54.538 E4.7737
G1 X139.268 Y54.538 E4.7925
G1 X139.833 Y54.538 E4.8113
G1 X140.399 Y54.538 E4.8302
G1 X140.965 Y54.538 E4.8490
G1 X141.530 Y54.538 E4.8678
G1 X142.096 Y54.538 E4.8866
G1 X142.662 Y54.538 E4.9054
G1 X143.227 Y54.538 E4.9242
G1 X143.793 Y54.538 E4.9431
G1 X144.307 Y54.590 E4.9602
G0 X143.738 Y55.724 F7200
G1 X144.935 Y54.527 E5.0165 F3600
G0 X144.585 Y55.444 F7200
G1 X143.388 Y56.640 E5.0728 F3600
G0 X142.282 Y58.312 F7200
G1 X144.234 Y56.360 E5.1646 F3600
G0 X143.883 Y57.276 F7200
G1 X137.891 Y63.268 E5.4465 F3600
G0 X138.416 Y63.309 F7200
G1 X143.533 Y58.192 E5.6872 F3600
G0 X142.989 Y59.301 F7200
G1 X139.381 Y62.910 E5.8569 F3600
G0 X140.345 Y62.511 F7200
G1 X141.280 Y61.576 E5.9009 F3600
G0 F3000 E4.9009
G0 X123.185 Y57.233 F7200
G0 X120.600 Y56.612
G0 X110.260 Y54.130
G0 F3000 E5.9009
G1 X107.879 Y56.511 E6.0129 F3600
G0 X107.722 Y56.102 F7200
G1 X109.694 Y54.130 E6.1057 F3600
G0 X109.129 Y54.130 F7200
G1 X107.612 Y55.647 E6.1771 F3600
G0 X107.519 Y55.174 F7200
G1 X108.563 Y54.130 E6.2262 F3600
G0 X107.997 Y54.130 F7200
G1 X107.427 Y54.700 E6.2530 F3600
;segType:Perimeter
G0 X106.453 Y53.370 F7200
G1 X123.289 Y53.370 E6.8130 F2160
G1 X122.738 Y56.196 E6.9087
G1 X120.542 Y61.935 E7.1131
G1 X117.804 Y65.579 E7.2647
G1 X114.841 Y66.806 E7.3714
G1 X111.878 Y65.580 E7.4780
G1 X109.140 Y61.935 E7.6296
G1 X106.944 Y56.197 E7.8340
G1 X106.405 Y53.429 E7.9278
G0 X107.177 Y53.636 F7200
;segType:Loop
G0 X106.939 Y53.770
G1 X122.803 Y53.770 E8.4554 F3600
G1 X122.352 Y56.086 E8.5339
G1 X120.188 Y61.740 E8.7352
G1 X117.550 Y65.252 E8.8814
G1 X114.841 Y66.373 E8.9788
G1 X112.132 Y65.252 E9.0763
G1 X109.494 Y61.740 E9.2225
G1 X107.330 Y56.086 E9.4238
G1 X106.890 Y53.829 E9.5003
;segType:HShell
G0 X108.035 Y56.921 F7200
G1 X110.826 Y54.130 E9.6315 F3600
G0 X111.391 Y54.130 F7200
G1 X108.192 Y57.330 E9.7820 F3600
G0 X108.348 Y57.739 F7200
G1 X111.957 Y54.130 E9.9518 F3600
G0 X112.523 Y54.130 F7200
G1 X108.505 Y58.148 E10.1408 F3600
G0 X108.661 Y58.557 F7200
G1 X113.088 Y54.130 E10.3490 F3600
G0 X113.654 Y54.130 F7200
G1 X108.818 Y58.966 E10.5765 F3600
G0 X108.974 Y59.375 F7200
G1 X114.220 Y54.130 E10.8232 F3600
G0 X114.786 Y54.130 F7200
G1 X109.131 Y59.784 E11.0892 F3600
G0 X109.288 Y60.194 F7200
G1 X115.351 Y54.130 E11.3744 F3600
G0 X115.917 Y54.130 F7200
G1 X109.444 Y60.603 E11.6789 F3600
G0 X109.601 Y61.012 F7200
G1 X116.483 Y54.130 E12.0026 F3600
G0 X117.048 Y54.130 F7200
G1 X109.757 Y61.421 E12.3455 F3600
G0 X109.970 Y61.774 F7200
G1 X117.614 Y54.130 E12.7051 F3600
G0 X118.180 Y54.130 F7200
G1 X110.213 Y62.097 E13.0798 F3600
G0 X110.455 Y62.420 F7200
G1 X118.745 Y54.130 E13.4698 F3600
G0 X119.311 Y54.130 F7200
G1 X110.698 Y62.743 E13.8749 F3600
G0 X110.941 Y63.066 F7200
G1 X119.877 Y54.130 E14.2952 F3600
G0 X120.442 Y54.130 F7200
G1 X111.183 Y63.389 E14.7307 F3600
G0 X111.426 Y63.712 F7200
G1 X121.008 Y54.130 E15.1814 F3600
G0 X121.574 Y54.130 F7200
G1 X111.669 Y64.035 E15.6473 F3600
G0 X111.911 Y64.358 F7200
G1 X122.139 Y54.130 E16.1284 F3600
G0 X122.284 Y54.551 F7200
G1 X112.154 Y64.681 E16.6049 F3600
G0 X112.420 Y64.981 F7200
G1 X122.147 Y55.254 E17.0625 F3600
G0 X122.010 Y55.956 F7200
G1 X112.820 Y65.147 E17.4947 F3600
G0 X113.220 Y65.312 F7200
G1 X121.669 Y56.863 E17.8921 F3600
G0 X121.318 Y57.780 F7200
G1 X113.620 Y65.478 E18.2542 F3600
G0 X114.020 Y65.643 F7200
G1 X120.967 Y58.696 E18.5810 F3600
G0 X120.617 Y59.612 F7200
G1 X114.420 Y65.809 E18.8725 F3600
G0 X114.820 Y65.974 F7200
G1 X120.266 Y60.529 E19.1286 F3600
G0 X119.916 Y61.445 F7200
G1 X115.756 Y65.604 E19.3242 F3600
G0 X116.722 Y65.205 F7200
G1 X118.382 Y63.544 E19.4024 F3600
G0 F3000 E18.4024
G0 X123.066 Y95.225 F7200
G0 X123.847 Y100.506
G0 F3000 E19.4024
G1 X137.164 Y87.188 E20.0288 F3600
;segType:Perimeter
G0 X137.382 Y86.670 F7200
G1 X138.155 Y86.463 E20.0554 F2160
G1 X138.321 Y86.583 E20.0622
G1 X140.498 Y89.663 E20.1876
G1 X141.900 Y93.557 E20.3253
G1 X142.385 Y97.882 E20.4700
G1 X141.900 Y102.206 E20.6147
G1 X140.498 Y106.100 E20.7524
G1 X138.321 Y109.180 E20.8779
G1 X135.593 Y111.145 E20.9897
G1 X132.587 Y111.818 E21.0921
G1 X129.580 Y111.145 E21.1946
G1 X126.853 Y109.180 E21.3064
G1 X124.675 Y106.100 E21.4319
G1 X123.272 Y102.206 E21.5695
G1 X122.789 Y97.882 E21.7143
G1 X123.272 Y93.558 E21.8590
G1 X124.675 Y89.663 E21.9967
G1 X126.853 Y86.583 E22.1221
G1 X127.068 Y86.428 E22.1309
G1 X138.046 Y86.428 E22.4961
G0 X138.552 Y87.048 F7200
;segType:Loop
G0 X138.476 Y87.496
G1 X140.140 Y89.850 E22.5919 F3600
G1 X141.508 Y93.649 E22.7262
G1 X141.983 Y97.882 E22.8679
G1 X141.508 Y102.115 E23.0096
G1 X140.140 Y105.914 E23.1439
G1 X138.033 Y108.894 E23.2653
G1 X135.426 Y110.773 E23.3722
G1 X132.587 Y111.409 E23.4689
G1 X129.747 Y110.773 E23.5657
G1 X127.141 Y108.894 E23.6725
G1 X125.033 Y105.914 E23.7940
G1 X123.665 Y102.115 E23.9283
G1 X123.191 Y97.882 E24.0699
G1 X123.665 Y93.649 E24.2116
G1 X125.033 Y89.850 E24.3459
G1 X127.141 Y86.868 E24.4674
G1 X127.197 Y86.828 E24.4696
G1 X137.977 Y86.828 E24.8282
G1 X138.033 Y86.868 E24.8305
G1 X138.361 Y87.333 E24.8494
;segType:HShell
G0 X137.730 Y87.188 F7200
G1 X123.904 Y101.014 E25.4997 F3600
G0 X123.961 Y101.523 F7200
G1 X138.016 Y87.468 E26.1608 F3600
G0 X138.250 Y87.800 F7200
G1 X124.018 Y102.032 E26.8302 F3600
G0 X124.167 Y102.448 F7200
G1 X138.484 Y88.131 E27.5036 F3600
G0 X138.718 Y88.463 F7200
G1 X124.317 Y102.864 E28.1810 F3600
G0 X124.467 Y103.280 F7200
G1 X138.953 Y88.794 E28.8624 F3600
G0 X139.187 Y89.126 F7200
G1 X124.617 Y103.695 E29.5477 F3600
G0 X124.767 Y104.111 F7200
G1 X139.421 Y89.457 E30.2370 F3600
G0 X139.655 Y89.788 F7200
G1 X124.917 Y104.527 E30.9303 F3600
G0 X125.066 Y104.943 F7200
G1 X139.864 Y90.146 E31.6263 F3600
G0 X140.013 Y90.562 F7200
G1 X125.216 Y105.359 E32.3223 F3600
G0 X125.372 Y105.769 F7200
G1 X140.163 Y90.978 E33.0180 F3600
G0 X140.313 Y91.394 F7200
G1 X125.606 Y106.100 E33.7098 F3600
G0 X125.841 Y106.432 F7200
G1 X140.463 Y91.809 E34.3976 F3600
G0 X140.613 Y92.225 F7200
G1 X126.075 Y106.763 E35.0814 F3600
G0 X126.309 Y107.094 F7200
G1 X140.762 Y92.641 E35.7612 F3600
G0 X140.912 Y93.057 F7200
G1 X126.544 Y107.426 E36.4371 F3600
G0 X126.778 Y107.757 F7200
G1 X141.062 Y93.473 E37.1090 F3600
G0 X141.177 Y93.924 F7200
G1 X127.012 Y108.088 E37.7752 F3600
G0 X127.247 Y108.420 F7200
G1 X141.234 Y94.433 E38.4331 F3600
G0 X141.291 Y94.941 F7200
G1 X127.513 Y108.719 E39.0812 F3600
G0 X127.842 Y108.956 F7200
G1 X141.348 Y95.450 E39.7164 F3600
G0 X141.405 Y95.959 F7200
G1 X128.171 Y109.193 E40.3389 F3600
G0 X128.500 Y109.430 F7200
G1 X141.462 Y96.467 E40.9486 F3600
G0 X141.519 Y96.976 F7200
G1 X128.828 Y109.667 E41.5455 F3600
G0 X129.157 Y109.903 F7200
G1 X141.576 Y97.485 E42.1297 F3600
G0 X141.605 Y98.021 F7200
G1 X129.486 Y110.140 E42.6997 F3600
G0 X129.814 Y110.377 F7200
G1 X141.533 Y98.658 E43.2510 F3600
G0 X141.462 Y99.296 F7200
G1 X130.243 Y110.515 E43.7787 F3600
G0 X130.705 Y110.618 F7200
G1 X141.391 Y99.933 E44.2813 F3600
G0 X141.319 Y100.570 F7200
G1 X131.167 Y110.722 E44.7588 F3600
G0 X131.629 Y110.825 F7200
G1 X141.248 Y101.207 E45.2112 F3600
G0 X141.176 Y101.844 F7200
G1 X132.092 Y110.929 E45.6385 F3600
G0 X132.554 Y111.032 F7200
G1 X140.931 Y102.655 E46.0325 F3600
G0 X140.612 Y103.539 F7200
G1 X133.264 Y110.888 E46.3782 F3600
G0 X133.993 Y110.725 F7200
G1 X140.294 Y104.424 E46.6746 F3600
G0 X139.975 Y105.308 F7200
G1 X134.722 Y110.561 E46.9217 F3600
G0 X135.762 Y110.086 F7200
G1 X139.129 Y106.720 E47.0801 F3600
G0 X123.790 Y99.997 F7200
G1 X136.598 Y87.188 E47.6825 F3600
G0 X136.033 Y87.188 F7200
G1 X123.733 Y99.488 E48.2611 F3600
G0 X123.676 Y98.979 F7200
G1 X135.467 Y87.188 E48.8157 F3600
G0 X134.901 Y87.188 F7200
G1 X123.619 Y98.471 E49.3464 F3600
G0 X123.562 Y97.962 F7200
G1 X134.336 Y87.188 E49.8531 F3600
G0 X133.770 Y87.188 F7200
G1 X123.613 Y97.345 E50.3308 F3600
G0 X123.685 Y96.708 F7200
G1 X133.204 Y87.188 E50.7786 F3600
G0 X132.639 Y87.188 F7200
G1 X123.756 Y96.071 E51.1964 F3600
G0 X123.827 Y95.434 F7200
G1 X132.073 Y87.188 E51.5843 F3600
G0 X131.507 Y87.188 F7200
G1 X123.899 Y94.797 E51.9422 F3600
G0 X123.970 Y94.160 F7200
G1 X130.942 Y87.188 E52.2701 F3600
G0 X130.376 Y87.188 F7200
G1 X124.122 Y93.443 E52.5643 F3600
G0 X124.440 Y92.558 F7200
G1 X129.810 Y87.188 E52.8169 F3600
G0 X129.245 Y87.188 F7200
G1 X124.759 Y91.674 E53.0279 F3600
G0 X125.077 Y90.790 F7200
G1 X128.679 Y87.188 E53.1973 F3600
G0 X128.113 Y87.188 F7200
G1 X125.529 Y89.773 E53.3188 F3600
G0 X126.894 Y87.842 F7200
G1 X127.548 Y87.188 E53.3495 F3600
; ------------------------------------
; Layer #16
; ------------------------------------
G92 E0 ;reset extr
G0 F3000 E-1.0000
G0 F1200 Z3.400
G0 X135.535 Y59.771 F7200
G0 X136.987 Y54.786
G0 F3000 E0.0000
;segType:Infill
G1 X141.316 Y59.115 E0.2443 F4500
G0 X138.526 Y60.850 F7200
G1 X132.513 Y54.838 E0.5837 F4500
G0 X130.553 Y53.695 F7200
G0 X130.523 Y53.695
G0 X130.493 Y53.617
G0 X130.515 Y53.673
G0 X130.515 Y53.673
G0 X130.493 Y53.617
G0 X130.515 Y53.673
G0 X130.515 Y53.673
G0 X130.503 Y53.666
;segType:Perimeter
G0 X130.515 Y53.673
G1 X130.523 Y53.695 E0.5845 F2160
G1 X145.883 Y53.695 E1.0953
G1 X145.913 Y53.617 E1.0981
G1 X143.904 Y58.867 E1.2851
G1 X141.166 Y62.512 E1.4367
G1 X138.203 Y63.737 E1.5433
G1 X135.240 Y62.512 E1.6500
G1 X132.502 Y58.867 E1.8016
G1 X130.515 Y53.673 E1.9866
;segType:Loop
G0 X131.001 Y54.023 F7200
G1 X131.115 Y54.102 E1.9914 F3600
G1 X131.229 Y54.095 E1.9952
G1 X145.172 Y54.095 E2.4589
G1 X145.287 Y54.105 E2.4629
G1 X145.401 Y54.027 E2.4660
G1 X145.310 Y54.074 E2.4694
G1 X143.550 Y58.672 E2.6331
G1 X140.912 Y62.184 E2.7792
G1 X138.203 Y63.304 E2.8767
G1 X135.494 Y62.184 E2.9742
G1 X132.856 Y58.672 E3.1203
G1 X131.097 Y54.074 E3.2841
G1 X131.001 Y54.023 E3.2864
;segType:Infill
G0 X141.513 Y54.786 F7200
G1 X143.248 Y56.522 E3.3843 F4500
;segType:HShell
G0 X132.018 Y55.474 F7200
G1 X133.372 Y56.828 E3.4480 F3600
G0 X132.864 Y55.754 F7200
G1 X131.667 Y54.557 E3.5043 F3600
G0 X132.052 Y54.659 F7200
G1 X132.862 Y54.621 E3.5223 F3600
G1 X133.428 Y54.621 E3.5412
G1 X133.993 Y54.621 E3.5600
G1 X134.559 Y54.621 E3.5788
G1 X135.125 Y54.621 E3.5976
G1 X135.690 Y54.621 E3.6164
G1 X136.256 Y54.621 E3.6352
G1 X136.822 Y54.621 E3.6540
G1 X137.387 Y54.621 E3.6729
G1 X137.953 Y54.621 E3.6917
G1 X138.519 Y54.621 E3.7105
G1 X139.084 Y54.621 E3.7293
G1 X139.650 Y54.621 E3.7481
G1 X140.216 Y54.621 E3.7669
G1 X140.781 Y54.621 E3.7857
G1 X141.347 Y54.621 E3.8046
G1 X141.913 Y54.621 E3.8234
G1 X142.479 Y54.621 E3.8422
G1 X143.044 Y54.621 E3.8610
G1 X143.610 Y54.621 E3.8798
G0 X144.361 Y54.523 F7200
G1 X144.142 Y55.153 E3.9060 F3600
G1 X143.985 Y55.562 E3.9311
G1 X143.829 Y55.971 E3.9562
G1 X143.672 Y56.380 E3.9814
G1 X143.516 Y56.789 E4.0065
G0 X143.015 Y56.854 F7200
G1 X143.626 Y57.466 E4.0353 F3600
G0 X143.470 Y57.875 F7200
G1 X142.772 Y57.177 E4.0681 F3600
G0 X142.529 Y57.500 F7200
G1 X143.313 Y58.284 E4.1050 F3600
G0 X143.115 Y58.651 F7200
G1 X142.287 Y57.823 E4.1440 F3600
G0 X142.044 Y58.146 F7200
G1 X142.872 Y58.974 E4.1829 F3600
G0 X142.630 Y59.297 F7200
G1 X141.801 Y58.469 E4.2219 F3600
G0 X141.559 Y58.792 F7200
G1 X142.387 Y59.620 E4.2609 F3600
G0 X142.144 Y59.943 F7200
G1 X141.316 Y59.115 E4.2998 F3600
G0 X141.073 Y59.438 F7200
G1 X141.902 Y60.266 E4.3388 F3600
G0 X141.659 Y60.589 F7200
G1 X140.831 Y59.761 E4.3778 F3600
G0 X140.526 Y60.022 F7200
G1 X141.416 Y60.912 E4.4196 F3600
G0 X141.174 Y61.235 F7200
G1 X140.126 Y60.188 E4.4689 F3600
G0 X139.726 Y60.353 F7200
G1 X140.931 Y61.558 E4.5256 F3600
G0 X140.688 Y61.881 F7200
G1 X139.326 Y60.519 E4.5897 F3600
G0 X138.926 Y60.684 F7200
G1 X140.292 Y62.051 E4.6539 F3600
G0 X139.892 Y62.216 F7200
G1 X138.526 Y60.850 E4.7182 F3600
G0 X138.016 Y60.906 F7200
G1 X139.491 Y62.382 E4.7876 F3600
G0 X139.091 Y62.547 F7200
G1 X137.051 Y60.507 E4.8836 F3600
G0 X136.086 Y60.108 F7200
G1 X138.691 Y62.713 E5.0061 F3600
G0 X138.291 Y62.878 F7200
G1 X132.719 Y57.306 E5.2682 F3600
G0 X133.069 Y58.222 F7200
G1 X137.450 Y62.603 E5.4742 F3600
G0 X136.485 Y62.204 F7200
G1 X134.373 Y60.092 E5.5736 F3600
G0 X135.080 Y59.101 F7200
G1 X132.368 Y56.390 E5.7011 F3600
G0 F3000 E4.7011
G0 X122.481 Y61.587 F7200
G0 X120.009 Y62.887
G0 X117.537 Y64.186
G0 F3000 E5.7011
G1 X107.564 Y54.213 E6.1703 F3600
;segType:Perimeter
G0 X106.914 Y54.171 F7200
G1 X106.563 Y53.453 E6.1969 F2160
G1 X123.178 Y53.453 E6.7495
G1 X122.738 Y55.714 E6.8261
G1 X120.542 Y61.452 E7.0305
G1 X117.804 Y65.097 E7.1821
G1 X114.841 Y66.323 E7.2887
G1 X111.878 Y65.097 E7.3954
G1 X109.140 Y61.452 E7.5470
G1 X106.944 Y55.714 E7.7514
G1 X106.515 Y53.511 E7.8260
G0 X107.288 Y53.719 F7200
;segType:Loop
G0 X107.081 Y53.853
G1 X122.693 Y53.853 E8.3452 F3600
G1 X122.352 Y55.603 E8.4045
G1 X120.188 Y61.257 E8.6059
G1 X117.550 Y64.769 E8.7520
G1 X114.841 Y65.890 E8.8495
G1 X112.132 Y64.769 E8.9470
G1 X109.494 Y61.257 E9.0931
G1 X107.330 Y55.603 E9.2944
G1 X107.007 Y53.943 E9.3507
;segType:HShell
G0 X108.129 Y54.213 F7200
G1 X117.780 Y63.863 E9.8046 F3600
G0 X118.022 Y63.540 F7200
G1 X108.695 Y54.213 E10.2433 F3600
G0 X109.261 Y54.213 F7200
G1 X118.265 Y63.217 E10.6669 F3600
G0 X118.508 Y62.894 F7200
G1 X109.826 Y54.213 E11.0752 F3600
G0 X110.392 Y54.213 F7200
G1 X118.750 Y62.571 E11.4684 F3600
G0 X118.993 Y62.248 F7200
G1 X110.958 Y54.213 E11.8463 F3600
G0 X111.523 Y54.213 F7200
G1 X119.236 Y61.925 E12.2091 F3600
G0 X119.479 Y61.602 F7200
G1 X112.089 Y54.213 E12.5567 F3600
G0 X112.655 Y54.213 F7200
G1 X119.721 Y61.279 E12.8891 F3600
G0 X119.931 Y60.923 F7200
G1 X113.221 Y54.213 E13.2047 F3600
G0 X113.786 Y54.213 F7200
G1 X120.087 Y60.514 E13.5011 F3600
G0 X120.244 Y60.105 F7200
G1 X114.352 Y54.213 E13.7782 F3600
G0 X114.918 Y54.213 F7200
G1 X120.400 Y59.695 E14.0361 F3600
G0 X120.557 Y59.286 F7200
G1 X115.483 Y54.213 E14.2747 F3600
G0 X116.049 Y54.213 F7200
G1 X120.713 Y58.877 E14.4941 F3600
G0 X120.870 Y58.468 F7200
G1 X116.615 Y54.213 E14.6943 F3600
G0 X117.180 Y54.213 F7200
G1 X121.026 Y58.059 E14.8752 F3600
G0 X121.183 Y57.650 F7200
G1 X117.746 Y54.213 E15.0369 F3600
G0 X118.312 Y54.213 F7200
G1 X121.340 Y57.241 E15.1793 F3600
G0 X121.496 Y56.831 F7200
G1 X118.877 Y54.213 E15.3025 F3600
G0 X119.443 Y54.213 F7200
G1 X121.653 Y56.422 E15.4064 F3600
G0 X121.809 Y56.013 F7200
G1 X120.009 Y54.213 E15.4911 F3600
G0 X120.574 Y54.213 F7200
G1 X121.966 Y55.604 E15.5565 F3600
G0 X122.074 Y55.146 F7200
G1 X121.140 Y54.213 E15.6005 F3600
G0 X121.706 Y54.213 F7200
G1 X122.166 Y54.673 E15.6221 F3600
G0 X117.277 Y64.492 F7200
G1 X107.530 Y54.744 E16.0806 F3600
G0 X107.667 Y55.447 F7200
G1 X116.877 Y64.657 E16.5138 F3600
G0 X116.477 Y64.823 F7200
G1 X108.000 Y56.346 E16.9126 F3600
G0 X108.351 Y57.263 F7200
G1 X116.077 Y64.989 E17.2760 F3600
G0 X115.677 Y65.154 F7200
G1 X108.701 Y58.179 E17.6041 F3600
G0 X109.052 Y59.095 F7200
G1 X115.277 Y65.320 E17.8968 F3600
G0 X114.877 Y65.485 F7200
G1 X109.403 Y60.011 E18.1543 F3600
G0 X109.753 Y60.928 F7200
G1 X113.962 Y65.136 E18.3523 F3600
G0 X112.997 Y64.737 F7200
G1 X111.236 Y62.976 E18.4351 F3600
G0 F3000 E17.4351
G0 X136.823 Y88.068 F7200
G0 X140.479 Y91.653
G0 F3000 E18.4351
G1 X136.214 Y87.388 E18.6357 F3600
G0 X136.780 Y87.388 F7200
G1 X140.160 Y90.769 E18.7947 F3600
G0 X139.842 Y89.885 F7200
G1 X137.345 Y87.388 E18.9121 F3600
G0 X138.557 Y88.034 F7200
G1 X137.911 Y87.388 E18.9425 F3600
;segType:Perimeter
G0 X137.756 Y86.884 F7200
G1 X138.529 Y86.677 E18.9691 F2160
G1 X140.498 Y89.464 E19.0826
G1 X141.900 Y93.358 E19.2202
G1 X142.385 Y97.682 E19.3650
G1 X141.901 Y102.006 E19.5097
G1 X140.498 Y105.900 E19.6474
G1 X138.321 Y108.980 E19.7728
G1 X135.593 Y110.945 E19.8846
G1 X132.587 Y111.619 E19.9871
G1 X129.580 Y110.945 E20.0896
G1 X126.853 Y108.980 E20.2014
G1 X124.675 Y105.900 E20.3268
G1 X123.272 Y102.006 E20.4645
G1 X122.789 Y97.682 E20.6092
G1 X123.272 Y93.358 E20.7539
G1 X124.675 Y89.464 E20.8916
G1 X126.680 Y86.628 E21.0071
G1 X138.434 Y86.628 E21.3980
G0 X138.711 Y87.379 F7200
;segType:Loop
G0 X138.802 Y87.757
G1 X140.140 Y89.650 E21.4751 F3600
G1 X141.508 Y93.449 E21.6094
G1 X141.983 Y97.682 E21.7511
G1 X141.508 Y101.915 E21.8928
G1 X140.140 Y105.714 E22.0271
G1 X138.033 Y108.694 E22.1485
G1 X135.426 Y110.573 E22.2553
G1 X132.587 Y111.209 E22.3521
G1 X129.747 Y110.573 E22.4489
G1 X127.141 Y108.694 E22.5557
G1 X125.033 Y105.714 E22.6772
G1 X123.665 Y101.915 E22.8115
G1 X123.191 Y97.682 E22.9531
G1 X123.665 Y93.449 E23.0948
G1 X125.033 Y89.650 E23.2291
G1 X126.887 Y87.028 E23.3359
G1 X138.287 Y87.028 E23.7151
G1 X138.687 Y87.594 E23.7381
;segType:HShell
G0 X140.797 Y92.537 F7200
G1 X135.648 Y87.388 E23.9803 F3600
G0 X135.083 Y87.388 F7200
G1 X141.115 Y93.421 E24.2641 F3600
G0 X141.218 Y94.089 F7200
G1 X134.517 Y87.388 E24.5792 F3600
G0 X133.951 Y87.388 F7200
G1 X141.289 Y94.726 E24.9244 F3600
G0 X141.360 Y95.363 F7200
G1 X133.386 Y87.388 E25.2995 F3600
G0 X132.820 Y87.388 F7200
G1 X141.432 Y96.000 E25.7046 F3600
G0 X141.503 Y96.638 F7200
G1 X132.254 Y87.388 E26.1396 F3600
G0 X131.688 Y87.388 F7200
G1 X141.575 Y97.275 E26.6047 F3600
G0 X141.600 Y97.866 F7200
G1 X131.123 Y87.388 E27.0975 F3600
G0 X130.557 Y87.388 F7200
G1 X141.543 Y98.374 E27.6142 F3600
G0 X141.486 Y98.883 F7200
G1 X129.991 Y87.388 E28.1549 F3600
G0 X129.426 Y87.388 F7200
G1 X141.429 Y99.391 E28.7195 F3600
G0 X141.372 Y99.900 F7200
G1 X128.860 Y87.388 E29.3080 F3600
G0 X128.294 Y87.388 F7200
G1 X141.315 Y100.409 E29.9204 F3600
G0 X141.258 Y100.917 F7200
G1 X127.729 Y87.388 E30.5568 F3600
G0 X127.163 Y87.388 F7200
G1 X141.201 Y101.426 E31.2171 F3600
G0 X141.125 Y101.916 F7200
G1 X126.876 Y87.667 E31.8873 F3600
G0 X126.642 Y87.999 F7200
G1 X140.975 Y102.332 E32.5615 F3600
G0 X140.825 Y102.748 F7200
G1 X126.408 Y88.330 E33.2396 F3600
G0 X126.173 Y88.661 F7200
G1 X140.676 Y103.164 E33.9218 F3600
G0 X140.526 Y103.580 F7200
G1 X125.939 Y88.993 E34.6079 F3600
G0 X125.705 Y89.324 F7200
G1 X140.376 Y103.995 E35.2980 F3600
G0 X140.226 Y104.411 F7200
G1 X125.470 Y89.656 E35.9920 F3600
G0 X125.279 Y90.030 F7200
G1 X140.076 Y104.827 E36.6881 F3600
G0 X139.927 Y105.243 F7200
G1 X125.129 Y90.446 E37.3841 F3600
G0 X124.980 Y90.862 F7200
G1 X139.754 Y105.636 E38.0790 F3600
G0 X139.519 Y105.967 F7200
G1 X124.830 Y91.278 E38.7700 F3600
G0 X124.680 Y91.694 F7200
G1 X139.285 Y106.299 E39.4570 F3600
G0 X139.051 Y106.630 F7200
G1 X124.530 Y92.109 E40.1400 F3600
G0 X124.380 Y92.525 F7200
G1 X138.817 Y106.962 E40.8190 F3600
G0 X138.582 Y107.293 F7200
G1 X124.230 Y92.941 E41.4941 F3600
G0 X124.081 Y93.357 F7200
G1 X138.348 Y107.624 E42.1652 F3600
G0 X138.114 Y107.956 F7200
G1 X123.985 Y93.827 E42.8298 F3600
G0 X123.928 Y94.336 F7200
G1 X137.879 Y108.287 E43.4860 F3600
G0 X137.594 Y108.567 F7200
G1 X123.871 Y94.844 E44.1315 F3600
G0 X123.814 Y95.353 F7200
G1 X137.265 Y108.804 E44.7642 F3600
G0 X136.936 Y109.041 F7200
G1 X123.757 Y95.862 E45.3841 F3600
G0 X123.700 Y96.371 F7200
G1 X136.607 Y109.278 E45.9912 F3600
G0 X136.278 Y109.515 F7200
G1 X123.643 Y96.879 E46.5855 F3600
G0 X123.586 Y97.388 F7200
G1 X135.950 Y109.751 E47.1670 F3600
G0 X135.621 Y109.988 F7200
G1 X123.584 Y97.951 E47.7332 F3600
G0 X123.655 Y98.588 F7200
G1 X135.292 Y110.225 E48.2806 F3600
G0 X134.837 Y110.336 F7200
G1 X123.726 Y99.225 E48.8032 F3600
G0 X123.797 Y99.862 F7200
G1 X134.375 Y110.439 E49.3007 F3600
G0 X133.912 Y110.543 F7200
G1 X123.869 Y100.499 E49.7732 F3600
G0 X123.940 Y101.136 F7200
G1 X133.450 Y110.646 E50.2205 F3600
G0 X132.988 Y110.750 F7200
G1 X124.011 Y101.773 E50.6428 F3600
G0 X124.307 Y102.634 F7200
G1 X132.491 Y110.818 E51.0277 F3600
G0 X131.762 Y110.655 F7200
G1 X124.625 Y103.518 E51.3634 F3600
G0 X124.944 Y104.402 F7200
G1 X131.033 Y110.492 E51.6498 F3600
G0 X130.304 Y110.329 F7200
G1 X125.262 Y105.287 E51.8870 F3600
G0 X126.322 Y106.912 F7200
G1 X129.001 Y109.591 E52.0130 F3600
; ------------------------------------
; Layer #17
; ------------------------------------
G92 E0 ;reset extr
G0 F3000 E-1.0000
G0 F1200 Z3.600
G0 X139.715 Y64.548 F7200
G0 X140.310 Y62.045
G0 X142.096 Y54.538
G0 F3000 E0.0000
;segType:HShell
G0 X142.213 Y54.704 F7200
G1 X141.365 Y54.704 E0.0188 F3600
G1 X140.799 Y54.704 E0.0376
G1 X140.233 Y54.704 E0.0564
G1 X139.668 Y54.704 E0.0753
G1 X139.102 Y54.704 E0.0941
G1 X138.536 Y54.704 E0.1129
G1 X137.970 Y54.704 E0.1317
G1 X137.405 Y54.704 E0.1505
G1 X136.839 Y54.704 E0.1693
G1 X136.273 Y54.704 E0.1881
G1 X135.708 Y54.704 E0.2070
G1 X135.142 Y54.704 E0.2258
G1 X134.576 Y54.704 E0.2446
G1 X134.011 Y54.704 E0.2634
G0 X133.279 Y54.869 F7200
G1 X133.611 Y54.538 E0.2790 F3600
G0 X132.868 Y55.281 F7200
G1 X132.333 Y55.816 E0.3041 F3600
G0 X132.177 Y55.406 F7200
G1 X133.045 Y54.538 E0.3450 F3600
G0 X132.479 Y54.538 F7200
G1 X132.020 Y54.997 E0.3666 F3600
;segType:Perimeter
G0 X130.749 Y53.778 F7200
G1 X145.666 Y53.778 E0.8627 F2160
G1 X145.684 Y53.731 E0.8644
G1 X143.904 Y58.384 E1.0301
G1 X141.166 Y62.029 E1.1817
G1 X138.203 Y63.254 E1.2884
G1 X135.240 Y62.029 E1.3950
G1 X132.502 Y58.384 E1.5466
G1 X130.743 Y53.787 E1.7104
;segType:Loop
G0 X131.789 Y54.178 F7200
G1 X145.085 Y54.178 E2.1526 F3600
G1 X143.550 Y58.189 E2.2954
G1 X140.912 Y61.701 E2.4415
G1 X138.203 Y62.821 E2.5390
G1 X135.494 Y61.701 E2.6365
G1 X132.856 Y58.189 E2.7826
G1 X131.321 Y54.178 E2.9254
G1 X131.589 Y54.178 E2.9344
;segType:Infill
G0 X134.155 Y57.388 F7200
G1 X136.673 Y54.869 E3.0765 F4500
G0 X141.199 Y54.869 F7200
G1 X136.339 Y59.729 E3.3508 F4500
;segType:HShell
G0 X132.678 Y55.754 F7200
G1 X132.915 Y56.365 E3.3760 F3600
G0 X132.803 Y57.043 F7200
G1 X133.427 Y56.419 E3.4053 F3600
G0 X133.670 Y56.742 F7200
G1 X132.959 Y57.452 E3.4388 F3600
G0 X133.116 Y57.861 F7200
G1 X133.913 Y57.065 E3.4762 F3600
G0 X134.155 Y57.388 F7200
G1 X133.327 Y58.216 E3.5152 F3600
G0 X133.569 Y58.539 F7200
G1 X134.398 Y57.711 E3.5542 F3600
G0 X134.640 Y58.034 F7200
G1 X133.812 Y58.862 E3.5931 F3600
G0 X134.055 Y59.185 F7200
G1 X134.883 Y58.357 E3.6321 F3600
G0 X135.126 Y58.680 F7200
G1 X134.297 Y59.508 E3.6711 F3600
G0 X134.540 Y59.831 F7200
G1 X135.368 Y59.003 E3.7100 F3600
G0 X135.611 Y59.326 F7200
G1 X134.783 Y60.154 E3.7490 F3600
G0 X135.025 Y60.477 F7200
G1 X135.939 Y59.564 E3.7920 F3600
G0 X136.339 Y59.729 F7200
G1 X135.268 Y60.800 E3.8423 F3600
G0 X135.511 Y61.123 F7200
G1 X136.739 Y59.895 E3.9001 F3600
G0 X137.139 Y60.060 F7200
G1 X135.773 Y61.427 E3.9644 F3600
G0 X136.173 Y61.592 F7200
G1 X137.539 Y60.226 E4.0286 F3600
G0 X137.940 Y60.392 F7200
G1 X136.573 Y61.758 E4.0929 F3600
G0 X136.974 Y61.923 F7200
G1 X138.532 Y60.364 E4.1662 F3600
G0 X139.497 Y59.965 F7200
G1 X137.374 Y62.089 E4.2661 F3600
G0 X137.774 Y62.254 F7200
G1 X140.462 Y59.566 E4.3925 F3600
G0 X140.063 Y61.662 F7200
G1 X141.781 Y59.944 E4.4733 F3600
G0 X141.074 Y58.954 F7200
G1 X143.986 Y56.042 E4.6103 F3600
G0 X143.636 Y56.958 F7200
G1 X138.174 Y62.420 E4.8672 F3600
G0 X139.098 Y62.061 F7200
G1 X143.285 Y57.874 E5.0642 F3600
G0 X142.782 Y56.680 F7200
G1 X144.337 Y55.126 E5.1373 F3600
G0 X144.359 Y54.538 F7200
G1 X143.490 Y55.406 E5.1781 F3600
G0 X143.910 Y54.704 F7200
G1 X143.062 Y54.704 E5.1970 F3600
G1 X142.496 Y54.704 E5.2158
G0 F3000 E4.2158
G0 X123.994 Y54.397 F7200
G0 X121.327 Y54.376
G0 X110.660 Y54.296
G0 F3000 E5.2158
G1 X108.302 Y56.653 E5.3267 F3600
G0 X108.146 Y56.244 F7200
G1 X110.094 Y54.296 E5.4183 F3600
G0 X109.529 Y54.296 F7200
G1 X107.989 Y55.835 E5.4907 F3600
G0 X107.833 Y55.426 F7200
G1 X108.963 Y54.296 E5.5439 F3600
G0 X108.397 Y54.296 F7200
G1 X107.677 Y55.016 E5.5778 F3600
;segType:Perimeter
G0 X107.025 Y54.254 F7200
G1 X106.674 Y53.536 E5.6044 F2160
G1 X123.068 Y53.536 E6.1496
G1 X122.738 Y55.231 E6.2071
G1 X120.542 Y60.969 E6.4114
G1 X117.804 Y64.614 E6.5631
G1 X114.841 Y65.840 E6.6697
G1 X111.878 Y64.614 E6.7764
G1 X109.140 Y60.969 E6.9280
G1 X106.944 Y55.231 E7.1323
G1 X106.625 Y53.594 E7.1878
G0 X107.398 Y53.801 F7200
;segType:Loop
G0 X107.714 Y53.936
G1 X122.583 Y53.936 E7.6823 F3600
G1 X122.352 Y55.120 E7.7225
G1 X120.188 Y60.774 E7.9238
G1 X117.550 Y64.286 E8.0699
G1 X114.841 Y65.407 E8.1674
G1 X112.132 Y64.286 E8.2649
G1 X109.494 Y60.774 E8.4110
G1 X107.330 Y55.120 E8.6124
G1 X107.099 Y53.936 E8.6525
G1 X107.514 Y53.936 E8.6663
;segType:HShell
G0 X108.459 Y57.062 F7200
G1 X111.226 Y54.296 E8.7964 F3600
G0 X111.791 Y54.296 F7200
G1 X108.615 Y57.472 E8.9458 F3600
G0 X108.772 Y57.881 F7200
G1 X112.357 Y54.296 E9.1144 F3600
G0 X112.923 Y54.296 F7200
G1 X108.929 Y58.290 E9.3023 F3600
G0 X109.085 Y58.699 F7200
G1 X113.488 Y54.296 E9.5094 F3600
G0 X114.054 Y54.296 F7200
G1 X109.242 Y59.108 E9.7358 F3600
G0 X109.398 Y59.517 F7200
G1 X114.620 Y54.296 E9.9814 F3600
G0 X115.185 Y54.296 F7200
G1 X109.555 Y59.926 E10.2462 F3600
G0 X109.711 Y60.335 F7200
G1 X115.751 Y54.296 E10.5303 F3600
G0 X116.317 Y54.296 F7200
G1 X109.899 Y60.714 E10.8322 F3600
G0 X110.141 Y61.037 F7200
G1 X116.882 Y54.296 E11.1493 F3600
G0 X117.448 Y54.296 F7200
G1 X110.384 Y61.360 E11.4816 F3600
G0 X110.627 Y61.683 F7200
G1 X118.014 Y54.296 E11.8290 F3600
G0 X118.580 Y54.296 F7200
G1 X110.870 Y62.006 E12.1917 F3600
G0 X111.112 Y62.329 F7200
G1 X119.145 Y54.296 E12.5695 F3600
G0 X119.711 Y54.296 F7200
G1 X111.355 Y62.652 E12.9626 F3600
G0 X111.598 Y62.975 F7200
G1 X120.277 Y54.296 E13.3708 F3600
G0 X120.842 Y54.296 F7200
G1 X111.840 Y63.298 E13.7942 F3600
G0 X112.083 Y63.621 F7200
G1 X121.408 Y54.296 E14.2328 F3600
G0 X121.974 Y54.296 F7200
G1 X112.326 Y63.944 E14.6867 F3600
G0 X112.703 Y64.132 F7200
G1 X122.050 Y54.785 E15.1263 F3600
G0 X121.771 Y55.629 F7200
G1 X113.103 Y64.298 E15.5341 F3600
G0 X113.503 Y64.464 F7200
G1 X121.421 Y56.546 E15.9065 F3600
G0 X121.070 Y57.462 F7200
G1 X113.903 Y64.629 E16.2436 F3600
G0 X114.303 Y64.795 F7200
G1 X120.720 Y58.378 E16.5454 F3600
G0 X120.369 Y59.295 F7200
G1 X114.703 Y64.960 E16.8119 F3600
G0 X115.474 Y64.755 F7200
G1 X120.018 Y60.211 E17.0257 F3600
G0 X118.883 Y61.912 F7200
G1 X116.439 Y64.356 E17.1407 F3600
G0 F3000 E16.1407
G0 X122.921 Y96.179 F7200
G0 X124.001 Y101.483
G0 F3000 E17.1407
G1 X137.896 Y87.588 E17.7942 F3600
;segType:Perimeter
G0 X138.039 Y87.084 F7200
G1 X138.811 Y86.877 E17.8208 F2160
G1 X140.498 Y89.264 E17.9180
G1 X141.900 Y93.158 E18.0557
G1 X142.385 Y97.482 E18.2004
G1 X141.900 Y101.806 E18.3451
G1 X140.498 Y105.700 E18.4828
G1 X138.321 Y108.780 E18.6082
G1 X135.593 Y110.745 E18.7201
G1 X132.587 Y111.419 E18.8225
G1 X129.580 Y110.745 E18.9250
G1 X126.853 Y108.780 E19.0368
G1 X124.675 Y105.700 E19.1623
G1 X123.272 Y101.806 E19.2999
G1 X122.789 Y97.482 E19.4447
G1 X123.272 Y93.158 E19.5894
G1 X124.675 Y89.264 E19.7270
G1 X126.397 Y86.828 E19.8262
G1 X138.717 Y86.828 E20.2360
G0 X138.994 Y87.579 F7200
;segType:Loop
G0 X139.085 Y87.957
G1 X140.140 Y89.450 E20.2968 F3600
G1 X141.508 Y93.249 E20.4311
G1 X141.983 Y97.482 E20.5728
G1 X141.508 Y101.715 E20.7144
G1 X140.140 Y105.514 E20.8487
G1 X138.033 Y108.494 E20.9701
G1 X135.426 Y110.373 E21.0770
G1 X132.587 Y111.009 E21.1738
G1 X129.747 Y110.373 E21.2706
G1 X127.141 Y108.494 E21.3774
G1 X125.033 Y105.514 E21.4988
G1 X123.665 Y101.715 E21.6331
G1 X123.191 Y97.482 E21.7748
G1 X123.665 Y93.249 E21.9165
G1 X125.033 Y89.450 E22.0508
G1 X126.604 Y87.228 E22.1413
G1 X138.570 Y87.228 E22.5392
G1 X138.969 Y87.794 E22.5623
;segType:HShell
G0 X137.330 Y87.588 F7200
G1 X123.944 Y100.974 E23.1919 F3600
G0 X123.887 Y100.465 F7200
G1 X136.764 Y87.588 E23.7976 F3600
G0 X136.199 Y87.588 F7200
G1 X123.830 Y99.957 E24.3794 F3600
G0 X123.773 Y99.448 F7200
G1 X135.633 Y87.588 E24.9372 F3600
G0 X135.067 Y87.588 F7200
G1 X123.716 Y98.939 E25.4711 F3600
G0 X123.660 Y98.430 F7200
G1 X134.502 Y87.588 E25.9811 F3600
G0 X133.936 Y87.588 F7200
G1 X123.603 Y97.922 E26.4671 F3600
G0 X123.563 Y97.395 F7200
G1 X133.370 Y87.588 E26.9284 F3600
G0 X132.804 Y87.588 F7200
G1 X123.634 Y96.758 E27.3597 F3600
G0 X123.706 Y96.122 F7200
G1 X132.239 Y87.588 E27.7611 F3600
G0 X131.673 Y87.588 F7200
G1 X123.777 Y95.485 E28.1325 F3600
G0 X123.848 Y94.848 F7200
G1 X131.107 Y87.588 E28.4740 F3600
G0 X130.542 Y87.588 F7200
G1 X123.919 Y94.211 E28.7855 F3600
G0 X123.991 Y93.574 F7200
G1 X129.976 Y87.588 E29.0670 F3600
G0 X129.410 Y87.588 F7200
G1 X124.215 Y92.784 E29.3114 F3600
G0 X124.534 Y91.899 F7200
G1 X128.845 Y87.588 E29.5141 F3600
G0 X128.279 Y87.588 F7200
G1 X124.852 Y91.015 E29.6753 F3600
G0 X125.171 Y90.131 F7200
G1 X127.713 Y87.588 E29.7949 F3600
G0 X127.148 Y87.588 F7200
G1 X125.929 Y88.807 E29.8522 F3600
G0 X124.124 Y101.926 F7200
G1 X138.415 Y87.634 E30.5245 F3600
G0 X138.650 Y87.966 F7200
G1 X124.273 Y102.342 E31.2007 F3600
G0 X124.423 Y102.758 F7200
G1 X138.884 Y88.297 E31.8809 F3600
G0 X139.118 Y88.629 F7200
G1 X124.573 Y103.174 E32.5650 F3600
